(.../EAGLE-7.2.0/ulp/pcb-gcode/pcb-gcode.ulp)
(Copyright 2005 - 2012 by John Johnson)
(See readme.txt for licensing terms.)
(This file generated from the board:)
(.../projects/QFP_32U4/QFP_32U4.brd)
(Current profile is .../pcb-gcode/profiles/generic.pp  )
(This file generated 2018/11/14 14:55:06)
(Settings from pcb-machine.h)
(spindle on time = 3.0000)
(  Tool Size)
(0.1400 )
(spindle speed = 1000.0000)
(tool change at 0.0000 0.0000 5.0000 )
(feed rate xy = F101.60 )
(feed rate z  = F50.80 )
(Z Axis Settings)
(  High     Up        Down     Drill)
(5.0000 	1.0000 	-0.0700 	-1.7000 )
(Settings from pcb-defaults.h)
(isolate min = 0.0200)
(isolate max = 0.2000)
(isolate step = 0.1500)
(Generated top outlines, bottom outlines, bottom drill, )
(Unit of measure: mm)
(Metric Mode)
G21
(Absolute Coordinates)
G90
S1000
G00 Z5.0000 
G00 X0.0000 Y0.0000 
M03
G04 P3.000000
G00 Z1.0000 
G00 X-0.7671 Y-0.5782 
G01 Z-0.0700 F50.80 
G01 X-0.7340 Y-0.6127 F101.60 
G01 X-0.7001 Y-0.6466 
G01 X-0.6980 Y-0.6502 
G01 X-0.6951 Y-0.6532 
G01 X-0.6720 Y-0.6952 
G01 X-0.6481 Y-0.7366 
G01 X-0.6470 Y-0.7406 
G01 X0.0265 Y-1.9652 
G01 X0.0504 Y-2.0066 
G01 X0.0515 Y-2.0106 
G01 X0.0535 Y-2.0143 
G01 X0.0649 Y-2.0608 
G01 X0.0773 Y-2.1070 
G01 X0.0773 Y-2.1112 
G01 X0.0783 Y-2.1152 
G01 X0.0773 Y-2.1631 
G01 X0.0773 Y-44.5020 
G01 X0.0504 Y-44.6024 
G01 X-0.0016 Y-44.6924 
G01 X-0.0751 Y-44.7659 
G01 X-0.1651 Y-44.8179 
G01 X-0.2655 Y-44.8448 
G01 X-17.8320 Y-44.8448 
G01 X-17.9324 Y-44.8179 
G01 X-18.0224 Y-44.7659 
G01 X-19.2719 Y-43.5164 
G01 X-19.2795 Y-43.5240 
G01 X-20.0905 Y-43.5240 
G01 X-20.6640 Y-42.9505 
G01 X-20.6640 Y-42.1395 
G01 X-20.0905 Y-41.5660 
G01 X-19.2795 Y-41.5660 
G01 X-18.7060 Y-42.1395 
G01 X-18.7060 Y-42.9505 
G01 X-18.7136 Y-42.9581 
G01 X-17.6165 Y-44.0552 
G01 X-0.7123 Y-44.0552 
G01 X-0.7123 Y-37.2252 
G01 X-1.2785 Y-37.2252 
G01 X-1.2785 Y-37.7359 
G01 X-1.2922 Y-37.7690 
G01 X-1.3175 Y-37.7943 
G01 X-1.3506 Y-37.8080 
G01 X-2.5864 Y-37.8080 
G01 X-2.6195 Y-37.7943 
G01 X-2.6448 Y-37.7690 
G01 X-2.6585 Y-37.7359 
G01 X-2.6585 Y-36.5001 
G01 X-2.6448 Y-36.4670 
G01 X-2.6195 Y-36.4417 
G01 X-2.5864 Y-36.4280 
G01 X-1.3506 Y-36.4280 
G01 X-1.3175 Y-36.4417 
G01 X-1.2922 Y-36.4670 
G01 X-1.2785 Y-36.5001 
G01 X-1.2785 Y-36.7452 
G01 X-0.7123 Y-36.7452 
G01 X-0.7123 Y-19.9180 
G01 X-1.6446 Y-19.9180 
G01 X-2.2629 Y-20.5363 
G01 X-2.2960 Y-20.5500 
G01 X-2.3318 Y-20.5500 
G01 X-2.3649 Y-20.5363 
G01 X-2.8145 Y-20.0867 
G01 X-2.8282 Y-20.0537 
G01 X-2.8282 Y-20.0179 
G01 X-2.8145 Y-19.9848 
G01 X-1.7285 Y-18.8988 
G01 X-1.6954 Y-18.8851 
G01 X-1.6596 Y-18.8851 
G01 X-1.6265 Y-18.8988 
G01 X-1.1937 Y-19.3316 
G01 X-0.7123 Y-19.3316 
G01 X-0.7123 Y-2.2604 
G01 X-1.2494 Y-1.2838 
G01 X-3.0308 Y-1.2838 
G01 X-3.0308 Y-2.1970 
G01 X-2.6841 Y-2.1970 
G01 X-2.6510 Y-2.2107 
G01 X-2.6257 Y-2.2360 
G01 X-2.6120 Y-2.2691 
G01 X-2.6120 Y-3.5049 
G01 X-2.6257 Y-3.5380 
G01 X-2.6510 Y-3.5633 
G01 X-2.6841 Y-3.5770 
G01 X-3.9199 Y-3.5770 
G01 X-3.9530 Y-3.5633 
G01 X-3.9783 Y-3.5380 
G01 X-3.9920 Y-3.5049 
G01 X-3.9920 Y-2.2691 
G01 X-3.9783 Y-2.2360 
G01 X-3.9530 Y-2.2107 
G01 X-3.9199 Y-2.1970 
G01 X-3.5108 Y-2.1970 
G01 X-3.5108 Y-1.2838 
G01 X-9.1302 Y-1.2838 
G01 X-9.1302 Y-5.1320 
G01 X-9.1571 Y-5.2324 
G01 X-9.2091 Y-5.3224 
G01 X-9.2826 Y-5.3959 
G01 X-9.5469 Y-5.6602 
G01 X-9.5392 Y-5.6736 
G01 X-9.5192 Y-5.7482 
G01 X-9.5192 Y-6.9374 
G01 X-7.8733 Y-8.8837 
G01 X-7.7640 Y-8.8776 
G01 X-7.7529 Y-8.8730 
G01 X-7.6815 Y-8.8730 
G01 X-7.5258 Y-8.8643 
G01 X-7.4842 Y-8.8730 
G01 X-6.2171 Y-8.8730 
G01 X-6.1840 Y-8.8867 
G01 X-6.1587 Y-8.9120 
G01 X-6.1450 Y-8.9451 
G01 X-6.1450 Y-9.3208 
G01 X-4.1420 Y-9.3208 
G01 X-4.1420 Y-8.9451 
G01 X-4.1283 Y-8.9120 
G01 X-4.1030 Y-8.8867 
G01 X-4.0699 Y-8.8730 
G01 X-2.5341 Y-8.8730 
G01 X-2.5010 Y-8.8867 
G01 X-2.4757 Y-8.9120 
G01 X-2.4620 Y-8.9451 
G01 X-2.4620 Y-10.2809 
G01 X-2.4757 Y-10.3140 
G01 X-2.5010 Y-10.3393 
G01 X-2.5341 Y-10.3530 
G01 X-4.0699 Y-10.3530 
G01 X-4.1030 Y-10.3393 
G01 X-4.1283 Y-10.3140 
G01 X-4.1420 Y-10.2809 
G01 X-4.1420 Y-9.8008 
G01 X-6.1450 Y-9.8008 
G01 X-6.1450 Y-10.2809 
G01 X-6.1587 Y-10.3140 
G01 X-6.1840 Y-10.3393 
G01 X-6.2171 Y-10.3530 
G01 X-7.2460 Y-10.3530 
G01 X-7.2548 Y-10.3618 
G01 X-7.2548 Y-13.2705 
G01 X-6.8338 Y-13.6915 
G01 X-6.8201 Y-13.7246 
G01 X-6.8201 Y-13.7604 
G01 X-6.8338 Y-13.7935 
G01 X-7.9198 Y-14.8795 
G01 X-7.9529 Y-14.8932 
G01 X-7.9887 Y-14.8932 
G01 X-8.0217 Y-14.8795 
G01 X-8.0983 Y-14.8029 
G01 X-8.8776 Y-15.5822 
G01 X-8.9444 Y-15.6208 
G01 X-9.0190 Y-15.6408 
G01 X-10.1026 Y-15.6408 
G01 X-10.1772 Y-15.6208 
G01 X-10.2440 Y-15.5822 
G01 X-10.2986 Y-15.5276 
G01 X-10.3372 Y-15.4608 
G01 X-10.3397 Y-15.4517 
G01 X-10.3570 Y-15.4588 
G01 X-10.3928 Y-15.4588 
G01 X-10.4259 Y-15.4451 
G01 X-11.5119 Y-14.3592 
G01 X-11.5256 Y-14.3261 
G01 X-11.5256 Y-14.2903 
G01 X-11.5119 Y-14.2572 
G01 X-11.0623 Y-13.8076 
G01 X-11.0292 Y-13.7939 
G01 X-10.9934 Y-13.7939 
G01 X-10.9603 Y-13.8076 
G01 X-9.8744 Y-14.8936 
G01 X-9.8607 Y-14.9267 
G01 X-9.8607 Y-14.9625 
G01 X-9.8744 Y-14.9956 
G01 X-9.9332 Y-15.0544 
G01 X-9.1790 Y-15.0544 
G01 X-8.4846 Y-14.3599 
G01 X-8.4713 Y-14.3279 
G01 X-7.8412 Y-13.6978 
G01 X-7.8412 Y-10.2770 
G01 X-7.8250 Y-10.2165 
G01 X-7.8250 Y-9.4683 
G01 X-7.9685 Y-9.4763 
G01 X-7.9888 Y-9.4800 
G01 X-8.0069 Y-9.4785 
G01 X-8.0250 Y-9.4795 
G01 X-8.0452 Y-9.4753 
G01 X-8.0657 Y-9.4736 
G01 X-8.0828 Y-9.4674 
G01 X-8.1006 Y-9.4637 
G01 X-8.1189 Y-9.4544 
G01 X-8.1383 Y-9.4474 
G01 X-8.1533 Y-9.4371 
G01 X-8.1695 Y-9.4289 
G01 X-8.1848 Y-9.4152 
G01 X-8.2018 Y-9.4034 
G01 X-8.2135 Y-9.3895 
G01 X-8.2270 Y-9.3774 
G01 X-8.2383 Y-9.3602 
G01 X-10.0284 Y-7.2435 
G01 X-10.0470 Y-7.2248 
G01 X-10.0532 Y-7.2141 
G01 X-10.0612 Y-7.2047 
G01 X-10.0724 Y-7.1808 
G01 X-10.0856 Y-7.1580 
G01 X-10.0888 Y-7.1460 
G01 X-10.0941 Y-7.1348 
G01 X-10.0988 Y-7.1089 
G01 X-10.1056 Y-7.0834 
G01 X-10.1056 Y-7.0710 
G01 X-10.1078 Y-7.0588 
G01 X-10.1056 Y-7.0326 
G01 X-10.1056 Y-5.9925 
G01 X-10.1974 Y-5.9679 
G01 X-10.2874 Y-5.9159 
G01 X-10.3101 Y-5.8932 
G01 X-14.2229 Y-5.8932 
G01 X-14.2229 Y-6.3171 
G01 X-14.2366 Y-6.3502 
G01 X-14.2619 Y-6.3755 
G01 X-14.2950 Y-6.3892 
G01 X-14.5752 Y-6.3892 
G01 X-14.5771 Y-6.3900 
G01 X-15.0129 Y-6.3900 
G01 X-15.0460 Y-6.3763 
G01 X-15.0713 Y-6.3510 
G01 X-15.0850 Y-6.3179 
G01 X-15.0850 Y-5.6505 
G01 X-15.0882 Y-5.6386 
G01 X-15.0882 Y-5.5614 
G01 X-15.0850 Y-5.5495 
G01 X-15.0850 Y-4.8821 
G01 X-15.0713 Y-4.8490 
G01 X-15.0507 Y-4.8284 
G01 X-15.0496 Y-4.8258 
G01 X-15.0243 Y-4.8005 
G01 X-14.9912 Y-4.7868 
G01 X-14.2950 Y-4.7868 
G01 X-14.2619 Y-4.8005 
G01 X-14.2366 Y-4.8258 
G01 X-14.2229 Y-4.8589 
G01 X-14.2229 Y-5.3068 
G01 X-10.3101 Y-5.3068 
G01 X-9.9198 Y-4.9165 
G01 X-9.9198 Y-0.8370 
G01 X-9.8929 Y-0.7366 
G01 X-9.8409 Y-0.6466 
G01 X-9.7674 Y-0.5731 
G01 X-9.6774 Y-0.5211 
G01 X-9.5770 Y-0.4942 
G01 X-1.0638 Y-0.4942 
G01 X-1.0598 Y-0.4932 
G01 X-1.0119 Y-0.4942 
G01 X-0.9640 Y-0.4942 
G01 X-0.9600 Y-0.4953 
G01 X-0.9558 Y-0.4954 
G01 X-0.9098 Y-0.5087 
G01 X-0.8636 Y-0.5211 
G01 X-0.8600 Y-0.5232 
G01 X-0.8560 Y-0.5243 
G01 X-0.8151 Y-0.5491 
G01 X-0.7736 Y-0.5731 
G01 X-0.7706 Y-0.5760 
G01 X-0.7671 Y-0.5782 
G00 Z1.0000 
G00 X-2.6257 Y-4.3360 
G01 Z-0.0700 F50.80 
G01 X-2.6120 Y-4.3691 F101.60 
G01 X-2.6120 Y-5.6049 
G01 X-2.6257 Y-5.6380 
G01 X-2.6510 Y-5.6633 
G01 X-2.6841 Y-5.6770 
G01 X-3.9199 Y-5.6770 
G01 X-3.9530 Y-5.6633 
G01 X-3.9783 Y-5.6380 
G01 X-3.9920 Y-5.6049 
G01 X-3.9920 Y-5.0204 
G01 X-5.0797 Y-5.0204 
G01 X-5.1679 Y-4.9839 
G01 X-6.4248 Y-3.7270 
G01 X-7.8029 Y-3.7270 
G01 X-7.8360 Y-3.7133 
G01 X-7.8613 Y-3.6880 
G01 X-7.8750 Y-3.6549 
G01 X-7.8750 Y-2.3191 
G01 X-7.8613 Y-2.2860 
G01 X-7.8360 Y-2.2607 
G01 X-7.8029 Y-2.2470 
G01 X-6.1671 Y-2.2470 
G01 X-6.1340 Y-2.2607 
G01 X-6.1087 Y-2.2860 
G01 X-6.0950 Y-2.3191 
G01 X-6.0950 Y-3.3780 
G01 X-4.9326 Y-4.5404 
G01 X-3.9920 Y-4.5404 
G01 X-3.9920 Y-4.3691 
G01 X-3.9783 Y-4.3360 
G01 X-3.9530 Y-4.3107 
G01 X-3.9199 Y-4.2970 
G01 X-2.6841 Y-4.2970 
G01 X-2.6510 Y-4.3107 
G01 X-2.6257 Y-4.3360 
G00 Z1.0000 
G00 X-2.5341 Y-7.1730 
G01 Z-0.0700 F50.80 
G01 X-2.5010 Y-7.1867 F101.60 
G01 X-2.4757 Y-7.2120 
G01 X-2.4620 Y-7.2451 
G01 X-2.4620 Y-8.0174 
G01 X-1.8768 Y-8.6025 
G01 X-1.8093 Y-8.6700 
G01 X-1.7728 Y-8.7583 
G01 X-1.7728 Y-11.7877 
G01 X-1.7697 Y-11.7974 
G01 X-1.7728 Y-11.8351 
G01 X-1.7728 Y-11.8729 
G01 X-1.7767 Y-11.8824 
G01 X-1.7775 Y-11.8925 
G01 X-1.7949 Y-11.9262 
G01 X-1.8093 Y-11.9611 
G01 X-1.8165 Y-11.9684 
G01 X-1.8212 Y-11.9774 
G01 X-1.8501 Y-12.0019 
G01 X-1.8768 Y-12.0287 
G01 X-1.8863 Y-12.0326 
G01 X-1.8940 Y-12.0391 
G01 X-1.9301 Y-12.0507 
G01 X-1.9651 Y-12.0652 
G01 X-1.9753 Y-12.0652 
G01 X-1.9850 Y-12.0683 
G01 X-2.0227 Y-12.0652 
G01 X-2.0244 Y-12.0652 
G01 X-2.0244 Y-12.2410 
G01 X-1.6571 Y-12.2410 
G01 X-1.6240 Y-12.2547 
G01 X-1.5987 Y-12.2800 
G01 X-1.5850 Y-12.3131 
G01 X-1.5850 Y-13.8489 
G01 X-1.5987 Y-13.8820 
G01 X-1.6240 Y-13.9073 
G01 X-1.6571 Y-13.9210 
G01 X-2.9929 Y-13.9210 
G01 X-3.0260 Y-13.9073 
G01 X-3.0513 Y-13.8820 
G01 X-3.0650 Y-13.8489 
G01 X-3.0650 Y-12.3131 
G01 X-3.0513 Y-12.2800 
G01 X-3.0260 Y-12.2547 
G01 X-2.9929 Y-12.2410 
G01 X-2.5044 Y-12.2410 
G01 X-2.5044 Y-11.9208 
G01 X-2.5729 Y-11.7882 
G01 X-5.4543 Y-11.7882 
G01 X-5.9542 Y-13.1769 
G01 X-6.0500 Y-13.8549 
G01 X-6.0500 Y-13.8857 
G01 X-6.0566 Y-13.9017 
G01 X-6.0590 Y-13.9188 
G01 X-6.0747 Y-13.9454 
G01 X-6.0865 Y-13.9739 
G01 X-6.0988 Y-13.9862 
G01 X-6.1076 Y-14.0011 
G01 X-6.1322 Y-14.0196 
G01 X-6.3190 Y-14.2064 
G01 X-6.2681 Y-14.2572 
G01 X-6.2544 Y-14.2903 
G01 X-6.2544 Y-14.3261 
G01 X-6.2681 Y-14.3592 
G01 X-7.3541 Y-15.4451 
G01 X-7.3872 Y-15.4588 
G01 X-7.4230 Y-15.4588 
G01 X-7.4561 Y-15.4451 
G01 X-7.5069 Y-15.3943 
G01 X-7.5528 Y-15.4402 
G01 X-7.5264 Y-15.4860 
G01 X-7.5092 Y-15.5502 
G01 X-3.4230 Y-19.6364 
G01 X-3.3702 Y-19.6364 
G01 X-3.3175 Y-19.5837 
G01 X-3.3801 Y-19.5210 
G01 X-3.3939 Y-19.4880 
G01 X-3.3939 Y-19.4522 
G01 X-3.3801 Y-19.4191 
G01 X-2.2942 Y-18.3331 
G01 X-2.2611 Y-18.3194 
G01 X-2.2253 Y-18.3194 
G01 X-2.1922 Y-18.3331 
G01 X-1.7426 Y-18.7827 
G01 X-1.7289 Y-18.8158 
G01 X-1.7289 Y-18.8516 
G01 X-1.7426 Y-18.8847 
G01 X-2.8286 Y-19.9706 
G01 X-2.8617 Y-19.9843 
G01 X-2.8975 Y-19.9843 
G01 X-2.9306 Y-19.9706 
G01 X-2.9781 Y-19.9231 
G01 X-3.0308 Y-19.9758 
G01 X-3.0308 Y-20.0286 
G01 X-1.8093 Y-21.2501 
G01 X-1.7728 Y-21.3383 
G01 X-1.7728 Y-21.8638 
G01 X-1.1769 Y-22.4596 
G01 X-1.1632 Y-22.4927 
G01 X-1.1632 Y-22.5285 
G01 X-1.1769 Y-22.5616 
G01 X-1.6265 Y-23.0112 
G01 X-1.6596 Y-23.0249 
G01 X-1.6954 Y-23.0249 
G01 X-1.7285 Y-23.0112 
G01 X-2.8145 Y-21.9252 
G01 X-2.8282 Y-21.8921 
G01 X-2.8282 Y-21.8563 
G01 X-2.8145 Y-21.8233 
G01 X-2.3649 Y-21.3737 
G01 X-3.4067 Y-20.3315 
G01 X-3.4743 Y-20.2639 
G01 X-3.5108 Y-20.1757 
G01 X-3.5108 Y-20.1164 
G01 X-3.5701 Y-20.1164 
G01 X-3.6583 Y-20.0799 
G01 X-7.7620 Y-15.9762 
G01 X-8.8776 Y-17.0918 
G01 X-8.9444 Y-17.1304 
G01 X-9.0190 Y-17.1504 
G01 X-11.5320 Y-17.1504 
G01 X-11.5320 Y-21.6277 
G01 X-11.5301 Y-21.6564 
G01 X-11.5320 Y-21.6662 
G01 X-11.5320 Y-21.6762 
G01 X-11.5394 Y-21.7039 
G01 X-11.5450 Y-21.7322 
G01 X-11.5494 Y-21.7411 
G01 X-11.5520 Y-21.7508 
G01 X-11.5663 Y-21.7757 
G01 X-11.5790 Y-21.8015 
G01 X-11.5856 Y-21.8090 
G01 X-11.5906 Y-21.8176 
G01 X-11.6109 Y-21.8380 
G01 X-12.3034 Y-22.6305 
G01 X-7.4380 Y-27.4960 
G01 X-7.4156 Y-27.5347 
G01 X-6.8338 Y-28.1165 
G01 X-6.8201 Y-28.1496 
G01 X-6.8201 Y-28.1854 
G01 X-6.8338 Y-28.2185 
G01 X-7.2834 Y-28.6680 
G01 X-7.3165 Y-28.6817 
G01 X-7.3523 Y-28.6817 
G01 X-7.3853 Y-28.6680 
G01 X-8.4713 Y-27.5821 
G01 X-8.4850 Y-27.5490 
G01 X-8.4850 Y-27.5132 
G01 X-8.4713 Y-27.4801 
G01 X-8.3772 Y-27.3860 
G01 X-12.7165 Y-23.0467 
G01 X-13.2635 Y-23.5324 
G01 X-13.2548 Y-23.5534 
G01 X-13.2548 Y-23.5892 
G01 X-13.2685 Y-23.6223 
G01 X-14.3544 Y-24.7082 
G01 X-14.3875 Y-24.7219 
G01 X-14.4233 Y-24.7219 
G01 X-14.4564 Y-24.7082 
G01 X-14.9060 Y-24.2587 
G01 X-14.9197 Y-24.2256 
G01 X-14.9197 Y-24.1898 
G01 X-14.9060 Y-24.1567 
G01 X-13.8200 Y-23.0707 
G01 X-13.7869 Y-23.0570 
G01 X-13.7511 Y-23.0570 
G01 X-13.7181 Y-23.0707 
G01 X-13.6751 Y-23.1137 
G01 X-12.9132 Y-22.4371 
G01 X-12.1184 Y-21.5276 
G01 X-12.1184 Y-17.1441 
G01 X-12.1230 Y-17.1422 
G01 X-13.2089 Y-16.0562 
G01 X-13.2226 Y-16.0232 
G01 X-13.2226 Y-15.9873 
G01 X-13.2089 Y-15.9543 
G01 X-13.1664 Y-15.9117 
G01 X-15.2265 Y-13.7478 
G01 X-19.6364 Y-13.7478 
G01 X-19.6364 Y-14.0190 
G01 X-19.1051 Y-14.0190 
G01 X-19.0720 Y-14.0327 
G01 X-19.0467 Y-14.0580 
G01 X-19.0330 Y-14.0911 
G01 X-19.0330 Y-15.6269 
G01 X-19.0467 Y-15.6600 
G01 X-19.0720 Y-15.6853 
G01 X-19.1051 Y-15.6990 
G01 X-20.4409 Y-15.6990 
G01 X-20.4740 Y-15.6853 
G01 X-20.4993 Y-15.6600 
G01 X-20.5130 Y-15.6269 
G01 X-20.5130 Y-14.0911 
G01 X-20.4993 Y-14.0580 
G01 X-20.4740 Y-14.0327 
G01 X-20.4409 Y-14.0190 
G01 X-20.1164 Y-14.0190 
G01 X-20.1164 Y-13.7478 
G01 X-21.3222 Y-13.7478 
G01 X-21.3222 Y-31.3552 
G01 X-19.8087 Y-31.3552 
G01 X-19.8050 Y-31.3464 
G01 X-19.7118 Y-31.2069 
G01 X-19.5931 Y-31.0882 
G01 X-19.4536 Y-30.9950 
G01 X-19.2985 Y-30.9307 
G01 X-19.1339 Y-30.8980 
G01 X-18.9661 Y-30.8980 
G01 X-18.8015 Y-30.9307 
G01 X-18.6464 Y-30.9950 
G01 X-18.5069 Y-31.0882 
G01 X-18.3882 Y-31.2069 
G01 X-18.2950 Y-31.3464 
G01 X-18.2307 Y-31.5015 
G01 X-18.1980 Y-31.6661 
G01 X-18.1980 Y-31.8339 
G01 X-18.2307 Y-31.9985 
G01 X-18.2950 Y-32.1536 
G01 X-18.3882 Y-32.2931 
G01 X-18.5069 Y-32.4118 
G01 X-18.6464 Y-32.5050 
G01 X-18.8015 Y-32.5693 
G01 X-18.9661 Y-32.6020 
G01 X-19.1339 Y-32.6020 
G01 X-19.2985 Y-32.5693 
G01 X-19.4536 Y-32.5050 
G01 X-19.5931 Y-32.4118 
G01 X-19.7118 Y-32.2931 
G01 X-19.8050 Y-32.1536 
G01 X-19.8087 Y-32.1448 
G01 X-21.3222 Y-32.1448 
G01 X-21.3222 Y-39.8201 
G01 X-20.8121 Y-40.2452 
G01 X-18.9980 Y-40.2452 
G01 X-18.8976 Y-40.2721 
G01 X-18.8076 Y-40.3241 
G01 X-17.5581 Y-41.5736 
G01 X-17.5505 Y-41.5660 
G01 X-16.7395 Y-41.5660 
G01 X-16.4908 Y-41.8146 
G01 X-13.4707 Y-38.7945 
G01 X-13.3825 Y-38.7580 
G01 X-13.2860 Y-38.7580 
G01 X-13.2860 Y-37.9011 
G01 X-13.2723 Y-37.8680 
G01 X-13.2470 Y-37.8427 
G01 X-13.2139 Y-37.8290 
G01 X-11.6781 Y-37.8290 
G01 X-11.6450 Y-37.8427 
G01 X-11.6197 Y-37.8680 
G01 X-11.6060 Y-37.9011 
G01 X-11.6060 Y-38.5064 
G01 X-10.6445 Y-38.5064 
G01 X-10.9136 Y-38.3132 
G01 X-10.9323 Y-38.3055 
G01 X-10.9524 Y-38.2854 
G01 X-10.9755 Y-38.2688 
G01 X-10.9862 Y-38.2516 
G01 X-11.0005 Y-38.2373 
G01 X-11.0114 Y-38.2110 
G01 X-11.0264 Y-38.1869 
G01 X-11.0297 Y-38.1669 
G01 X-11.0374 Y-38.1482 
G01 X-11.0374 Y-38.1198 
G01 X-11.0420 Y-38.0917 
G01 X-11.0374 Y-38.0720 
G01 X-11.0374 Y-35.4834 
G01 X-11.0413 Y-35.4697 
G01 X-11.0374 Y-35.4355 
G01 X-11.0374 Y-35.4012 
G01 X-11.0319 Y-35.3880 
G01 X-11.0303 Y-35.3739 
G01 X-11.0136 Y-35.3438 
G01 X-11.0005 Y-35.3121 
G01 X-10.9904 Y-35.3020 
G01 X-10.9835 Y-35.2896 
G01 X-10.9566 Y-35.2682 
G01 X-10.9323 Y-35.2439 
G01 X-10.9192 Y-35.2385 
G01 X-10.0019 Y-34.5100 
G01 X-10.4129 Y-34.5100 
G01 X-10.4460 Y-34.4963 
G01 X-10.4713 Y-34.4710 
G01 X-10.4850 Y-34.4379 
G01 X-10.4850 Y-33.7639 
G01 X-10.9790 Y-33.2699 
G01 X-11.0120 Y-33.1902 
G01 X-11.0120 Y-33.0000 
G01 X-11.1460 Y-32.8971 
G01 X-11.1771 Y-32.9100 
G01 X-12.6129 Y-32.9100 
G01 X-12.6460 Y-32.8963 
G01 X-12.6713 Y-32.8710 
G01 X-12.6850 Y-32.8379 
G01 X-12.6850 Y-31.6021 
G01 X-12.6713 Y-31.5690 
G01 X-12.6460 Y-31.5437 
G01 X-12.6129 Y-31.5300 
G01 X-11.1771 Y-31.5300 
G01 X-11.1440 Y-31.5437 
G01 X-11.1187 Y-31.5690 
G01 X-11.1050 Y-31.6021 
G01 X-11.1050 Y-32.3816 
G01 X-10.6856 Y-32.7035 
G01 X-10.6721 Y-32.7090 
G01 X-10.6516 Y-32.7295 
G01 X-10.6286 Y-32.7471 
G01 X-10.6214 Y-32.7598 
G01 X-10.6110 Y-32.7701 
G01 X-10.6000 Y-32.7968 
G01 X-10.5855 Y-32.8219 
G01 X-10.5836 Y-32.8364 
G01 X-10.5780 Y-32.8498 
G01 X-10.5780 Y-32.8788 
G01 X-10.5742 Y-32.9075 
G01 X-10.5780 Y-32.9216 
G01 X-10.5780 Y-33.0571 
G01 X-10.4687 Y-33.1664 
G01 X-10.4460 Y-33.1437 
G01 X-10.4129 Y-33.1300 
G01 X-8.9771 Y-33.1300 
G01 X-8.9440 Y-33.1437 
G01 X-8.9187 Y-33.1690 
G01 X-8.9050 Y-33.2021 
G01 X-8.9050 Y-34.4379 
G01 X-8.9187 Y-34.4710 
G01 X-8.9440 Y-34.4963 
G01 X-8.9771 Y-34.5100 
G01 X-9.3208 Y-34.5100 
G01 X-9.3208 Y-34.5169 
G01 X-9.3229 Y-34.5219 
G01 X-9.3255 Y-34.5447 
G01 X-9.3524 Y-34.5932 
G01 X-9.3573 Y-34.6051 
G01 X-9.3611 Y-34.6089 
G01 X-9.3723 Y-34.6290 
G01 X-9.4157 Y-34.6635 
G01 X-9.4248 Y-34.6727 
G01 X-9.4298 Y-34.6747 
G01 X-10.5526 Y-35.5664 
G01 X-10.5526 Y-37.9756 
G01 X-9.8166 Y-38.5040 
G01 X-9.7300 Y-38.5040 
G01 X-9.7300 Y-37.8376 
G01 X-9.7163 Y-37.8045 
G01 X-9.6910 Y-37.7792 
G01 X-9.6579 Y-37.7655 
G01 X-8.1221 Y-37.7655 
G01 X-8.0890 Y-37.7792 
G01 X-8.0637 Y-37.8045 
G01 X-8.0500 Y-37.8376 
G01 X-8.0500 Y-39.1734 
G01 X-8.0637 Y-39.2065 
G01 X-8.0890 Y-39.2318 
G01 X-8.1221 Y-39.2455 
G01 X-9.6579 Y-39.2455 
G01 X-9.6910 Y-39.2318 
G01 X-9.7163 Y-39.2065 
G01 X-9.7300 Y-39.1734 
G01 X-9.7300 Y-38.9888 
G01 X-9.8748 Y-38.9888 
G01 X-9.9029 Y-38.9934 
G01 X-9.9226 Y-38.9888 
G01 X-9.9428 Y-38.9888 
G01 X-9.9486 Y-38.9864 
G01 X-11.6060 Y-38.9864 
G01 X-11.6060 Y-39.2369 
G01 X-11.6197 Y-39.2700 
G01 X-11.6450 Y-39.2953 
G01 X-11.6781 Y-39.3090 
G01 X-13.2139 Y-39.3090 
G01 X-13.2470 Y-39.2953 
G01 X-13.2698 Y-39.2724 
G01 X-16.1660 Y-42.1686 
G01 X-16.1660 Y-42.9505 
G01 X-16.7395 Y-43.5240 
G01 X-17.5505 Y-43.5240 
G01 X-18.1240 Y-42.9505 
G01 X-18.1240 Y-42.1395 
G01 X-18.1164 Y-42.1319 
G01 X-19.2135 Y-41.0348 
G01 X-20.9371 Y-41.0348 
G01 X-20.9710 Y-41.0379 
G01 X-20.9889 Y-41.0348 
G01 X-21.0070 Y-41.0348 
G01 X-21.0399 Y-41.0260 
G01 X-21.0735 Y-41.0202 
G01 X-21.0899 Y-41.0126 
G01 X-21.1074 Y-41.0079 
G01 X-21.1369 Y-40.9909 
G01 X-21.1678 Y-40.9766 
G01 X-21.1817 Y-40.9650 
G01 X-21.1974 Y-40.9559 
G01 X-21.2215 Y-40.9318 
G01 X-21.9437 Y-40.3300 
G01 X-21.9594 Y-40.3209 
G01 X-21.9835 Y-40.2968 
G01 X-22.0097 Y-40.2750 
G01 X-22.0201 Y-40.2602 
G01 X-22.0329 Y-40.2474 
G01 X-22.0499 Y-40.2179 
G01 X-22.0696 Y-40.1901 
G01 X-22.0758 Y-40.1731 
G01 X-22.0849 Y-40.1574 
G01 X-22.0937 Y-40.1245 
G01 X-22.1055 Y-40.0925 
G01 X-22.1071 Y-40.0745 
G01 X-22.1118 Y-40.0570 
G01 X-22.1118 Y-40.0229 
G01 X-22.1149 Y-39.9890 
G01 X-22.1118 Y-39.9711 
G01 X-22.1118 Y-7.5324 
G01 X-22.1143 Y-7.5201 
G01 X-22.1118 Y-7.4806 
G01 X-22.1118 Y-7.4410 
G01 X-22.1085 Y-7.4289 
G01 X-22.1078 Y-7.4164 
G01 X-22.0951 Y-7.3788 
G01 X-22.0849 Y-7.3406 
G01 X-22.0786 Y-7.3297 
G01 X-22.0746 Y-7.3178 
G01 X-22.0527 Y-7.2848 
G01 X-22.0329 Y-7.2506 
G01 X-22.0240 Y-7.2417 
G01 X-22.0171 Y-7.2312 
G01 X-21.9874 Y-7.2051 
G01 X-21.9594 Y-7.1771 
G01 X-21.9485 Y-7.1708 
G01 X-19.7921 Y-5.2695 
G01 X-19.6990 Y-5.2233 
G01 X-19.5971 Y-5.2027 
G01 X-19.4933 Y-5.2092 
G01 X-19.3948 Y-5.2424 
G01 X-19.3082 Y-5.2999 
G01 X-19.3022 Y-5.3068 
G01 X-18.1875 Y-5.3068 
G01 X-18.1875 Y-4.4080 
G01 X-21.6079 Y-4.4080 
G01 X-21.6410 Y-4.3943 
G01 X-21.6663 Y-4.3690 
G01 X-21.6800 Y-4.3359 
G01 X-21.6800 Y-0.4901 
G01 X-21.6663 Y-0.4570 
G01 X-21.6410 Y-0.4317 
G01 X-21.6079 Y-0.4180 
G01 X-10.6501 Y-0.4180 
G01 X-10.6170 Y-0.4317 
G01 X-10.5917 Y-0.4570 
G01 X-10.5780 Y-0.4901 
G01 X-10.5780 Y-4.3359 
G01 X-10.5917 Y-4.3690 
G01 X-10.6170 Y-4.3943 
G01 X-10.6501 Y-4.4080 
G01 X-17.0804 Y-4.4080 
G01 X-17.0804 Y-6.3806 
G01 X-17.0941 Y-6.4137 
G01 X-17.1194 Y-6.4390 
G01 X-17.1525 Y-6.4527 
G01 X-18.1154 Y-6.4527 
G01 X-18.1485 Y-6.4390 
G01 X-18.1738 Y-6.4137 
G01 X-18.1875 Y-6.3806 
G01 X-18.1875 Y-5.8932 
G01 X-19.3056 Y-5.8932 
G01 X-21.3222 Y-7.6712 
G01 X-21.3222 Y-13.1614 
G01 X-15.1357 Y-13.1614 
G01 X-15.1322 Y-13.1605 
G01 X-15.0973 Y-13.1614 
G01 X-15.0622 Y-13.1614 
G01 X-15.0587 Y-13.1623 
G01 X-15.0550 Y-13.1624 
G01 X-15.0215 Y-13.1723 
G01 X-14.9876 Y-13.1814 
G01 X-14.9845 Y-13.1832 
G01 X-14.9809 Y-13.1842 
G01 X-14.9512 Y-13.2024 
G01 X-14.9208 Y-13.2200 
G01 X-14.9182 Y-13.2226 
G01 X-14.9151 Y-13.2245 
G01 X-14.8910 Y-13.2497 
G01 X-14.8662 Y-13.2746 
G01 X-14.8643 Y-13.2777 
G01 X-12.7485 Y-15.5002 
G01 X-12.7263 Y-15.4910 
G01 X-12.6905 Y-15.4910 
G01 X-12.6574 Y-15.5047 
G01 X-11.5981 Y-16.5640 
G01 X-11.5698 Y-16.5640 
G01 X-12.6432 Y-15.4905 
G01 X-12.6569 Y-15.4575 
G01 X-12.6569 Y-15.4217 
G01 X-12.6432 Y-15.3886 
G01 X-12.5092 Y-15.2546 
G01 X-15.6986 Y-12.0652 
G01 X-16.2550 Y-12.0652 
G01 X-16.2550 Y-12.4129 
G01 X-16.2687 Y-12.4460 
G01 X-16.2940 Y-12.4713 
G01 X-16.3271 Y-12.4850 
G01 X-17.9629 Y-12.4850 
G01 X-17.9960 Y-12.4713 
G01 X-18.0213 Y-12.4460 
G01 X-18.0350 Y-12.4129 
G01 X-18.0350 Y-11.0771 
G01 X-18.0213 Y-11.0440 
G01 X-17.9960 Y-11.0187 
G01 X-17.9629 Y-11.0050 
G01 X-16.3271 Y-11.0050 
G01 X-16.2940 Y-11.0187 
G01 X-16.2687 Y-11.0440 
G01 X-16.2550 Y-11.0771 
G01 X-16.2550 Y-11.5852 
G01 X-15.5515 Y-11.5852 
G01 X-15.4633 Y-11.6217 
G01 X-15.3957 Y-11.6892 
G01 X-12.1597 Y-14.9253 
G01 X-12.1248 Y-14.9253 
G01 X-12.0917 Y-14.9390 
G01 X-11.0057 Y-16.0250 
G01 X-10.9920 Y-16.0581 
G01 X-10.9920 Y-16.0939 
G01 X-11.0057 Y-16.1269 
G01 X-11.4428 Y-16.5640 
G01 X-9.1790 Y-16.5640 
G01 X-8.0396 Y-15.4245 
G01 X-8.0396 Y-15.2999 
G01 X-8.0031 Y-15.2117 
G01 X-7.8463 Y-15.0549 
G01 X-7.9056 Y-14.9956 
G01 X-7.9193 Y-14.9625 
G01 X-7.9193 Y-14.9267 
G01 X-7.9056 Y-14.8936 
G01 X-6.8197 Y-13.8076 
G01 X-6.7866 Y-13.7939 
G01 X-6.7508 Y-13.7939 
G01 X-6.7177 Y-13.8076 
G01 X-6.6584 Y-13.8670 
G01 X-6.5164 Y-13.7250 
G01 X-6.4292 Y-13.1077 
G01 X-6.4304 Y-13.0825 
G01 X-6.4226 Y-13.0609 
G01 X-6.4194 Y-13.0381 
G01 X-6.4066 Y-13.0164 
G01 X-5.8409 Y-11.4450 
G01 X-5.7767 Y-11.3744 
G01 X-5.6903 Y-11.3337 
G01 X-5.5949 Y-11.3292 
G01 X-5.5255 Y-11.3542 
G01 X-2.4498 Y-11.3542 
G01 X-2.4159 Y-11.3513 
G01 X-2.4069 Y-11.3542 
G01 X-2.3975 Y-11.3542 
G01 X-2.3661 Y-11.3672 
G01 X-2.3336 Y-11.3776 
G01 X-2.3265 Y-11.3836 
G01 X-2.3178 Y-11.3872 
G01 X-2.2937 Y-11.4113 
G01 X-2.2677 Y-11.4333 
G01 X-2.2634 Y-11.4416 
G01 X-2.2567 Y-11.4483 
G01 X-2.2536 Y-11.4558 
G01 X-2.2528 Y-8.9054 
G01 X-2.5137 Y-8.6445 
G01 X-2.5341 Y-8.6530 
G01 X-4.0699 Y-8.6530 
G01 X-4.1030 Y-8.6393 
G01 X-4.1283 Y-8.6140 
G01 X-4.1420 Y-8.5809 
G01 X-4.1420 Y-8.0396 
G01 X-6.1450 Y-8.0396 
G01 X-6.1450 Y-8.5809 
G01 X-6.1587 Y-8.6140 
G01 X-6.1840 Y-8.6393 
G01 X-6.2171 Y-8.6530 
G01 X-7.7529 Y-8.6530 
G01 X-7.7860 Y-8.6393 
G01 X-7.8113 Y-8.6140 
G01 X-7.8250 Y-8.5809 
G01 X-7.8250 Y-7.2451 
G01 X-7.8113 Y-7.2120 
G01 X-7.7860 Y-7.1867 
G01 X-7.7529 Y-7.1730 
G01 X-7.0332 Y-7.1730 
G01 X-7.0332 Y-5.6270 
G01 X-7.8029 Y-5.6270 
G01 X-7.8360 Y-5.6133 
G01 X-7.8613 Y-5.5880 
G01 X-7.8750 Y-5.5549 
G01 X-7.8750 Y-4.2191 
G01 X-7.8613 Y-4.1860 
G01 X-7.8360 Y-4.1607 
G01 X-7.8029 Y-4.1470 
G01 X-6.1671 Y-4.1470 
G01 X-6.1340 Y-4.1607 
G01 X-6.1087 Y-4.1860 
G01 X-6.0950 Y-4.2191 
G01 X-6.0950 Y-5.5549 
G01 X-6.1087 Y-5.5880 
G01 X-6.1340 Y-5.6133 
G01 X-6.1671 Y-5.6270 
G01 X-6.5532 Y-5.6270 
G01 X-6.5532 Y-7.1730 
G01 X-6.2171 Y-7.1730 
G01 X-6.1840 Y-7.1867 
G01 X-6.1587 Y-7.2120 
G01 X-6.1450 Y-7.2451 
G01 X-6.1450 Y-7.5596 
G01 X-4.1420 Y-7.5596 
G01 X-4.1420 Y-7.2451 
G01 X-4.1283 Y-7.2120 
G01 X-4.1030 Y-7.1867 
G01 X-4.0699 Y-7.1730 
G01 X-2.5341 Y-7.1730 
G00 Z1.0000 
G00 X-3.2987 Y-12.2800 
G01 Z-0.0700 F50.80 
G01 X-3.2850 Y-12.3131 F101.60 
G01 X-3.2850 Y-13.8489 
G01 X-3.2987 Y-13.8820 
G01 X-3.3240 Y-13.9073 
G01 X-3.3571 Y-13.9210 
G01 X-3.7856 Y-13.9210 
G01 X-3.7856 Y-14.1373 
G01 X-3.8221 Y-14.2255 
G01 X-4.3929 Y-14.7963 
G01 X-4.4811 Y-14.8328 
G01 X-5.6874 Y-14.8328 
G01 X-5.6951 Y-14.8405 
G01 X-5.6887 Y-14.8560 
G01 X-5.6887 Y-14.8918 
G01 X-5.7024 Y-14.9249 
G01 X-6.7884 Y-16.0108 
G01 X-6.8215 Y-16.0245 
G01 X-6.8573 Y-16.0245 
G01 X-6.8904 Y-16.0108 
G01 X-7.3399 Y-15.5613 
G01 X-7.3536 Y-15.5282 
G01 X-7.3536 Y-15.4924 
G01 X-7.3399 Y-15.4593 
G01 X-6.2540 Y-14.3733 
G01 X-6.2209 Y-14.3596 
G01 X-6.1851 Y-14.3596 
G01 X-6.1520 Y-14.3733 
G01 X-6.0294 Y-14.4960 
G01 X-5.9903 Y-14.4568 
G01 X-5.9227 Y-14.3893 
G01 X-5.8345 Y-14.3528 
G01 X-4.6282 Y-14.3528 
G01 X-4.2656 Y-13.9902 
G01 X-4.2656 Y-13.9210 
G01 X-4.6929 Y-13.9210 
G01 X-4.7260 Y-13.9073 
G01 X-4.7513 Y-13.8820 
G01 X-4.7650 Y-13.8489 
G01 X-4.7650 Y-12.3131 
G01 X-4.7513 Y-12.2800 
G01 X-4.7260 Y-12.2547 
G01 X-4.6929 Y-12.2410 
G01 X-3.3571 Y-12.2410 
G01 X-3.3240 Y-12.2547 
G01 X-3.2987 Y-12.2800 
G00 Z1.0000 
G00 X-4.5711 Y-15.9543 
G01 Z-0.0700 F50.80 
G01 X-4.5574 Y-15.9873 F101.60 
G01 X-4.5574 Y-16.0232 
G01 X-4.5711 Y-16.0562 
G01 X-5.6570 Y-17.1422 
G01 X-5.6901 Y-17.1559 
G01 X-5.7259 Y-17.1559 
G01 X-5.7590 Y-17.1422 
G01 X-6.2086 Y-16.6926 
G01 X-6.2223 Y-16.6595 
G01 X-6.2223 Y-16.6237 
G01 X-6.2086 Y-16.5907 
G01 X-5.1226 Y-15.5047 
G01 X-5.0895 Y-15.4910 
G01 X-5.0537 Y-15.4910 
G01 X-5.0206 Y-15.5047 
G01 X-4.5711 Y-15.9543 
G00 Z1.0000 
G00 X-4.5569 Y-16.0704 
G01 Z-0.0700 F50.80 
G01 X-4.5238 Y-16.0567 F101.60 
G01 X-4.4880 Y-16.0567 
G01 X-4.4550 Y-16.0704 
G01 X-4.0054 Y-16.5200 
G01 X-3.9917 Y-16.5530 
G01 X-3.9917 Y-16.5888 
G01 X-4.0054 Y-16.6219 
G01 X-5.0914 Y-17.7079 
G01 X-5.1244 Y-17.7216 
G01 X-5.1602 Y-17.7216 
G01 X-5.1933 Y-17.7079 
G01 X-5.6429 Y-17.2583 
G01 X-5.6566 Y-17.2252 
G01 X-5.6566 Y-17.1894 
G01 X-5.6429 Y-17.1563 
G01 X-4.5569 Y-16.0704 
G00 Z1.0000 
G00 X-3.9912 Y-16.6361 
G01 Z-0.0700 F50.80 
G01 X-3.9582 Y-16.6224 F101.60 
G01 X-3.9223 Y-16.6224 
G01 X-3.8893 Y-16.6361 
G01 X-3.4397 Y-17.0856 
G01 X-3.4260 Y-17.1187 
G01 X-3.4260 Y-17.1545 
G01 X-3.4397 Y-17.1876 
G01 X-4.5257 Y-18.2736 
G01 X-4.5587 Y-18.2873 
G01 X-4.5945 Y-18.2873 
G01 X-4.6276 Y-18.2736 
G01 X-5.0772 Y-17.8240 
G01 X-5.0909 Y-17.7909 
G01 X-5.0909 Y-17.7551 
G01 X-5.0772 Y-17.7220 
G01 X-3.9912 Y-16.6361 
G00 Z1.0000 
G00 X-3.4255 Y-17.2017 
G01 Z-0.0700 F50.80 
G01 X-3.3925 Y-17.1880 F101.60 
G01 X-3.3567 Y-17.1880 
G01 X-3.3236 Y-17.2017 
G01 X-2.8740 Y-17.6513 
G01 X-2.8603 Y-17.6844 
G01 X-2.8603 Y-17.7202 
G01 X-2.8740 Y-17.7533 
G01 X-3.9600 Y-18.8393 
G01 X-3.9931 Y-18.8530 
G01 X-4.0289 Y-18.8530 
G01 X-4.0619 Y-18.8393 
G01 X-4.5115 Y-18.3897 
G01 X-4.5252 Y-18.3566 
G01 X-4.5252 Y-18.3208 
G01 X-4.5115 Y-18.2877 
G01 X-3.4255 Y-17.2017 
G00 Z1.0000 
G00 X-2.8599 Y-17.7674 
G01 Z-0.0700 F50.80 
G01 X-2.8268 Y-17.7537 F101.60 
G01 X-2.7910 Y-17.7537 
G01 X-2.7579 Y-17.7674 
G01 X-2.3083 Y-18.2170 
G01 X-2.2946 Y-18.2501 
G01 X-2.2946 Y-18.2859 
G01 X-2.3083 Y-18.3190 
G01 X-3.3943 Y-19.4049 
G01 X-3.4274 Y-19.4186 
G01 X-3.4632 Y-19.4186 
G01 X-3.4963 Y-19.4049 
G01 X-3.9458 Y-18.9554 
G01 X-3.9595 Y-18.9223 
G01 X-3.9595 Y-18.8865 
G01 X-3.9458 Y-18.8534 
G01 X-2.8599 Y-17.7674 
G00 Z1.0000 
G00 X-2.8617 Y-21.9257 
G01 Z-0.0700 F50.80 
G01 X-2.8286 Y-21.9394 F101.60 
G01 X-1.7426 Y-23.0253 
G01 X-1.7289 Y-23.0584 
G01 X-1.7289 Y-23.0942 
G01 X-1.7426 Y-23.1273 
G01 X-2.1922 Y-23.5769 
G01 X-2.2253 Y-23.5906 
G01 X-2.2611 Y-23.5906 
G01 X-2.2942 Y-23.5769 
G01 X-3.3801 Y-22.4909 
G01 X-3.3939 Y-22.4578 
G01 X-3.3939 Y-22.4220 
G01 X-3.3801 Y-22.3889 
G01 X-2.9306 Y-21.9394 
G01 X-2.8975 Y-21.9257 
G01 X-2.8617 Y-21.9257 
G00 Z1.0000 
G00 X-3.3943 Y-22.5050 
G01 Z-0.0700 F50.80 
G01 X-2.3083 Y-23.5910 F101.60 
G01 X-2.2946 Y-23.6241 
G01 X-2.2946 Y-23.6599 
G01 X-2.3083 Y-23.6930 
G01 X-2.7579 Y-24.1426 
G01 X-2.7910 Y-24.1563 
G01 X-2.8268 Y-24.1563 
G01 X-2.8599 Y-24.1426 
G01 X-3.9458 Y-23.0566 
G01 X-3.9595 Y-23.0235 
G01 X-3.9595 Y-22.9877 
G01 X-3.9458 Y-22.9546 
G01 X-3.4963 Y-22.5050 
G01 X-3.4632 Y-22.4913 
G01 X-3.4274 Y-22.4913 
G01 X-3.3943 Y-22.5050 
G00 Z1.0000 
G00 X-3.9600 Y-23.0707 
G01 Z-0.0700 F50.80 
G01 X-2.8740 Y-24.1567 F101.60 
G01 X-2.8603 Y-24.1898 
G01 X-2.8603 Y-24.2256 
G01 X-2.8740 Y-24.2587 
G01 X-2.9073 Y-24.2920 
G01 X-2.8525 Y-24.3560 
G01 X-2.2400 Y-24.7022 
G01 X-2.1616 Y-24.6238 
G01 X-2.0470 Y-24.5472 
G01 X-1.9197 Y-24.4945 
G01 X-1.7845 Y-24.4676 
G01 X-1.6467 Y-24.4676 
G01 X-1.5115 Y-24.4945 
G01 X-1.3842 Y-24.5472 
G01 X-1.2696 Y-24.6238 
G01 X-1.1722 Y-24.7212 
G01 X-1.0956 Y-24.8358 
G01 X-1.0429 Y-24.9631 
G01 X-1.0160 Y-25.0983 
G01 X-1.0160 Y-25.2361 
G01 X-1.0429 Y-25.3713 
G01 X-1.0956 Y-25.4986 
G01 X-1.1722 Y-25.6132 
G01 X-1.2696 Y-25.7106 
G01 X-1.3842 Y-25.7872 
G01 X-1.5115 Y-25.8399 
G01 X-1.6467 Y-25.8668 
G01 X-1.7845 Y-25.8668 
G01 X-1.9197 Y-25.8399 
G01 X-2.0470 Y-25.7872 
G01 X-2.1616 Y-25.7106 
G01 X-2.2590 Y-25.6132 
G01 X-2.3356 Y-25.4986 
G01 X-2.3883 Y-25.3713 
G01 X-2.4152 Y-25.2361 
G01 X-2.4152 Y-25.1546 
G01 X-3.1205 Y-24.7558 
G01 X-3.1583 Y-24.7367 
G01 X-3.1619 Y-24.7324 
G01 X-3.1669 Y-24.7296 
G01 X-3.1929 Y-24.6963 
G01 X-3.2477 Y-24.6324 
G01 X-3.3236 Y-24.7082 
G01 X-3.3567 Y-24.7219 
G01 X-3.3925 Y-24.7219 
G01 X-3.4255 Y-24.7082 
G01 X-4.5115 Y-23.6223 
G01 X-4.5252 Y-23.5892 
G01 X-4.5252 Y-23.5534 
G01 X-4.5115 Y-23.5203 
G01 X-4.0619 Y-23.0707 
G01 X-4.0289 Y-23.0570 
G01 X-3.9931 Y-23.0570 
G01 X-3.9600 Y-23.0707 
G00 Z1.0000 
G00 X-4.5257 Y-23.6364 
G01 Z-0.0700 F50.80 
G01 X-3.4397 Y-24.7224 F101.60 
G01 X-3.4260 Y-24.7555 
G01 X-3.4260 Y-24.7913 
G01 X-3.4397 Y-24.8244 
G01 X-3.4792 Y-24.8638 
G01 X-2.7611 Y-25.5819 
G01 X-2.6935 Y-25.6495 
G01 X-2.6570 Y-25.7377 
G01 X-2.6570 Y-27.8952 
G01 X-2.5656 Y-27.9330 
G01 X-2.4510 Y-28.0096 
G01 X-2.3536 Y-28.1070 
G01 X-2.2770 Y-28.2216 
G01 X-2.2243 Y-28.3489 
G01 X-2.1974 Y-28.4841 
G01 X-2.1974 Y-28.6219 
G01 X-2.2243 Y-28.7571 
G01 X-2.2770 Y-28.8844 
G01 X-2.3536 Y-28.9990 
G01 X-2.4510 Y-29.0964 
G01 X-2.5656 Y-29.1730 
G01 X-2.6929 Y-29.2257 
G01 X-2.8281 Y-29.2526 
G01 X-2.9659 Y-29.2526 
G01 X-3.1011 Y-29.2257 
G01 X-3.2284 Y-29.1730 
G01 X-3.3430 Y-29.0964 
G01 X-3.4404 Y-28.9990 
G01 X-3.5170 Y-28.8844 
G01 X-3.5697 Y-28.7571 
G01 X-3.5966 Y-28.6219 
G01 X-3.5966 Y-28.4841 
G01 X-3.5697 Y-28.3489 
G01 X-3.5170 Y-28.2216 
G01 X-3.4404 Y-28.1070 
G01 X-3.3430 Y-28.0096 
G01 X-3.2284 Y-27.9330 
G01 X-3.1370 Y-27.8952 
G01 X-3.1370 Y-25.8848 
G01 X-3.8186 Y-25.2032 
G01 X-3.8893 Y-25.2739 
G01 X-3.9223 Y-25.2876 
G01 X-3.9582 Y-25.2876 
G01 X-3.9912 Y-25.2739 
G01 X-5.0772 Y-24.1880 
G01 X-5.0909 Y-24.1549 
G01 X-5.0909 Y-24.1191 
G01 X-5.0772 Y-24.0860 
G01 X-4.6276 Y-23.6364 
G01 X-4.5945 Y-23.6227 
G01 X-4.5587 Y-23.6227 
G01 X-4.5257 Y-23.6364 
G00 Z1.0000 
G00 X-5.0914 Y-24.2021 
G01 Z-0.0700 F50.80 
G01 X-4.0054 Y-25.2881 F101.60 
G01 X-3.9917 Y-25.3212 
G01 X-3.9917 Y-25.3570 
G01 X-4.0054 Y-25.3900 
G01 X-4.0500 Y-25.4347 
G01 X-4.0343 Y-25.4472 
G01 X-4.0214 Y-25.4525 
G01 X-3.9973 Y-25.4767 
G01 X-3.9706 Y-25.4980 
G01 X-3.9638 Y-25.5102 
G01 X-3.9539 Y-25.5201 
G01 X-3.9409 Y-25.5516 
G01 X-3.9243 Y-25.5815 
G01 X-3.9227 Y-25.5954 
G01 X-3.9174 Y-25.6083 
G01 X-3.9174 Y-25.6424 
G01 X-3.9135 Y-25.6764 
G01 X-3.9174 Y-25.6898 
G01 X-3.9174 Y-28.5952 
G01 X-3.2160 Y-29.5312 
G01 X-3.1943 Y-29.5528 
G01 X-3.1876 Y-29.5690 
G01 X-3.1771 Y-29.5831 
G01 X-3.1695 Y-29.6128 
G01 X-3.1578 Y-29.6411 
G01 X-3.1578 Y-29.6586 
G01 X-3.1535 Y-29.6756 
G01 X-3.1578 Y-29.7059 
G01 X-3.1578 Y-41.1562 
G01 X-2.4990 Y-41.7545 
G01 X-2.3105 Y-41.5660 
G01 X-1.4995 Y-41.5660 
G01 X-0.9260 Y-42.1395 
G01 X-0.9260 Y-42.9505 
G01 X-1.4995 Y-43.5240 
G01 X-2.3105 Y-43.5240 
G01 X-2.8840 Y-42.9505 
G01 X-2.8840 Y-42.1395 
G01 X-2.8388 Y-42.0943 
G01 X-3.5282 Y-41.4681 
G01 X-3.5337 Y-41.4659 
G01 X-3.5634 Y-41.4362 
G01 X-3.5945 Y-41.4080 
G01 X-3.5970 Y-41.4026 
G01 X-3.6013 Y-41.3983 
G01 X-3.6173 Y-41.3596 
G01 X-3.6352 Y-41.3216 
G01 X-3.6355 Y-41.3156 
G01 X-3.6378 Y-41.3101 
G01 X-3.6378 Y-41.2682 
G01 X-3.6398 Y-41.2262 
G01 X-3.6378 Y-41.2206 
G01 X-3.6378 Y-29.7688 
G01 X-4.3392 Y-28.8328 
G01 X-4.3609 Y-28.8111 
G01 X-4.3676 Y-28.7950 
G01 X-4.3781 Y-28.7809 
G01 X-4.3857 Y-28.7512 
G01 X-4.3974 Y-28.7229 
G01 X-4.3974 Y-28.7054 
G01 X-4.4017 Y-28.6884 
G01 X-4.3974 Y-28.6581 
G01 X-4.3974 Y-25.7821 
G01 X-4.4550 Y-25.8396 
G01 X-4.4880 Y-25.8533 
G01 X-4.5238 Y-25.8533 
G01 X-4.5569 Y-25.8396 
G01 X-5.6429 Y-24.7536 
G01 X-5.6566 Y-24.7206 
G01 X-5.6566 Y-24.6848 
G01 X-5.6429 Y-24.6517 
G01 X-5.1933 Y-24.2021 
G01 X-5.1602 Y-24.1884 
G01 X-5.1244 Y-24.1884 
G01 X-5.0914 Y-24.2021 
G00 Z1.0000 
G00 X-5.6570 Y-24.7678 
G01 Z-0.0700 F50.80 
G01 X-4.5711 Y-25.8538 F101.60 
G01 X-4.5574 Y-25.8868 
G01 X-4.5574 Y-25.9226 
G01 X-4.5711 Y-25.9557 
G01 X-5.0206 Y-26.4053 
G01 X-5.0537 Y-26.4190 
G01 X-5.0895 Y-26.4190 
G01 X-5.1226 Y-26.4053 
G01 X-6.2086 Y-25.3193 
G01 X-6.2223 Y-25.2862 
G01 X-6.2223 Y-25.2504 
G01 X-6.2086 Y-25.2174 
G01 X-5.7590 Y-24.7678 
G01 X-5.7259 Y-24.7541 
G01 X-5.6901 Y-24.7541 
G01 X-5.6570 Y-24.7678 
G00 Z1.0000 
G00 X-6.2227 Y-25.3335 
G01 Z-0.0700 F50.80 
G01 X-5.1367 Y-26.4195 F101.60 
G01 X-5.1230 Y-26.4525 
G01 X-5.1230 Y-26.4883 
G01 X-5.1367 Y-26.5214 
G01 X-5.5863 Y-26.9710 
G01 X-5.6194 Y-26.9847 
G01 X-5.6552 Y-26.9847 
G01 X-5.6883 Y-26.9710 
G01 X-6.7743 Y-25.8850 
G01 X-6.7880 Y-25.8519 
G01 X-6.7880 Y-25.8161 
G01 X-6.7743 Y-25.7831 
G01 X-6.3247 Y-25.3335 
G01 X-6.2916 Y-25.3198 
G01 X-6.2558 Y-25.3198 
G01 X-6.2227 Y-25.3335 
G00 Z1.0000 
G00 X-6.7884 Y-25.8992 
G01 Z-0.0700 F50.80 
G01 X-5.7024 Y-26.9851 F101.60 
G01 X-5.6887 Y-27.0182 
G01 X-5.6887 Y-27.0540 
G01 X-5.7024 Y-27.0871 
G01 X-6.1520 Y-27.5367 
G01 X-6.1851 Y-27.5504 
G01 X-6.2209 Y-27.5504 
G01 X-6.2540 Y-27.5367 
G01 X-7.3399 Y-26.4507 
G01 X-7.3536 Y-26.4176 
G01 X-7.3536 Y-26.3818 
G01 X-7.3399 Y-26.3487 
G01 X-6.8904 Y-25.8992 
G01 X-6.8573 Y-25.8855 
G01 X-6.8215 Y-25.8855 
G01 X-6.7884 Y-25.8992 
G00 Z1.0000 
G00 X-7.3541 Y-26.4648 
G01 Z-0.0700 F50.80 
G01 X-6.2681 Y-27.5508 F101.60 
G01 X-6.2544 Y-27.5839 
G01 X-6.2544 Y-27.6197 
G01 X-6.2681 Y-27.6528 
G01 X-6.3349 Y-27.7196 
G01 X-6.0706 Y-27.9840 
G01 X-6.0658 Y-27.9600 
G01 X-6.0131 Y-27.8327 
G01 X-5.9365 Y-27.7181 
G01 X-5.8391 Y-27.6207 
G01 X-5.7245 Y-27.5441 
G01 X-5.5972 Y-27.4914 
G01 X-5.4620 Y-27.4645 
G01 X-5.3242 Y-27.4645 
G01 X-5.1890 Y-27.4914 
G01 X-5.0617 Y-27.5441 
G01 X-4.9471 Y-27.6207 
G01 X-4.8497 Y-27.7181 
G01 X-4.7731 Y-27.8327 
G01 X-4.7204 Y-27.9600 
G01 X-4.6935 Y-28.0952 
G01 X-4.6935 Y-28.2330 
G01 X-4.7204 Y-28.3682 
G01 X-4.7731 Y-28.4955 
G01 X-4.8497 Y-28.6101 
G01 X-4.9471 Y-28.7075 
G01 X-5.0617 Y-28.7841 
G01 X-5.1890 Y-28.8368 
G01 X-5.3242 Y-28.8637 
G01 X-5.4620 Y-28.8637 
G01 X-5.5972 Y-28.8368 
G01 X-5.7245 Y-28.7841 
G01 X-5.8391 Y-28.7075 
G01 X-5.8687 Y-28.6779 
G01 X-5.9085 Y-28.6944 
G01 X-5.9252 Y-28.7040 
G01 X-5.9441 Y-28.7091 
G01 X-5.9621 Y-28.7165 
G01 X-5.9812 Y-28.7190 
G01 X-5.9998 Y-28.7240 
G01 X-6.0193 Y-28.7240 
G01 X-6.0386 Y-28.7265 
G01 X-6.0577 Y-28.7240 
G01 X-6.0770 Y-28.7240 
G01 X-6.0958 Y-28.7189 
G01 X-6.1152 Y-28.7164 
G01 X-6.1330 Y-28.7090 
G01 X-6.1516 Y-28.7040 
G01 X-6.1685 Y-28.6943 
G01 X-6.1865 Y-28.6868 
G01 X-6.2017 Y-28.6750 
G01 X-6.2184 Y-28.6654 
G01 X-6.2322 Y-28.6516 
G01 X-6.2477 Y-28.6397 
G01 X-6.2594 Y-28.6244 
G01 X-6.7678 Y-28.1161 
G01 X-6.7866 Y-28.1161 
G01 X-6.8197 Y-28.1024 
G01 X-7.9056 Y-27.0164 
G01 X-7.9193 Y-26.9833 
G01 X-7.9193 Y-26.9475 
G01 X-7.9056 Y-26.9144 
G01 X-7.4561 Y-26.4648 
G01 X-7.4230 Y-26.4511 
G01 X-7.3872 Y-26.4511 
G01 X-7.3541 Y-26.4648 
G00 Z1.0000 
G00 X-9.4148 Y-26.4733 
G01 Z-0.0700 F50.80 
G01 X-9.3868 Y-26.5042 F101.60 
G01 X-9.3573 Y-26.5337 
G01 X-9.3549 Y-26.5394 
G01 X-8.6885 Y-27.2767 
G01 X-8.6765 Y-27.2842 
G01 X-8.6568 Y-27.3118 
G01 X-8.6340 Y-27.3370 
G01 X-8.6293 Y-27.3504 
G01 X-8.6210 Y-27.3620 
G01 X-8.6134 Y-27.3950 
G01 X-8.6020 Y-27.4269 
G01 X-8.6027 Y-27.4411 
G01 X-8.5995 Y-27.4550 
G01 X-8.6051 Y-27.4884 
G01 X-8.6068 Y-27.5223 
G01 X-8.6129 Y-27.5351 
G01 X-8.7132 Y-28.1352 
G01 X-7.5846 Y-29.1972 
G01 X-4.2968 Y-29.1972 
G01 X-4.2691 Y-29.1926 
G01 X-4.2496 Y-29.1972 
G01 X-4.2295 Y-29.1972 
G01 X-4.2035 Y-29.2080 
G01 X-4.1761 Y-29.2143 
G01 X-4.1598 Y-29.2261 
G01 X-4.1413 Y-29.2337 
G01 X-4.1214 Y-29.2536 
G01 X-4.0986 Y-29.2700 
G01 X-4.0879 Y-29.2870 
G01 X-4.0737 Y-29.3012 
G01 X-4.0630 Y-29.3272 
G01 X-3.7752 Y-29.7902 
G01 X-3.7610 Y-29.8044 
G01 X-3.7503 Y-29.8304 
G01 X-3.7355 Y-29.8543 
G01 X-3.7322 Y-29.8741 
G01 X-3.7245 Y-29.8927 
G01 X-3.7245 Y-29.9208 
G01 X-3.7199 Y-29.9485 
G01 X-3.7245 Y-29.9680 
G01 X-3.7245 Y-40.7063 
G01 X-3.7610 Y-40.7945 
G01 X-4.2072 Y-41.2407 
G01 X-4.2398 Y-41.2740 
G01 X-4.2409 Y-41.2745 
G01 X-4.2849 Y-41.2932 
G01 X-4.3276 Y-41.3114 
G01 X-4.3289 Y-41.3114 
G01 X-4.3301 Y-41.3119 
G01 X-4.3766 Y-41.3119 
G01 X-10.4600 Y-41.3743 
G01 X-11.1222 Y-42.1033 
G01 X-11.0860 Y-42.1395 
G01 X-11.0860 Y-42.9505 
G01 X-11.6595 Y-43.5240 
G01 X-12.4705 Y-43.5240 
G01 X-13.0440 Y-42.9505 
G01 X-13.0440 Y-42.1395 
G01 X-12.4705 Y-41.5660 
G01 X-11.6595 Y-41.5660 
G01 X-11.4620 Y-41.7635 
G01 X-10.7738 Y-41.0059 
G01 X-10.7720 Y-41.0015 
G01 X-10.7418 Y-40.9707 
G01 X-10.7128 Y-40.9387 
G01 X-10.7085 Y-40.9367 
G01 X-10.7052 Y-40.9333 
G01 X-10.6655 Y-40.9164 
G01 X-10.6264 Y-40.8980 
G01 X-10.6217 Y-40.8977 
G01 X-10.6174 Y-40.8959 
G01 X-10.5742 Y-40.8955 
G01 X-10.5310 Y-40.8934 
G01 X-10.5266 Y-40.8950 
G01 X-4.4782 Y-40.8329 
G01 X-4.2045 Y-40.5592 
G01 X-4.2045 Y-30.0089 
G01 X-4.4106 Y-29.6772 
G01 X-7.6762 Y-29.6772 
G01 X-7.7202 Y-29.6785 
G01 X-7.7238 Y-29.6772 
G01 X-7.7275 Y-29.6772 
G01 X-7.7683 Y-29.6603 
G01 X-7.8095 Y-29.6447 
G01 X-7.8123 Y-29.6421 
G01 X-7.8157 Y-29.6407 
G01 X-7.8469 Y-29.6095 
G01 X-9.1183 Y-28.4131 
G01 X-9.1387 Y-28.4004 
G01 X-9.1528 Y-28.3807 
G01 X-9.1703 Y-28.3642 
G01 X-9.1802 Y-28.3422 
G01 X-9.1942 Y-28.3226 
G01 X-9.1996 Y-28.2991 
G01 X-9.2095 Y-28.2771 
G01 X-9.2103 Y-28.2531 
G01 X-9.2157 Y-28.2296 
G01 X-9.2117 Y-28.2058 
G01 X-9.2124 Y-28.1817 
G01 X-9.2039 Y-28.1592 
G01 X-9.0999 Y-27.5374 
G01 X-9.6674 Y-26.9096 
G01 X-9.8792 Y-26.9096 
G01 X-9.8744 Y-26.9144 
G01 X-9.8607 Y-26.9475 
G01 X-9.8607 Y-26.9833 
G01 X-9.8744 Y-27.0164 
G01 X-10.9603 Y-28.1024 
G01 X-10.9934 Y-28.1161 
G01 X-11.0292 Y-28.1161 
G01 X-11.0623 Y-28.1024 
G01 X-11.5119 Y-27.6528 
G01 X-11.5256 Y-27.6197 
G01 X-11.5256 Y-27.5839 
G01 X-11.5119 Y-27.5508 
G01 X-10.4259 Y-26.4648 
G01 X-10.3928 Y-26.4511 
G01 X-10.3570 Y-26.4511 
G01 X-10.3239 Y-26.4648 
G01 X-10.2613 Y-26.5275 
G01 X-10.1999 Y-26.4661 
G01 X-10.1117 Y-26.4296 
G01 X-9.6023 Y-26.4296 
G01 X-9.5964 Y-26.4275 
G01 X-9.5548 Y-26.4296 
G01 X-9.5131 Y-26.4296 
G01 X-9.5073 Y-26.4320 
G01 X-9.5010 Y-26.4323 
G01 X-9.4634 Y-26.4502 
G01 X-9.4248 Y-26.4661 
G01 X-9.4204 Y-26.4706 
G01 X-9.4148 Y-26.4733 
G00 Z1.0000 
G00 X-9.7583 Y-27.0305 
G01 Z-0.0700 F50.80 
G01 X-9.3087 Y-27.4801 F101.60 
G01 X-9.2950 Y-27.5132 
G01 X-9.2950 Y-27.5490 
G01 X-9.3087 Y-27.5821 
G01 X-10.0105 Y-28.2839 
G01 X-7.7252 Y-30.5692 
G01 X-6.4145 Y-30.3715 
G01 X-6.4145 Y-30.0051 
G01 X-6.4008 Y-29.9720 
G01 X-6.3755 Y-29.9467 
G01 X-6.3424 Y-29.9330 
G01 X-4.7066 Y-29.9330 
G01 X-4.6735 Y-29.9467 
G01 X-4.6482 Y-29.9720 
G01 X-4.6345 Y-30.0051 
G01 X-4.6345 Y-31.3409 
G01 X-4.6482 Y-31.3740 
G01 X-4.6735 Y-31.3993 
G01 X-4.7066 Y-31.4130 
G01 X-6.3424 Y-31.4130 
G01 X-6.3755 Y-31.3993 
G01 X-6.4008 Y-31.3740 
G01 X-6.4145 Y-31.3409 
G01 X-6.4145 Y-30.8569 
G01 X-7.7444 Y-31.0575 
G01 X-7.7615 Y-31.0646 
G01 X-7.7912 Y-31.0646 
G01 X-7.8206 Y-31.0690 
G01 X-7.8385 Y-31.0646 
G01 X-7.8569 Y-31.0646 
G01 X-7.8844 Y-31.0532 
G01 X-7.9133 Y-31.0461 
G01 X-7.9281 Y-31.0351 
G01 X-7.9451 Y-31.0281 
G01 X-7.9662 Y-31.0070 
G01 X-7.9901 Y-30.9894 
G01 X-7.9996 Y-30.9736 
G01 X-10.3499 Y-28.6233 
G01 X-10.3947 Y-28.6680 
G01 X-10.4277 Y-28.6817 
G01 X-10.4635 Y-28.6817 
G01 X-10.4966 Y-28.6680 
G01 X-10.9462 Y-28.2185 
G01 X-10.9599 Y-28.1854 
G01 X-10.9599 Y-28.1496 
G01 X-10.9462 Y-28.1165 
G01 X-9.8602 Y-27.0305 
G01 X-9.8271 Y-27.0168 
G01 X-9.7913 Y-27.0168 
G01 X-9.7583 Y-27.0305 
G00 Z1.0000 
G00 X-10.4400 Y-26.4507 
G01 Z-0.0700 F50.80 
G01 X-11.5260 Y-27.5367 F101.60 
G01 X-11.5591 Y-27.5504 
G01 X-11.5852 Y-27.5504 
G01 X-11.5852 Y-28.0817 
G01 X-7.0009 Y-32.7911 
G01 X-6.9683 Y-32.8237 
G01 X-6.9677 Y-32.8252 
G01 X-6.9665 Y-32.8264 
G01 X-6.9494 Y-32.8693 
G01 X-6.9318 Y-32.9119 
G01 X-6.9318 Y-32.9135 
G01 X-6.9312 Y-32.9151 
G01 X-6.9318 Y-32.9612 
G01 X-6.9318 Y-40.1120 
G01 X-6.9272 Y-40.1325 
G01 X-6.9318 Y-40.1592 
G01 X-6.9318 Y-40.1863 
G01 X-6.9399 Y-40.2058 
G01 X-6.9435 Y-40.2266 
G01 X-6.9580 Y-40.2495 
G01 X-6.9683 Y-40.2745 
G01 X-6.9832 Y-40.2895 
G01 X-6.9945 Y-40.3073 
G01 X-7.0167 Y-40.3229 
G01 X-7.0358 Y-40.3421 
G01 X-7.0553 Y-40.3501 
G01 X-7.4468 Y-40.6260 
G01 X-7.4660 Y-40.6452 
G01 X-7.4854 Y-40.6532 
G01 X-7.5027 Y-40.6654 
G01 X-7.5291 Y-40.6713 
G01 X-7.5542 Y-40.6817 
G01 X-7.5752 Y-40.6817 
G01 X-7.5958 Y-40.6863 
G01 X-7.6225 Y-40.6817 
G01 X-12.6594 Y-40.6817 
G01 X-13.7927 Y-41.9728 
G01 X-13.6260 Y-42.1395 
G01 X-13.6260 Y-42.9505 
G01 X-14.1995 Y-43.5240 
G01 X-15.0105 Y-43.5240 
G01 X-15.5840 Y-42.9505 
G01 X-15.5840 Y-42.1395 
G01 X-15.0105 Y-41.5660 
G01 X-14.1995 Y-41.5660 
G01 X-14.1329 Y-41.6326 
G01 X-12.9746 Y-40.3132 
G01 X-12.9716 Y-40.3058 
G01 X-12.9433 Y-40.2775 
G01 X-12.9170 Y-40.2475 
G01 X-12.9097 Y-40.2439 
G01 X-12.9040 Y-40.2382 
G01 X-12.8672 Y-40.2230 
G01 X-12.8313 Y-40.2053 
G01 X-12.8233 Y-40.2048 
G01 X-12.8158 Y-40.2017 
G01 X-12.7759 Y-40.2017 
G01 X-12.7360 Y-40.1991 
G01 X-12.7284 Y-40.2017 
G01 X-7.6780 Y-40.2017 
G01 X-7.4118 Y-40.0141 
G01 X-7.4118 Y-33.0571 
G01 X-11.9961 Y-28.3477 
G01 X-12.0287 Y-28.3151 
G01 X-12.0293 Y-28.3136 
G01 X-12.0305 Y-28.3124 
G01 X-12.0476 Y-28.2695 
G01 X-12.0652 Y-28.2269 
G01 X-12.0652 Y-28.2253 
G01 X-12.0658 Y-28.2237 
G01 X-12.0652 Y-28.1776 
G01 X-12.0652 Y-27.3767 
G01 X-12.0287 Y-27.2885 
G01 X-11.9611 Y-27.2209 
G01 X-11.9524 Y-27.2122 
G01 X-12.0776 Y-27.0871 
G01 X-12.0913 Y-27.0540 
G01 X-12.0913 Y-27.0182 
G01 X-12.0776 Y-26.9851 
G01 X-10.9916 Y-25.8992 
G01 X-10.9585 Y-25.8855 
G01 X-10.9227 Y-25.8855 
G01 X-10.8896 Y-25.8992 
G01 X-10.4400 Y-26.3487 
G01 X-10.4263 Y-26.3818 
G01 X-10.4263 Y-26.4176 
G01 X-10.4400 Y-26.4507 
G00 Z1.0000 
G00 X-11.0057 Y-25.8850 
G01 Z-0.0700 F50.80 
G01 X-12.0917 Y-26.9710 F101.60 
G01 X-12.1248 Y-26.9847 
G01 X-12.1606 Y-26.9847 
G01 X-12.1937 Y-26.9710 
G01 X-12.6432 Y-26.5214 
G01 X-12.6569 Y-26.4883 
G01 X-12.6569 Y-26.4525 
G01 X-12.6432 Y-26.4195 
G01 X-11.5573 Y-25.3335 
G01 X-11.5242 Y-25.3198 
G01 X-11.4884 Y-25.3198 
G01 X-11.4553 Y-25.3335 
G01 X-11.0057 Y-25.7831 
G01 X-10.9920 Y-25.8161 
G01 X-10.9920 Y-25.8519 
G01 X-11.0057 Y-25.8850 
G00 Z1.0000 
G00 X-11.5714 Y-25.3193 
G01 Z-0.0700 F50.80 
G01 X-12.6574 Y-26.4053 F101.60 
G01 X-12.6905 Y-26.4190 
G01 X-12.7263 Y-26.4190 
G01 X-12.7594 Y-26.4053 
G01 X-13.2089 Y-25.9557 
G01 X-13.2226 Y-25.9226 
G01 X-13.2226 Y-25.8868 
G01 X-13.2089 Y-25.8538 
G01 X-12.1230 Y-24.7678 
G01 X-12.0899 Y-24.7541 
G01 X-12.0541 Y-24.7541 
G01 X-12.0210 Y-24.7678 
G01 X-11.5714 Y-25.2174 
G01 X-11.5577 Y-25.2504 
G01 X-11.5577 Y-25.2862 
G01 X-11.5714 Y-25.3193 
G00 Z1.0000 
G00 X-12.1371 Y-24.7536 
G01 Z-0.0700 F50.80 
G01 X-13.2231 Y-25.8396 F101.60 
G01 X-13.2562 Y-25.8533 
G01 X-13.2920 Y-25.8533 
G01 X-13.3250 Y-25.8396 
G01 X-13.3464 Y-25.8183 
G01 X-13.3464 Y-28.3314 
G01 X-10.1478 Y-31.5300 
G01 X-8.9771 Y-31.5300 
G01 X-8.9440 Y-31.5437 
G01 X-8.9187 Y-31.5690 
G01 X-8.9050 Y-31.6021 
G01 X-8.9050 Y-32.2140 
G01 X-8.5854 Y-32.2140 
G01 X-8.5583 Y-32.2093 
G01 X-8.5376 Y-32.2140 
G01 X-8.5164 Y-32.2140 
G01 X-8.4910 Y-32.2245 
G01 X-8.4643 Y-32.2305 
G01 X-8.4469 Y-32.2428 
G01 X-8.4273 Y-32.2509 
G01 X-8.4079 Y-32.2703 
G01 X-8.3855 Y-32.2861 
G01 X-8.3741 Y-32.3041 
G01 X-8.3591 Y-32.3191 
G01 X-8.3486 Y-32.3444 
G01 X-7.9375 Y-32.9947 
G01 X-7.9225 Y-33.0097 
G01 X-7.9120 Y-33.0350 
G01 X-7.8973 Y-33.0582 
G01 X-7.8937 Y-33.0792 
G01 X-7.8856 Y-33.0988 
G01 X-7.8856 Y-33.1262 
G01 X-7.8809 Y-33.1532 
G01 X-7.8856 Y-33.1740 
G01 X-7.8856 Y-36.2432 
G01 X-7.9225 Y-36.3323 
G01 X-8.0126 Y-36.4224 
G01 X-8.0126 Y-36.5794 
G01 X-8.0090 Y-36.5915 
G01 X-8.0126 Y-36.6273 
G01 X-8.0126 Y-36.6632 
G01 X-8.0174 Y-36.6749 
G01 X-8.0187 Y-36.6875 
G01 X-8.0358 Y-36.7191 
G01 X-8.0495 Y-36.7523 
G01 X-8.0500 Y-37.4734 
G01 X-8.0637 Y-37.5065 
G01 X-8.0890 Y-37.5318 
G01 X-8.1221 Y-37.5455 
G01 X-9.6579 Y-37.5455 
G01 X-9.6910 Y-37.5318 
G01 X-9.7163 Y-37.5065 
G01 X-9.7300 Y-37.4734 
G01 X-9.7300 Y-36.1376 
G01 X-9.7163 Y-36.1045 
G01 X-9.6910 Y-36.0792 
G01 X-9.6579 Y-36.0655 
G01 X-8.3704 Y-36.0655 
G01 X-8.3704 Y-33.2172 
G01 X-8.6981 Y-32.6988 
G01 X-8.9050 Y-32.6988 
G01 X-8.9050 Y-32.8379 
G01 X-8.9187 Y-32.8710 
G01 X-8.9440 Y-32.8963 
G01 X-8.9771 Y-32.9100 
G01 X-10.4129 Y-32.9100 
G01 X-10.4460 Y-32.8963 
G01 X-10.4713 Y-32.8710 
G01 X-10.4850 Y-32.8379 
G01 X-10.4850 Y-31.8716 
G01 X-13.7899 Y-28.5667 
G01 X-13.8264 Y-28.4785 
G01 X-13.8264 Y-25.6155 
G01 X-13.7899 Y-25.5272 
G01 X-13.7223 Y-25.4597 
G01 X-13.7136 Y-25.4510 
G01 X-13.7746 Y-25.3900 
G01 X-13.7883 Y-25.3570 
G01 X-13.7883 Y-25.3212 
G01 X-13.7746 Y-25.2881 
G01 X-12.6886 Y-24.2021 
G01 X-12.6556 Y-24.1884 
G01 X-12.6198 Y-24.1884 
G01 X-12.5867 Y-24.2021 
G01 X-12.1371 Y-24.6517 
G01 X-12.1234 Y-24.6848 
G01 X-12.1234 Y-24.7206 
G01 X-12.1371 Y-24.7536 
G00 Z1.0000 
G00 X-12.7028 Y-24.1880 
G01 Z-0.0700 F50.80 
G01 X-13.7888 Y-25.2739 F101.60 
G01 X-13.8218 Y-25.2876 
G01 X-13.8537 Y-25.2876 
G01 X-13.9718 Y-25.4777 
G01 X-13.9718 Y-33.1676 
G01 X-13.9711 Y-33.1693 
G01 X-13.9718 Y-33.2154 
G01 X-13.9718 Y-33.2613 
G01 X-13.9725 Y-33.2630 
G01 X-13.9755 Y-33.4744 
G01 X-12.6850 Y-33.4744 
G01 X-12.6850 Y-33.2021 
G01 X-12.6713 Y-33.1690 
G01 X-12.6460 Y-33.1437 
G01 X-12.6129 Y-33.1300 
G01 X-11.1771 Y-33.1300 
G01 X-11.1440 Y-33.1437 
G01 X-11.1187 Y-33.1690 
G01 X-11.1050 Y-33.2021 
G01 X-11.1050 Y-34.4379 
G01 X-11.1187 Y-34.4710 
G01 X-11.1440 Y-34.4963 
G01 X-11.1771 Y-34.5100 
G01 X-11.5852 Y-34.5100 
G01 X-11.5852 Y-37.2066 
G01 X-11.5809 Y-37.2235 
G01 X-11.5852 Y-37.2539 
G01 X-11.5852 Y-37.2845 
G01 X-11.5919 Y-37.3007 
G01 X-11.5944 Y-37.3181 
G01 X-11.6060 Y-37.3377 
G01 X-11.6060 Y-37.5369 
G01 X-11.6197 Y-37.5700 
G01 X-11.6450 Y-37.5953 
G01 X-11.6781 Y-37.6090 
G01 X-13.2139 Y-37.6090 
G01 X-13.2470 Y-37.5953 
G01 X-13.2723 Y-37.5700 
G01 X-13.2860 Y-37.5369 
G01 X-13.2860 Y-36.2011 
G01 X-13.2723 Y-36.1680 
G01 X-13.2470 Y-36.1427 
G01 X-13.2139 Y-36.1290 
G01 X-12.0652 Y-36.1290 
G01 X-12.0652 Y-34.5100 
G01 X-12.6129 Y-34.5100 
G01 X-12.6460 Y-34.4963 
G01 X-12.6713 Y-34.4710 
G01 X-12.6850 Y-34.4379 
G01 X-12.6850 Y-33.9544 
G01 X-14.1730 Y-33.9544 
G01 X-14.1747 Y-33.9551 
G01 X-14.2207 Y-33.9544 
G01 X-14.2667 Y-33.9544 
G01 X-14.2684 Y-33.9537 
G01 X-14.2702 Y-33.9537 
G01 X-14.3124 Y-33.9355 
G01 X-14.3549 Y-33.9179 
G01 X-14.3562 Y-33.9166 
G01 X-14.3579 Y-33.9159 
G01 X-14.3900 Y-33.8828 
G01 X-14.4225 Y-33.8503 
G01 X-14.4231 Y-33.8487 
G01 X-14.4244 Y-33.8474 
G01 X-14.4414 Y-33.8045 
G01 X-14.4590 Y-33.7621 
G01 X-14.4590 Y-33.7604 
G01 X-14.4597 Y-33.7587 
G01 X-14.4590 Y-33.7126 
G01 X-14.4590 Y-33.6667 
G01 X-14.4583 Y-33.6650 
G01 X-14.4518 Y-33.2120 
G01 X-14.4518 Y-25.4368 
G01 X-14.4564 Y-25.4173 
G01 X-14.4518 Y-25.3896 
G01 X-14.4518 Y-25.3615 
G01 X-14.4441 Y-25.3429 
G01 X-14.4408 Y-25.3231 
G01 X-14.4260 Y-25.2992 
G01 X-14.4153 Y-25.2733 
G01 X-14.4010 Y-25.2590 
G01 X-14.2112 Y-24.9535 
G01 X-14.3403 Y-24.8244 
G01 X-14.3540 Y-24.7913 
G01 X-14.3540 Y-24.7555 
G01 X-14.3403 Y-24.7224 
G01 X-13.2543 Y-23.6364 
G01 X-13.2212 Y-23.6227 
G01 X-13.1854 Y-23.6227 
G01 X-13.1524 Y-23.6364 
G01 X-12.7028 Y-24.0860 
G01 X-12.6891 Y-24.1191 
G01 X-12.6891 Y-24.1549 
G01 X-12.7028 Y-24.1880 
G00 Z1.0000 
G00 X-14.9201 Y-24.1426 
G01 Z-0.0700 F50.80 
G01 X-14.9532 Y-24.1563 F101.60 
G01 X-14.9786 Y-24.1563 
G01 X-15.3278 Y-24.5054 
G01 X-15.3278 Y-25.0312 
G01 X-14.7320 Y-25.6270 
G01 X-14.6934 Y-25.6938 
G01 X-14.6734 Y-25.7684 
G01 X-14.6734 Y-37.6540 
G01 X-14.6934 Y-37.7286 
G01 X-14.7320 Y-37.7954 
G01 X-15.4954 Y-38.5589 
G01 X-15.5003 Y-38.5662 
G01 X-15.5226 Y-38.5861 
G01 X-15.5438 Y-38.6072 
G01 X-15.5514 Y-38.6116 
G01 X-15.5580 Y-38.6175 
G01 X-15.5847 Y-38.6309 
G01 X-15.6106 Y-38.6458 
G01 X-15.6191 Y-38.6481 
G01 X-15.6270 Y-38.6520 
G01 X-15.6563 Y-38.6581 
G01 X-15.6852 Y-38.6658 
G01 X-15.6940 Y-38.6658 
G01 X-15.7026 Y-38.6676 
G01 X-15.7325 Y-38.6658 
G01 X-15.7624 Y-38.6658 
G01 X-15.7709 Y-38.6635 
G01 X-17.8502 Y-38.5401 
G01 X-17.8579 Y-38.5413 
G01 X-17.8886 Y-38.5378 
G01 X-17.9195 Y-38.5360 
G01 X-17.9269 Y-38.5335 
G01 X-17.9346 Y-38.5327 
G01 X-17.9634 Y-38.5214 
G01 X-17.9928 Y-38.5116 
G01 X-17.9992 Y-38.5074 
G01 X-18.0065 Y-38.5045 
G01 X-18.0314 Y-38.4862 
G01 X-18.0572 Y-38.4691 
G01 X-18.0624 Y-38.4633 
G01 X-18.0686 Y-38.4587 
G01 X-18.0879 Y-38.4345 
G01 X-18.1085 Y-38.4114 
G01 X-18.1119 Y-38.4045 
G01 X-18.6925 Y-37.6774 
G01 X-18.6971 Y-37.6820 
G01 X-19.4029 Y-37.6820 
G01 X-19.9020 Y-37.1829 
G01 X-19.9020 Y-36.4771 
G01 X-19.4029 Y-35.9780 
G01 X-18.6971 Y-35.9780 
G01 X-18.1980 Y-36.4771 
G01 X-18.1980 Y-37.1829 
G01 X-18.2753 Y-37.2602 
G01 X-17.7159 Y-37.9607 
G01 X-15.8380 Y-38.0721 
G01 X-15.2598 Y-37.4939 
G01 X-15.2598 Y-25.9284 
G01 X-15.8556 Y-25.3326 
G01 X-15.8942 Y-25.2658 
G01 X-15.9142 Y-25.1912 
G01 X-15.9142 Y-24.3454 
G01 X-15.8942 Y-24.2708 
G01 X-15.8556 Y-24.2040 
G01 X-15.8010 Y-24.1494 
G01 X-15.4081 Y-23.7565 
G01 X-15.4717 Y-23.6930 
G01 X-15.4854 Y-23.6599 
G01 X-15.4854 Y-23.6241 
G01 X-15.4717 Y-23.5910 
G01 X-14.3857 Y-22.5050 
G01 X-14.3526 Y-22.4913 
G01 X-14.3516 Y-22.4913 
G01 X-14.2150 Y-22.3548 
G01 X-15.4470 Y-21.1228 
G01 X-18.7676 Y-21.1228 
G01 X-20.0761 Y-22.4888 
G01 X-20.0761 Y-25.1153 
G01 X-19.7118 Y-26.0582 
G01 X-19.6480 Y-26.0582 
G01 X-19.6238 Y-26.0535 
G01 X-19.6007 Y-26.0582 
G01 X-19.5771 Y-26.0582 
G01 X-19.5543 Y-26.0676 
G01 X-19.5303 Y-26.0725 
G01 X-19.5107 Y-26.0857 
G01 X-19.4888 Y-26.0947 
G01 X-19.4715 Y-26.1121 
G01 X-19.4627 Y-26.1180 
G01 X-17.8511 Y-26.1180 
G01 X-17.8180 Y-26.1317 
G01 X-17.7927 Y-26.1570 
G01 X-17.7790 Y-26.1901 
G01 X-17.7790 Y-27.5259 
G01 X-17.7927 Y-27.5590 
G01 X-17.8180 Y-27.5843 
G01 X-17.8511 Y-27.5980 
G01 X-19.4869 Y-27.5980 
G01 X-19.5200 Y-27.5843 
G01 X-19.5453 Y-27.5590 
G01 X-19.5590 Y-27.5259 
G01 X-19.5590 Y-26.8360 
G01 X-19.5792 Y-26.8015 
G01 X-19.7537 Y-26.5382 
G01 X-19.8317 Y-26.5382 
G01 X-19.8344 Y-26.5393 
G01 X-19.8792 Y-26.5382 
G01 X-19.9241 Y-26.5382 
G01 X-19.9269 Y-26.5371 
G01 X-19.9299 Y-26.5370 
G01 X-19.9709 Y-26.5188 
G01 X-20.0123 Y-26.5017 
G01 X-20.0145 Y-26.4995 
G01 X-20.0172 Y-26.4983 
G01 X-20.0481 Y-26.4659 
G01 X-20.0799 Y-26.4341 
G01 X-20.0810 Y-26.4314 
G01 X-20.0831 Y-26.4292 
G01 X-20.0992 Y-26.3874 
G01 X-20.1164 Y-26.3459 
G01 X-20.1164 Y-26.3429 
G01 X-20.5389 Y-25.2492 
G01 X-20.5561 Y-25.2077 
G01 X-20.5561 Y-25.2047 
G01 X-20.5572 Y-25.2020 
G01 X-20.5561 Y-25.1572 
G01 X-20.5561 Y-22.3949 
G01 X-20.5571 Y-22.3498 
G01 X-20.5561 Y-22.3473 
G01 X-20.5561 Y-22.3447 
G01 X-20.5388 Y-22.3029 
G01 X-20.5224 Y-22.2609 
G01 X-20.5206 Y-22.2589 
G01 X-20.5196 Y-22.2565 
G01 X-20.4876 Y-22.2245 
G01 X-19.0745 Y-20.7493 
G01 X-19.0735 Y-20.7468 
G01 X-19.0416 Y-20.7150 
G01 X-19.0103 Y-20.6823 
G01 X-19.0078 Y-20.6812 
G01 X-19.0059 Y-20.6793 
G01 X-18.9642 Y-20.6621 
G01 X-18.9229 Y-20.6439 
G01 X-18.9202 Y-20.6438 
G01 X-18.9177 Y-20.6428 
G01 X-18.8725 Y-20.6428 
G01 X-18.8274 Y-20.6418 
G01 X-18.8249 Y-20.6428 
G01 X-15.2999 Y-20.6428 
G01 X-15.2117 Y-20.6793 
G01 X-13.8756 Y-22.0154 
G01 X-13.1248 Y-21.2645 
G01 X-13.1248 Y-18.2460 
G01 X-13.1524 Y-18.2736 
G01 X-13.1854 Y-18.2873 
G01 X-13.2212 Y-18.2873 
G01 X-13.2543 Y-18.2736 
G01 X-14.3403 Y-17.1876 
G01 X-14.3540 Y-17.1545 
G01 X-14.3540 Y-17.1187 
G01 X-14.3403 Y-17.0856 
G01 X-13.8907 Y-16.6361 
G01 X-13.8576 Y-16.6224 
G01 X-13.8218 Y-16.6224 
G01 X-13.7888 Y-16.6361 
G01 X-12.7028 Y-17.7220 
G01 X-12.6891 Y-17.7551 
G01 X-12.6891 Y-17.7909 
G01 X-12.7028 Y-17.8240 
G01 X-12.7203 Y-17.8415 
G01 X-12.7184 Y-17.8420 
G01 X-12.6516 Y-17.8806 
G01 X-12.5970 Y-17.9352 
G01 X-12.5584 Y-18.0020 
G01 X-12.5384 Y-18.0766 
G01 X-12.5384 Y-21.4246 
G01 X-12.5584 Y-21.4992 
G01 X-12.5970 Y-21.5660 
G01 X-13.6034 Y-22.5724 
G01 X-13.9099 Y-22.8789 
G01 X-13.8342 Y-22.9546 
G01 X-13.8205 Y-22.9877 
G01 X-13.8205 Y-23.0235 
G01 X-13.8342 Y-23.0566 
G01 X-14.9201 Y-24.1426 
G00 Z1.0000 
G00 X-15.4858 Y-23.5769 
G01 Z-0.0700 F50.80 
G01 X-15.5189 Y-23.5906 F101.60 
G01 X-15.5547 Y-23.5906 
G01 X-15.5878 Y-23.5769 
G01 X-15.6386 Y-23.5260 
G01 X-15.6591 Y-23.5465 
G01 X-15.6675 Y-23.5609 
G01 X-15.6926 Y-23.5800 
G01 X-15.7149 Y-23.6023 
G01 X-15.7302 Y-23.6086 
G01 X-16.1540 Y-23.9310 
G01 X-16.3656 Y-24.4521 
G01 X-16.3656 Y-30.8980 
G01 X-16.1571 Y-30.8980 
G01 X-15.6580 Y-31.3971 
G01 X-15.6580 Y-32.1029 
G01 X-16.1571 Y-32.6020 
G01 X-16.8629 Y-32.6020 
G01 X-17.3620 Y-32.1029 
G01 X-17.3620 Y-31.3971 
G01 X-16.8629 Y-30.8980 
G01 X-16.8456 Y-30.8980 
G01 X-16.8456 Y-24.6452 
G01 X-17.7790 Y-24.6452 
G01 X-17.7790 Y-25.6259 
G01 X-17.7927 Y-25.6590 
G01 X-17.8180 Y-25.6843 
G01 X-17.8511 Y-25.6980 
G01 X-19.4869 Y-25.6980 
G01 X-19.5200 Y-25.6843 
G01 X-19.5453 Y-25.6590 
G01 X-19.5590 Y-25.6259 
G01 X-19.5590 Y-24.2901 
G01 X-19.5453 Y-24.2570 
G01 X-19.5200 Y-24.2317 
G01 X-19.4869 Y-24.2180 
G01 X-19.0222 Y-24.2180 
G01 X-19.0059 Y-24.2017 
G01 X-19.0009 Y-24.1996 
G01 X-18.9969 Y-24.1960 
G01 X-18.9570 Y-24.1814 
G01 X-18.9177 Y-24.1652 
G01 X-18.9123 Y-24.1652 
G01 X-18.9071 Y-24.1633 
G01 X-18.8647 Y-24.1652 
G01 X-16.7672 Y-24.1652 
G01 X-16.5853 Y-23.7175 
G01 X-16.5830 Y-23.7002 
G01 X-16.5675 Y-23.6737 
G01 X-16.5560 Y-23.6453 
G01 X-16.5437 Y-23.6328 
G01 X-16.5349 Y-23.6177 
G01 X-16.5105 Y-23.5991 
G01 X-16.4889 Y-23.5773 
G01 X-16.4728 Y-23.5705 
G01 X-16.0090 Y-23.2176 
G01 X-15.9780 Y-23.1866 
G01 X-16.0374 Y-23.1273 
G01 X-16.0511 Y-23.0942 
G01 X-16.0511 Y-23.0584 
G01 X-16.0374 Y-23.0253 
G01 X-14.9514 Y-21.9394 
G01 X-14.9183 Y-21.9257 
G01 X-14.8825 Y-21.9257 
G01 X-14.8494 Y-21.9394 
G01 X-14.3998 Y-22.3889 
G01 X-14.3861 Y-22.4220 
G01 X-14.3861 Y-22.4578 
G01 X-14.3998 Y-22.4909 
G01 X-15.4858 Y-23.5769 
G00 Z1.0000 
G00 X-16.0515 Y-23.0112 
G01 Z-0.0700 F50.80 
G01 X-16.0846 Y-23.0249 F101.60 
G01 X-16.1204 Y-23.0249 
G01 X-16.1535 Y-23.0112 
G01 X-16.5022 Y-22.6624 
G01 X-17.9600 Y-22.7290 
G01 X-18.0104 Y-22.8508 
G01 X-18.0870 Y-22.9654 
G01 X-18.1844 Y-23.0628 
G01 X-18.2990 Y-23.1394 
G01 X-18.4263 Y-23.1921 
G01 X-18.5615 Y-23.2190 
G01 X-18.6993 Y-23.2190 
G01 X-18.8345 Y-23.1921 
G01 X-18.9618 Y-23.1394 
G01 X-19.0764 Y-23.0628 
G01 X-19.1738 Y-22.9654 
G01 X-19.2504 Y-22.8508 
G01 X-19.3031 Y-22.7235 
G01 X-19.3300 Y-22.5883 
G01 X-19.3300 Y-22.4505 
G01 X-19.3031 Y-22.3153 
G01 X-19.2504 Y-22.1880 
G01 X-19.1738 Y-22.0734 
G01 X-19.0764 Y-21.9760 
G01 X-18.9618 Y-21.8994 
G01 X-18.8345 Y-21.8467 
G01 X-18.6993 Y-21.8198 
G01 X-18.5615 Y-21.8198 
G01 X-18.4263 Y-21.8467 
G01 X-18.2990 Y-21.8994 
G01 X-18.1844 Y-21.9760 
G01 X-18.0870 Y-22.0734 
G01 X-18.0104 Y-22.1880 
G01 X-17.9849 Y-22.2497 
G01 X-16.3168 Y-22.1734 
G01 X-15.5171 Y-21.3737 
G01 X-15.4840 Y-21.3600 
G01 X-15.4482 Y-21.3600 
G01 X-15.4151 Y-21.3737 
G01 X-14.9655 Y-21.8233 
G01 X-14.9518 Y-21.8563 
G01 X-14.9518 Y-21.8921 
G01 X-14.9655 Y-21.9252 
G01 X-16.0515 Y-23.0112 
G00 Z1.0000 
G00 X-15.5171 Y-20.5363 
G01 Z-0.0700 F50.80 
G01 X-15.9370 Y-20.1164 F101.60 
G01 X-18.5190 Y-20.1164 
G01 X-20.6428 Y-22.2402 
G01 X-20.6428 Y-28.0769 
G01 X-17.6030 Y-30.9940 
G01 X-17.6007 Y-30.9949 
G01 X-17.5687 Y-31.0269 
G01 X-17.5360 Y-31.0583 
G01 X-17.5350 Y-31.0606 
G01 X-17.5331 Y-31.0624 
G01 X-17.5158 Y-31.1043 
G01 X-17.4976 Y-31.1457 
G01 X-17.4976 Y-31.1483 
G01 X-17.4966 Y-31.1507 
G01 X-17.4966 Y-31.1960 
G01 X-17.4957 Y-31.2412 
G01 X-17.4966 Y-31.2436 
G01 X-17.4966 Y-35.3836 
G01 X-16.9152 Y-36.0303 
G01 X-16.8629 Y-35.9780 
G01 X-16.1571 Y-35.9780 
G01 X-15.6580 Y-36.4771 
G01 X-15.6580 Y-37.1829 
G01 X-16.1571 Y-37.6820 
G01 X-16.8629 Y-37.6820 
G01 X-17.3620 Y-37.1829 
G01 X-17.3620 Y-36.4771 
G01 X-17.2551 Y-36.3702 
G01 X-17.9108 Y-35.6408 
G01 X-17.9401 Y-35.6115 
G01 X-17.9426 Y-35.6055 
G01 X-17.9470 Y-35.6006 
G01 X-17.9608 Y-35.5615 
G01 X-17.9766 Y-35.5233 
G01 X-17.9766 Y-35.5168 
G01 X-17.9788 Y-35.5105 
G01 X-17.9766 Y-35.4692 
G01 X-17.9766 Y-31.3007 
G01 X-21.0164 Y-28.3836 
G01 X-21.0187 Y-28.3827 
G01 X-21.0507 Y-28.3507 
G01 X-21.0834 Y-28.3193 
G01 X-21.0844 Y-28.3170 
G01 X-21.0863 Y-28.3151 
G01 X-21.1036 Y-28.2733 
G01 X-21.1218 Y-28.2319 
G01 X-21.1218 Y-28.2293 
G01 X-21.1228 Y-28.2269 
G01 X-21.1228 Y-28.1816 
G01 X-21.1237 Y-28.1364 
G01 X-21.1228 Y-28.1340 
G01 X-21.1228 Y-22.0931 
G01 X-21.0863 Y-22.0049 
G01 X-21.0187 Y-21.9373 
G01 X-18.7543 Y-19.6729 
G01 X-18.6661 Y-19.6364 
G01 X-16.4170 Y-19.6364 
G01 X-16.6030 Y-19.4503 
G01 X-16.6167 Y-19.4173 
G01 X-16.6167 Y-19.3815 
G01 X-16.6030 Y-19.3484 
G01 X-16.1535 Y-18.8988 
G01 X-16.1204 Y-18.8851 
G01 X-16.0846 Y-18.8851 
G01 X-16.0515 Y-18.8988 
G01 X-14.9655 Y-19.9848 
G01 X-14.9518 Y-20.0179 
G01 X-14.9518 Y-20.0537 
G01 X-14.9655 Y-20.0867 
G01 X-15.4151 Y-20.5363 
G01 X-15.4482 Y-20.5500 
G01 X-15.4840 Y-20.5500 
G01 X-15.5171 Y-20.5363 
G00 Z1.0000 
G00 X-14.9514 Y-19.9706 
G01 Z-0.0700 F50.80 
G01 X-16.0374 Y-18.8847 F101.60 
G01 X-16.0511 Y-18.8516 
G01 X-16.0511 Y-18.8158 
G01 X-16.0436 Y-18.7978 
G01 X-19.3274 Y-18.1946 
G01 X-19.3882 Y-18.2856 
G01 X-19.4856 Y-18.3830 
G01 X-19.6002 Y-18.4596 
G01 X-19.7275 Y-18.5123 
G01 X-19.8627 Y-18.5392 
G01 X-20.0005 Y-18.5392 
G01 X-20.1357 Y-18.5123 
G01 X-20.2630 Y-18.4596 
G01 X-20.3776 Y-18.3830 
G01 X-20.4750 Y-18.2856 
G01 X-20.5516 Y-18.1710 
G01 X-20.6043 Y-18.0437 
G01 X-20.6312 Y-17.9085 
G01 X-20.6312 Y-17.7707 
G01 X-20.6043 Y-17.6355 
G01 X-20.5516 Y-17.5082 
G01 X-20.4750 Y-17.3936 
G01 X-20.3776 Y-17.2962 
G01 X-20.2630 Y-17.2196 
G01 X-20.1357 Y-17.1669 
G01 X-20.0005 Y-17.1400 
G01 X-19.8627 Y-17.1400 
G01 X-19.7275 Y-17.1669 
G01 X-19.6002 Y-17.2196 
G01 X-19.4856 Y-17.2962 
G01 X-19.3882 Y-17.3936 
G01 X-19.3116 Y-17.5082 
G01 X-19.2589 Y-17.6355 
G01 X-19.2416 Y-17.7223 
G01 X-15.7059 Y-18.3718 
G01 X-15.6768 Y-18.3726 
G01 X-15.6594 Y-18.3803 
G01 X-15.6407 Y-18.3838 
G01 X-15.6393 Y-18.3847 
G01 X-15.5878 Y-18.3331 
G01 X-15.5547 Y-18.3194 
G01 X-15.5189 Y-18.3194 
G01 X-15.4858 Y-18.3331 
G01 X-14.3998 Y-19.4191 
G01 X-14.3861 Y-19.4522 
G01 X-14.3861 Y-19.4880 
G01 X-14.3998 Y-19.5210 
G01 X-14.8494 Y-19.9706 
G01 X-14.8825 Y-19.9843 
G01 X-14.9183 Y-19.9843 
G01 X-14.9514 Y-19.9706 
G00 Z1.0000 
G00 X-14.3857 Y-19.4049 
G01 Z-0.0700 F50.80 
G01 X-15.4717 Y-18.3190 F101.60 
G01 X-15.4854 Y-18.2859 
G01 X-15.4854 Y-18.2501 
G01 X-15.4717 Y-18.2170 
G01 X-15.4026 Y-18.1480 
G01 X-15.4801 Y-18.0705 
G01 X-17.2156 Y-17.4285 
G01 X-17.3050 Y-17.5180 
G01 X-17.4196 Y-17.5946 
G01 X-17.5469 Y-17.6473 
G01 X-17.6821 Y-17.6742 
G01 X-17.8199 Y-17.6742 
G01 X-17.9551 Y-17.6473 
G01 X-18.0824 Y-17.5946 
G01 X-18.1970 Y-17.5180 
G01 X-18.2944 Y-17.4206 
G01 X-18.3710 Y-17.3060 
G01 X-18.4237 Y-17.1787 
G01 X-18.4506 Y-17.0435 
G01 X-18.4506 Y-16.9057 
G01 X-18.4237 Y-16.7705 
G01 X-18.3710 Y-16.6432 
G01 X-18.2944 Y-16.5286 
G01 X-18.1970 Y-16.4312 
G01 X-18.0824 Y-16.3546 
G01 X-17.9551 Y-16.3019 
G01 X-17.8199 Y-16.2750 
G01 X-17.6821 Y-16.2750 
G01 X-17.5469 Y-16.3019 
G01 X-17.4196 Y-16.3546 
G01 X-17.3050 Y-16.4312 
G01 X-17.2076 Y-16.5286 
G01 X-17.1310 Y-16.6432 
G01 X-17.0783 Y-16.7705 
G01 X-17.0514 Y-16.9057 
G01 X-17.0514 Y-16.9775 
G01 X-15.3046 Y-17.6236 
G01 X-15.2999 Y-17.6236 
G01 X-15.2600 Y-17.6401 
G01 X-15.2196 Y-17.6551 
G01 X-15.2161 Y-17.6583 
G01 X-15.2117 Y-17.6601 
G01 X-15.1812 Y-17.6906 
G01 X-15.1495 Y-17.7199 
G01 X-15.1475 Y-17.7243 
G01 X-15.0632 Y-17.8086 
G01 X-15.0221 Y-17.7674 
G01 X-14.9890 Y-17.7537 
G01 X-14.9532 Y-17.7537 
G01 X-14.9201 Y-17.7674 
G01 X-13.8342 Y-18.8534 
G01 X-13.8205 Y-18.8865 
G01 X-13.8205 Y-18.9223 
G01 X-13.8342 Y-18.9554 
G01 X-14.2837 Y-19.4049 
G01 X-14.3168 Y-19.4186 
G01 X-14.3526 Y-19.4186 
G01 X-14.3857 Y-19.4049 
G00 Z1.0000 
G00 X-13.8200 Y-18.8393 
G01 Z-0.0700 F50.80 
G01 X-14.9060 Y-17.7533 F101.60 
G01 X-14.9197 Y-17.7202 
G01 X-14.9197 Y-17.6844 
G01 X-14.9060 Y-17.6513 
G01 X-14.7736 Y-17.5190 
G01 X-15.2369 Y-17.0557 
G01 X-15.2433 Y-17.0526 
G01 X-15.2705 Y-17.0221 
G01 X-15.2803 Y-17.0123 
G01 X-15.3340 Y-17.0346 
G01 X-15.4692 Y-17.0615 
G01 X-15.6070 Y-17.0615 
G01 X-15.7422 Y-17.0346 
G01 X-15.8695 Y-16.9819 
G01 X-15.9841 Y-16.9053 
G01 X-16.0815 Y-16.8079 
G01 X-16.1581 Y-16.6933 
G01 X-16.2108 Y-16.5660 
G01 X-16.2377 Y-16.4308 
G01 X-16.2377 Y-16.2930 
G01 X-16.2108 Y-16.1578 
G01 X-16.1581 Y-16.0305 
G01 X-16.0815 Y-15.9159 
G01 X-15.9841 Y-15.8185 
G01 X-15.8695 Y-15.7419 
G01 X-15.7422 Y-15.6892 
G01 X-15.6070 Y-15.6623 
G01 X-15.4692 Y-15.6623 
G01 X-15.3340 Y-15.6892 
G01 X-15.2067 Y-15.7419 
G01 X-15.0921 Y-15.8185 
G01 X-14.9947 Y-15.9159 
G01 X-14.9181 Y-16.0305 
G01 X-14.8654 Y-16.1578 
G01 X-14.8385 Y-16.2930 
G01 X-14.8385 Y-16.4308 
G01 X-14.8654 Y-16.5660 
G01 X-14.9181 Y-16.6933 
G01 X-14.9191 Y-16.6947 
G01 X-14.4250 Y-17.1888 
G01 X-14.4233 Y-17.1880 
G01 X-14.3875 Y-17.1880 
G01 X-14.3544 Y-17.2017 
G01 X-13.2685 Y-18.2877 
G01 X-13.2548 Y-18.3208 
G01 X-13.2548 Y-18.3566 
G01 X-13.2685 Y-18.3897 
G01 X-13.7181 Y-18.8393 
G01 X-13.7511 Y-18.8530 
G01 X-13.7869 Y-18.8530 
G01 X-13.8200 Y-18.8393 
G00 Z1.0000 
G00 X-13.7746 Y-16.6219 
G01 Z-0.0700 F50.80 
G01 X-13.7883 Y-16.5888 F101.60 
G01 X-13.7883 Y-16.5530 
G01 X-13.7746 Y-16.5200 
G01 X-13.7672 Y-16.5126 
G01 X-14.9438 Y-15.3360 
G01 X-17.3330 Y-15.3360 
G01 X-17.3330 Y-15.6269 
G01 X-17.3467 Y-15.6600 
G01 X-17.3720 Y-15.6853 
G01 X-17.4051 Y-15.6990 
G01 X-18.7409 Y-15.6990 
G01 X-18.7740 Y-15.6853 
G01 X-18.7993 Y-15.6600 
G01 X-18.8130 Y-15.6269 
G01 X-18.8130 Y-14.0911 
G01 X-18.7993 Y-14.0580 
G01 X-18.7740 Y-14.0327 
G01 X-18.7409 Y-14.0190 
G01 X-17.4051 Y-14.0190 
G01 X-17.3720 Y-14.0327 
G01 X-17.3467 Y-14.0580 
G01 X-17.3330 Y-14.0911 
G01 X-17.3330 Y-14.8560 
G01 X-14.7967 Y-14.8560 
G01 X-14.7084 Y-14.8925 
G01 X-14.6409 Y-14.9601 
G01 X-13.4278 Y-16.1732 
G01 X-13.3250 Y-16.0704 
G01 X-13.2920 Y-16.0567 
G01 X-13.2562 Y-16.0567 
G01 X-13.2231 Y-16.0704 
G01 X-12.1371 Y-17.1563 
G01 X-12.1234 Y-17.1894 
G01 X-12.1234 Y-17.2252 
G01 X-12.1371 Y-17.2583 
G01 X-12.5867 Y-17.7079 
G01 X-12.6198 Y-17.7216 
G01 X-12.6556 Y-17.7216 
G01 X-12.6886 Y-17.7079 
G01 X-13.7746 Y-16.6219 
G00 Z1.0000 
G00 X-12.0776 Y-14.9249 
G01 Z-0.0700 F50.80 
G01 X-12.0913 Y-14.8918 F101.60 
G01 X-12.0913 Y-14.8560 
G01 X-12.0776 Y-14.8229 
G01 X-12.0060 Y-14.7514 
G01 X-13.4707 Y-13.2867 
G01 X-13.5383 Y-13.2191 
G01 X-13.5748 Y-13.1309 
G01 X-13.5748 Y-12.4850 
G01 X-14.1529 Y-12.4850 
G01 X-14.1860 Y-12.4713 
G01 X-14.2113 Y-12.4460 
G01 X-14.2250 Y-12.4129 
G01 X-14.2250 Y-11.0771 
G01 X-14.2113 Y-11.0440 
G01 X-14.1860 Y-11.0187 
G01 X-14.1529 Y-11.0050 
G01 X-12.5171 Y-11.0050 
G01 X-12.4840 Y-11.0187 
G01 X-12.4587 Y-11.0440 
G01 X-12.4450 Y-11.0771 
G01 X-12.4450 Y-12.4129 
G01 X-12.4587 Y-12.4460 
G01 X-12.4840 Y-12.4713 
G01 X-12.5171 Y-12.4850 
G01 X-13.0948 Y-12.4850 
G01 X-13.0948 Y-12.9838 
G01 X-11.6666 Y-14.4120 
G01 X-11.6280 Y-14.3733 
G01 X-11.5949 Y-14.3596 
G01 X-11.5591 Y-14.3596 
G01 X-11.5260 Y-14.3733 
G01 X-10.4400 Y-15.4593 
G01 X-10.4263 Y-15.4924 
G01 X-10.4263 Y-15.5282 
G01 X-10.4400 Y-15.5613 
G01 X-10.8896 Y-16.0108 
G01 X-10.9227 Y-16.0245 
G01 X-10.9585 Y-16.0245 
G01 X-10.9916 Y-16.0108 
G01 X-12.0776 Y-14.9249 
G00 Z1.0000 
G00 X-10.9462 Y-13.7935 
G01 Z-0.0700 F50.80 
G01 X-10.9599 Y-13.7604 F101.60 
G01 X-10.9599 Y-13.7246 
G01 X-10.9462 Y-13.6915 
G01 X-10.4966 Y-13.2419 
G01 X-10.4635 Y-13.2282 
G01 X-10.4277 Y-13.2282 
G01 X-10.3947 Y-13.2419 
G01 X-9.3087 Y-14.3279 
G01 X-9.2950 Y-14.3610 
G01 X-9.2950 Y-14.3968 
G01 X-9.3087 Y-14.4299 
G01 X-9.7583 Y-14.8795 
G01 X-9.7913 Y-14.8932 
G01 X-9.8271 Y-14.8932 
G01 X-9.8602 Y-14.8795 
G01 X-10.9462 Y-13.7935 
G00 Z1.0000 
G00 X-12.4840 Y-10.5713 
G01 Z-0.0700 F50.80 
G01 X-12.5171 Y-10.5850 F101.60 
G01 X-14.1529 Y-10.5850 
G01 X-14.1860 Y-10.5713 
G01 X-14.2113 Y-10.5460 
G01 X-14.2250 Y-10.5129 
G01 X-14.2250 Y-10.1252 
G01 X-15.5774 Y-8.8428 
G01 X-15.5805 Y-8.8415 
G01 X-15.6123 Y-8.8097 
G01 X-15.6450 Y-8.7787 
G01 X-15.6463 Y-8.7757 
G01 X-15.6487 Y-8.7733 
G01 X-15.6659 Y-8.7317 
G01 X-15.6842 Y-8.6906 
G01 X-15.6843 Y-8.6873 
G01 X-15.6856 Y-8.6842 
G01 X-15.6856 Y-8.6392 
G01 X-15.6868 Y-8.5942 
G01 X-15.6856 Y-8.5911 
G01 X-15.6856 Y-6.3806 
G01 X-15.6960 Y-6.3763 
G01 X-15.7213 Y-6.3510 
G01 X-15.7350 Y-6.3179 
G01 X-15.7350 Y-4.8821 
G01 X-15.7213 Y-4.8490 
G01 X-15.6960 Y-4.8237 
G01 X-15.6629 Y-4.8100 
G01 X-15.2271 Y-4.8100 
G01 X-15.1940 Y-4.8237 
G01 X-15.1687 Y-4.8490 
G01 X-15.1550 Y-4.8821 
G01 X-15.1550 Y-6.3179 
G01 X-15.1687 Y-6.3510 
G01 X-15.1940 Y-6.3763 
G01 X-15.2008 Y-6.3791 
G01 X-15.2008 Y-8.5318 
G01 X-14.2250 Y-9.4571 
G01 X-14.2250 Y-9.1771 
G01 X-14.2113 Y-9.1440 
G01 X-14.1860 Y-9.1187 
G01 X-14.1529 Y-9.1050 
G01 X-12.5171 Y-9.1050 
G01 X-12.4840 Y-9.1187 
G01 X-12.4587 Y-9.1440 
G01 X-12.4450 Y-9.1771 
G01 X-12.4450 Y-10.5129 
G01 X-12.4587 Y-10.5460 
G01 X-12.4840 Y-10.5713 
G00 Z1.0000 
G00 X-16.2940 Y-10.5713 
G01 Z-0.0700 F50.80 
G01 X-16.3271 Y-10.5850 F101.60 
G01 X-17.9629 Y-10.5850 
G01 X-17.9960 Y-10.5713 
G01 X-18.0213 Y-10.5460 
G01 X-18.0350 Y-10.5129 
G01 X-18.0350 Y-9.1771 
G01 X-18.0213 Y-9.1440 
G01 X-17.9960 Y-9.1187 
G01 X-17.9629 Y-9.1050 
G01 X-16.7408 Y-9.1050 
G01 X-16.3424 Y-8.7066 
G01 X-16.3424 Y-6.3778 
G01 X-16.3460 Y-6.3763 
G01 X-16.3713 Y-6.3510 
G01 X-16.3850 Y-6.3179 
G01 X-16.3850 Y-4.8821 
G01 X-16.3713 Y-4.8490 
G01 X-16.3460 Y-4.8237 
G01 X-16.3129 Y-4.8100 
G01 X-15.8771 Y-4.8100 
G01 X-15.8440 Y-4.8237 
G01 X-15.8187 Y-4.8490 
G01 X-15.8050 Y-4.8821 
G01 X-15.8050 Y-6.3179 
G01 X-15.8187 Y-6.3510 
G01 X-15.8440 Y-6.3763 
G01 X-15.8624 Y-6.3839 
G01 X-15.8624 Y-8.8537 
G01 X-15.8989 Y-8.9419 
G01 X-16.2550 Y-9.2980 
G01 X-16.2550 Y-10.5129 
G01 X-16.2687 Y-10.5460 
G01 X-16.2940 Y-10.5713 
G00 Z1.0000 
G00 X-16.4940 Y-6.3763 
G01 Z-0.0700 F50.80 
G01 X-16.5271 Y-6.3900 F101.60 
G01 X-16.9629 Y-6.3900 
G01 X-16.9960 Y-6.3763 
G01 X-17.0213 Y-6.3510 
G01 X-17.0350 Y-6.3179 
G01 X-17.0350 Y-4.8821 
G01 X-17.0213 Y-4.8490 
G01 X-16.9960 Y-4.8237 
G01 X-16.9629 Y-4.8100 
G01 X-16.5271 Y-4.8100 
G01 X-16.4940 Y-4.8237 
G01 X-16.4687 Y-4.8490 
G01 X-16.4550 Y-4.8821 
G01 X-16.4550 Y-6.3179 
G01 X-16.4687 Y-6.3510 
G01 X-16.4940 Y-6.3763 
G00 Z1.0000 
G00 X-5.6883 Y-14.9390 
G01 Z-0.0700 F50.80 
G01 X-5.6552 Y-14.9253 F101.60 
G01 X-5.6194 Y-14.9253 
G01 X-5.5863 Y-14.9390 
G01 X-5.1367 Y-15.3886 
G01 X-5.1230 Y-15.4217 
G01 X-5.1230 Y-15.4575 
G01 X-5.1367 Y-15.4905 
G01 X-6.2227 Y-16.5765 
G01 X-6.2558 Y-16.5902 
G01 X-6.2916 Y-16.5902 
G01 X-6.3247 Y-16.5765 
G01 X-6.7743 Y-16.1269 
G01 X-6.7880 Y-16.0939 
G01 X-6.7880 Y-16.0581 
G01 X-6.7743 Y-16.0250 
G01 X-5.6883 Y-14.9390 
G00 Z1.0000 
G00 X-2.0826 Y-26.4952 
G01 Z-0.0700 F50.80 
G01 X-1.9680 Y-26.4186 F101.60 
G01 X-1.8407 Y-26.3659 
G01 X-1.7055 Y-26.3390 
G01 X-1.5677 Y-26.3390 
G01 X-1.4325 Y-26.3659 
G01 X-1.3052 Y-26.4186 
G01 X-1.1906 Y-26.4952 
G01 X-1.0932 Y-26.5926 
G01 X-1.0166 Y-26.7072 
G01 X-0.9639 Y-26.8345 
G01 X-0.9370 Y-26.9697 
G01 X-0.9370 Y-27.1075 
G01 X-0.9639 Y-27.2427 
G01 X-1.0166 Y-27.3700 
G01 X-1.0932 Y-27.4846 
G01 X-1.1906 Y-27.5820 
G01 X-1.3052 Y-27.6586 
G01 X-1.3703 Y-27.6856 
G01 X-1.2798 Y-29.9330 
G01 X-1.0871 Y-29.9330 
G01 X-1.0540 Y-29.9467 
G01 X-1.0287 Y-29.9720 
G01 X-1.0150 Y-30.0051 
G01 X-1.0150 Y-31.3409 
G01 X-1.0287 Y-31.3740 
G01 X-1.0540 Y-31.3993 
G01 X-1.0871 Y-31.4130 
G01 X-2.7229 Y-31.4130 
G01 X-2.7560 Y-31.3993 
G01 X-2.7813 Y-31.3740 
G01 X-2.7950 Y-31.3409 
G01 X-2.7950 Y-30.0051 
G01 X-2.7813 Y-29.9720 
G01 X-2.7560 Y-29.9467 
G01 X-2.7229 Y-29.9330 
G01 X-1.7602 Y-29.9330 
G01 X-1.8499 Y-27.7075 
G01 X-1.9680 Y-27.6586 
G01 X-2.0826 Y-27.5820 
G01 X-2.1800 Y-27.4846 
G01 X-2.2566 Y-27.3700 
G01 X-2.3093 Y-27.2427 
G01 X-2.3362 Y-27.1075 
G01 X-2.3362 Y-26.9697 
G01 X-2.3093 Y-26.8345 
G01 X-2.2566 Y-26.7072 
G01 X-2.1800 Y-26.5926 
G01 X-2.0826 Y-26.4952 
G00 Z1.0000 
G00 X-2.7229 Y-31.8330 
G01 Z-0.0700 F50.80 
G01 X-1.0871 Y-31.8330 F101.60 
G01 X-1.0540 Y-31.8467 
G01 X-1.0287 Y-31.8720 
G01 X-1.0150 Y-31.9051 
G01 X-1.0150 Y-33.2409 
G01 X-1.0287 Y-33.2740 
G01 X-1.0540 Y-33.2993 
G01 X-1.0871 Y-33.3130 
G01 X-1.5212 Y-33.3130 
G01 X-1.5212 Y-34.3280 
G01 X-1.3506 Y-34.3280 
G01 X-1.3175 Y-34.3417 
G01 X-1.2922 Y-34.3670 
G01 X-1.2785 Y-34.4001 
G01 X-1.2785 Y-35.6359 
G01 X-1.2922 Y-35.6690 
G01 X-1.3175 Y-35.6943 
G01 X-1.3506 Y-35.7080 
G01 X-2.5864 Y-35.7080 
G01 X-2.6195 Y-35.6943 
G01 X-2.6448 Y-35.6690 
G01 X-2.6585 Y-35.6359 
G01 X-2.6585 Y-34.4001 
G01 X-2.6448 Y-34.3670 
G01 X-2.6195 Y-34.3417 
G01 X-2.5864 Y-34.3280 
G01 X-2.0012 Y-34.3280 
G01 X-2.0012 Y-33.3130 
G01 X-2.7229 Y-33.3130 
G01 X-2.7560 Y-33.2993 
G01 X-2.7813 Y-33.2740 
G01 X-2.7950 Y-33.2409 
G01 X-2.7950 Y-31.9051 
G01 X-2.7813 Y-31.8720 
G01 X-2.7560 Y-31.8467 
G01 X-2.7229 Y-31.8330 
G00 Z1.0000 
G00 X-4.6482 Y-31.8720 
G01 Z-0.0700 F50.80 
G01 X-4.6345 Y-31.9051 F101.60 
G01 X-4.6345 Y-33.2409 
G01 X-4.6482 Y-33.2740 
G01 X-4.6735 Y-33.2993 
G01 X-4.7066 Y-33.3130 
G01 X-5.0436 Y-33.3130 
G01 X-5.0436 Y-34.3280 
G01 X-5.0336 Y-34.3280 
G01 X-5.0005 Y-34.3417 
G01 X-4.9752 Y-34.3670 
G01 X-4.9615 Y-34.4001 
G01 X-4.9615 Y-35.6359 
G01 X-4.9752 Y-35.6690 
G01 X-5.0005 Y-35.6943 
G01 X-5.0336 Y-35.7080 
G01 X-6.2694 Y-35.7080 
G01 X-6.3025 Y-35.6943 
G01 X-6.3278 Y-35.6690 
G01 X-6.3415 Y-35.6359 
G01 X-6.3415 Y-34.4001 
G01 X-6.3278 Y-34.3670 
G01 X-6.3025 Y-34.3417 
G01 X-6.2694 Y-34.3280 
G01 X-5.5236 Y-34.3280 
G01 X-5.5236 Y-33.3130 
G01 X-6.3424 Y-33.3130 
G01 X-6.3755 Y-33.2993 
G01 X-6.4008 Y-33.2740 
G01 X-6.4145 Y-33.2409 
G01 X-6.4145 Y-31.9051 
G01 X-6.4008 Y-31.8720 
G01 X-6.3755 Y-31.8467 
G01 X-6.3424 Y-31.8330 
G01 X-4.7066 Y-31.8330 
G01 X-4.6735 Y-31.8467 
G01 X-4.6482 Y-31.8720 
G00 Z1.0000 
G00 X-4.9752 Y-36.4670 
G01 Z-0.0700 F50.80 
G01 X-4.9615 Y-36.5001 F101.60 
G01 X-4.9615 Y-37.7359 
G01 X-4.9752 Y-37.7690 
G01 X-5.0005 Y-37.7943 
G01 X-5.0336 Y-37.8080 
G01 X-5.0436 Y-37.8080 
G01 X-5.0436 Y-37.9478 
G01 X-5.0422 Y-37.9515 
G01 X-5.0436 Y-37.9954 
G01 X-5.0436 Y-38.0393 
G01 X-5.0451 Y-38.0430 
G01 X-5.0452 Y-38.0469 
G01 X-5.0633 Y-38.0869 
G01 X-5.0801 Y-38.1275 
G01 X-5.0829 Y-38.1303 
G01 X-5.4221 Y-38.8813 
G01 X-5.3680 Y-38.9354 
G01 X-5.2914 Y-39.0500 
G01 X-5.2387 Y-39.1773 
G01 X-5.2118 Y-39.3125 
G01 X-5.2118 Y-39.4503 
G01 X-5.2387 Y-39.5855 
G01 X-5.2914 Y-39.7128 
G01 X-5.3680 Y-39.8274 
G01 X-5.4654 Y-39.9248 
G01 X-5.5800 Y-40.0014 
G01 X-5.7073 Y-40.0541 
G01 X-5.8425 Y-40.0810 
G01 X-5.9803 Y-40.0810 
G01 X-6.1155 Y-40.0541 
G01 X-6.2428 Y-40.0014 
G01 X-6.3574 Y-39.9248 
G01 X-6.4548 Y-39.8274 
G01 X-6.5314 Y-39.7128 
G01 X-6.5841 Y-39.5855 
G01 X-6.6110 Y-39.4503 
G01 X-6.6110 Y-39.3125 
G01 X-6.5841 Y-39.1773 
G01 X-6.5314 Y-39.0500 
G01 X-6.4548 Y-38.9354 
G01 X-6.3574 Y-38.8380 
G01 X-6.2428 Y-38.7614 
G01 X-6.1155 Y-38.7087 
G01 X-5.9803 Y-38.6818 
G01 X-5.8587 Y-38.6818 
G01 X-5.5236 Y-37.9399 
G01 X-5.5236 Y-37.8080 
G01 X-6.2694 Y-37.8080 
G01 X-6.3025 Y-37.7943 
G01 X-6.3278 Y-37.7690 
G01 X-6.3415 Y-37.7359 
G01 X-6.3415 Y-36.5001 
G01 X-6.3278 Y-36.4670 
G01 X-6.3025 Y-36.4417 
G01 X-6.2694 Y-36.4280 
G01 X-5.0336 Y-36.4280 
G01 X-5.0005 Y-36.4417 
G01 X-4.9752 Y-36.4670 
G00 Z1.0000 
G00 X-4.8505 Y-41.5660 
G01 Z-0.0700 F50.80 
G01 X-4.0395 Y-41.5660 F101.60 
G01 X-3.4660 Y-42.1395 
G01 X-3.4660 Y-42.9505 
G01 X-4.0395 Y-43.5240 
G01 X-4.8505 Y-43.5240 
G01 X-5.4240 Y-42.9505 
G01 X-5.4240 Y-42.1395 
G01 X-4.8505 Y-41.5660 
G00 Z1.0000 
G00 X-6.0060 Y-42.1395 
G01 Z-0.0700 F50.80 
G01 X-6.0060 Y-42.9505 F101.60 
G01 X-6.5795 Y-43.5240 
G01 X-7.3905 Y-43.5240 
G01 X-7.9640 Y-42.9505 
G01 X-7.9640 Y-42.1395 
G01 X-7.3905 Y-41.5660 
G01 X-6.5795 Y-41.5660 
G01 X-6.0060 Y-42.1395 
G00 Z1.0000 
G00 X-8.5460 Y-42.1395 
G01 Z-0.0700 F50.80 
G01 X-8.5460 Y-42.9505 F101.60 
G01 X-9.1195 Y-43.5240 
G01 X-9.9305 Y-43.5240 
G01 X-10.5040 Y-42.9505 
G01 X-10.5040 Y-42.1395 
G01 X-9.9305 Y-41.5660 
G01 X-9.1195 Y-41.5660 
G01 X-8.5460 Y-42.1395 
G00 Z1.0000 
G00 X-15.6580 Y-34.6429 
G01 Z-0.0700 F50.80 
G01 X-16.1571 Y-35.1420 F101.60 
G01 X-16.8629 Y-35.1420 
G01 X-17.3620 Y-34.6429 
G01 X-17.3620 Y-33.9371 
G01 X-16.8629 Y-33.4380 
G01 X-16.1571 Y-33.4380 
G01 X-15.6580 Y-33.9371 
G01 X-15.6580 Y-34.6429 
G00 Z1.0000 
G00 X-18.1980 Y-34.6429 
G01 Z-0.0700 F50.80 
G01 X-18.6971 Y-35.1420 F101.60 
G01 X-19.4029 Y-35.1420 
G01 X-19.9020 Y-34.6429 
G01 X-19.9020 Y-33.9371 
G01 X-19.4029 Y-33.4380 
G01 X-18.6971 Y-33.4380 
G01 X-18.1980 Y-33.9371 
G01 X-18.1980 Y-34.6429 
G00 Z1.0000 
G00 X-0.6725 Y-0.4601 
G01 Z-0.0700 F50.80 
G01 X-0.6268 Y-0.5077 F101.60 
G01 X-0.5800 Y-0.5545 
G01 X-0.5772 Y-0.5595 
G01 X-0.5732 Y-0.5636 
G01 X-0.5414 Y-0.6215 
G01 X-0.5083 Y-0.6787 
G01 X-0.5068 Y-0.6843 
G01 X0.1572 Y-1.8915 
G01 X0.1902 Y-1.9487 
G01 X0.1917 Y-1.9543 
G01 X0.1944 Y-1.9593 
G01 X0.2102 Y-2.0235 
G01 X0.2273 Y-2.0873 
G01 X0.2273 Y-2.0930 
G01 X0.2287 Y-2.0986 
G01 X0.2273 Y-2.1647 
G01 X0.2273 Y-44.5217 
G01 X0.1902 Y-44.6603 
G01 X0.1184 Y-44.7845 
G01 X0.0170 Y-44.8859 
G01 X-0.1072 Y-44.9577 
G01 X-0.2458 Y-44.9948 
G01 X-17.8517 Y-44.9948 
G01 X-17.9903 Y-44.9577 
G01 X-18.1145 Y-44.8859 
G01 X-19.3265 Y-43.6740 
G01 X-20.1526 Y-43.6740 
G01 X-20.8140 Y-43.0126 
G01 X-20.8140 Y-42.0774 
G01 X-20.1526 Y-41.4160 
G01 X-19.2174 Y-41.4160 
G01 X-18.5560 Y-42.0774 
G01 X-18.5560 Y-42.9035 
G01 X-17.5543 Y-43.9052 
G01 X-0.8623 Y-43.9052 
G01 X-0.8623 Y-43.0989 
G01 X-1.4374 Y-43.6740 
G01 X-2.3726 Y-43.6740 
G01 X-3.0340 Y-43.0126 
G01 X-3.0340 Y-42.1197 
G01 X-3.6290 Y-41.5792 
G01 X-3.6373 Y-41.5745 
G01 X-3.6669 Y-41.5448 
G01 X-3.6980 Y-41.5166 
G01 X-3.7032 Y-41.5086 
G01 X-3.7099 Y-41.5019 
G01 X-3.7309 Y-41.4655 
G01 X-3.7536 Y-41.4302 
G01 X-3.7565 Y-41.4212 
G01 X-3.7612 Y-41.4129 
G01 X-3.7721 Y-41.3724 
G01 X-3.7849 Y-41.3324 
G01 X-3.7853 Y-41.3229 
G01 X-3.7878 Y-41.3137 
G01 X-3.7878 Y-41.2718 
G01 X-3.7898 Y-41.2298 
G01 X-3.7878 Y-41.2206 
G01 X-3.7878 Y-41.0334 
G01 X-4.1005 Y-41.3461 
G01 X-4.1351 Y-41.3815 
G01 X-4.1369 Y-41.3825 
G01 X-4.1383 Y-41.3840 
G01 X-4.1810 Y-41.4086 
G01 X-4.1935 Y-41.4160 
G01 X-3.9774 Y-41.4160 
G01 X-3.3160 Y-42.0774 
G01 X-3.3160 Y-43.0126 
G01 X-3.9774 Y-43.6740 
G01 X-4.9126 Y-43.6740 
G01 X-5.5740 Y-43.0126 
G01 X-5.5740 Y-42.0774 
G01 X-4.9646 Y-41.4679 
G01 X-6.4502 Y-41.4832 
G01 X-5.8560 Y-42.0774 
G01 X-5.8560 Y-43.0126 
G01 X-6.5174 Y-43.6740 
G01 X-7.4526 Y-43.6740 
G01 X-8.1140 Y-43.0126 
G01 X-8.1140 Y-42.0774 
G01 X-7.5309 Y-41.4943 
G01 X-8.9644 Y-41.5090 
G01 X-8.3960 Y-42.0774 
G01 X-8.3960 Y-43.0126 
G01 X-9.0574 Y-43.6740 
G01 X-9.9926 Y-43.6740 
G01 X-10.6540 Y-43.0126 
G01 X-10.6540 Y-42.0774 
G01 X-10.0972 Y-41.5206 
G01 X-10.3930 Y-41.5236 
G01 X-10.9360 Y-42.1215 
G01 X-10.9360 Y-43.0126 
G01 X-11.5974 Y-43.6740 
G01 X-12.5326 Y-43.6740 
G01 X-13.1940 Y-43.0126 
G01 X-13.1940 Y-42.0774 
G01 X-12.5326 Y-41.4160 
G01 X-11.5974 Y-41.4160 
G01 X-11.4672 Y-41.5462 
G01 X-10.8854 Y-40.9057 
G01 X-10.8817 Y-40.8991 
G01 X-10.8509 Y-40.8677 
G01 X-10.8214 Y-40.8352 
G01 X-10.8160 Y-40.8317 
G01 X-12.5915 Y-40.8317 
G01 X-13.5873 Y-41.9661 
G01 X-13.4760 Y-42.0774 
G01 X-13.4760 Y-43.0126 
G01 X-14.1374 Y-43.6740 
G01 X-15.0726 Y-43.6740 
G01 X-15.7340 Y-43.0126 
G01 X-15.7340 Y-42.0774 
G01 X-15.0726 Y-41.4160 
G01 X-14.1423 Y-41.4160 
G01 X-13.0866 Y-40.2134 
G01 X-13.0802 Y-40.2022 
G01 X-13.0528 Y-40.1749 
G01 X-13.0273 Y-40.1458 
G01 X-13.0166 Y-40.1387 
G01 X-13.0076 Y-40.1296 
G01 X-12.9741 Y-40.1103 
G01 X-12.9419 Y-40.0888 
G01 X-12.9298 Y-40.0847 
G01 X-12.9186 Y-40.0783 
G01 X-12.8813 Y-40.0683 
G01 X-12.8447 Y-40.0559 
G01 X-12.8318 Y-40.0550 
G01 X-12.8194 Y-40.0517 
G01 X-12.7808 Y-40.0517 
G01 X-12.7422 Y-40.0492 
G01 X-12.7296 Y-40.0517 
G01 X-7.7255 Y-40.0517 
G01 X-7.5618 Y-39.9363 
G01 X-7.5618 Y-33.1181 
G01 X-7.9048 Y-32.7657 
G01 X-7.8197 Y-32.9004 
G01 X-7.8140 Y-32.9061 
G01 X-7.7921 Y-32.9440 
G01 X-7.7687 Y-32.9810 
G01 X-7.7663 Y-32.9886 
G01 X-7.7623 Y-32.9955 
G01 X-7.7510 Y-33.0378 
G01 X-7.7380 Y-33.0796 
G01 X-7.7377 Y-33.0876 
G01 X-7.7356 Y-33.0953 
G01 X-7.7356 Y-33.1391 
G01 X-7.7338 Y-33.1829 
G01 X-7.7356 Y-33.1907 
G01 X-7.7356 Y-36.2467 
G01 X-7.7623 Y-36.3465 
G01 X-7.8140 Y-36.4359 
G01 X-7.8626 Y-36.4845 
G01 X-7.8626 Y-36.6092 
G01 X-7.8612 Y-36.6550 
G01 X-7.8626 Y-36.6608 
G01 X-7.8626 Y-36.6667 
G01 X-7.8745 Y-36.7109 
G01 X-7.8850 Y-36.7555 
G01 X-7.8878 Y-36.7608 
G01 X-7.8893 Y-36.7665 
G01 X-7.9000 Y-36.7849 
G01 X-7.9000 Y-37.5032 
G01 X-7.9365 Y-37.5914 
G01 X-8.0006 Y-37.6555 
G01 X-7.9365 Y-37.7195 
G01 X-7.9000 Y-37.8078 
G01 X-7.9000 Y-39.2032 
G01 X-7.9365 Y-39.2914 
G01 X-8.0040 Y-39.3590 
G01 X-8.0923 Y-39.3955 
G01 X-9.6877 Y-39.3955 
G01 X-9.7759 Y-39.3590 
G01 X-9.8435 Y-39.2914 
G01 X-9.8800 Y-39.2032 
G01 X-9.8800 Y-39.1417 
G01 X-9.8820 Y-39.1420 
G01 X-9.9140 Y-39.1388 
G01 X-9.9463 Y-39.1388 
G01 X-9.9552 Y-39.1364 
G01 X-11.4560 Y-39.1364 
G01 X-11.4560 Y-39.2667 
G01 X-11.4925 Y-39.3549 
G01 X-11.5601 Y-39.4225 
G01 X-11.6483 Y-39.4590 
G01 X-13.2437 Y-39.4590 
G01 X-16.0160 Y-42.2307 
G01 X-16.0160 Y-43.0126 
G01 X-16.6774 Y-43.6740 
G01 X-17.6126 Y-43.6740 
G01 X-18.2740 Y-43.0126 
G01 X-18.2740 Y-42.1865 
G01 X-19.2757 Y-41.1848 
G01 X-20.9303 Y-41.1848 
G01 X-20.9771 Y-41.1891 
G01 X-21.0017 Y-41.1848 
G01 X-21.0267 Y-41.1848 
G01 X-21.0721 Y-41.1726 
G01 X-21.1185 Y-41.1646 
G01 X-21.1411 Y-41.1541 
G01 X-21.1653 Y-41.1477 
G01 X-21.2060 Y-41.1242 
G01 X-21.2487 Y-41.1044 
G01 X-21.2679 Y-41.0884 
G01 X-21.2895 Y-41.0759 
G01 X-21.3228 Y-41.0427 
G01 X-22.0299 Y-40.4534 
G01 X-22.0515 Y-40.4409 
G01 X-22.0848 Y-40.4077 
G01 X-22.1209 Y-40.3776 
G01 X-22.1353 Y-40.3572 
G01 X-22.1529 Y-40.3395 
G01 X-22.1765 Y-40.2988 
G01 X-22.2035 Y-40.2604 
G01 X-22.2122 Y-40.2369 
G01 X-22.2247 Y-40.2153 
G01 X-22.2368 Y-40.1699 
G01 X-22.2531 Y-40.1258 
G01 X-22.2553 Y-40.1009 
G01 X-22.2618 Y-40.0767 
G01 X-22.2618 Y-40.0297 
G01 X-22.2661 Y-39.9829 
G01 X-22.2618 Y-39.9583 
G01 X-22.2618 Y-7.5474 
G01 X-22.2652 Y-7.5304 
G01 X-22.2618 Y-7.4759 
G01 X-22.2618 Y-7.4213 
G01 X-22.2573 Y-7.4045 
G01 X-22.2562 Y-7.3872 
G01 X-22.2388 Y-7.3355 
G01 X-22.2247 Y-7.2827 
G01 X-22.2160 Y-7.2677 
G01 X-22.2105 Y-7.2513 
G01 X-22.1803 Y-7.2058 
G01 X-22.1529 Y-7.1585 
G01 X-22.1407 Y-7.1462 
G01 X-22.1311 Y-7.1318 
G01 X-22.0901 Y-7.0957 
G01 X-22.0515 Y-7.0571 
G01 X-22.0365 Y-7.0484 
G01 X-19.8765 Y-5.1439 
G01 X-19.7480 Y-5.0801 
G01 X-19.6074 Y-5.0518 
G01 X-19.4642 Y-5.0608 
G01 X-19.3283 Y-5.1065 
G01 X-19.2526 Y-5.1568 
G01 X-18.3375 Y-5.1568 
G01 X-18.3375 Y-4.5580 
G01 X-21.6377 Y-4.5580 
G01 X-21.7259 Y-4.5215 
G01 X-21.7935 Y-4.4539 
G01 X-21.8300 Y-4.3657 
G01 X-21.8300 Y-0.4603 
G01 X-21.7935 Y-0.3720 
G01 X-21.7259 Y-0.3045 
G01 X-21.6377 Y-0.2680 
G01 X-10.6203 Y-0.2680 
G01 X-10.5320 Y-0.3045 
G01 X-10.4645 Y-0.3720 
G01 X-10.4280 Y-0.4603 
G01 X-10.4280 Y-4.3657 
G01 X-10.4645 Y-4.4539 
G01 X-10.5320 Y-4.5215 
G01 X-10.6203 Y-4.5580 
G01 X-16.9304 Y-4.5580 
G01 X-16.9304 Y-4.6600 
G01 X-16.4973 Y-4.6600 
G01 X-16.4200 Y-4.6920 
G01 X-16.3427 Y-4.6600 
G01 X-15.8473 Y-4.6600 
G01 X-15.7700 Y-4.6920 
G01 X-15.6927 Y-4.6600 
G01 X-15.1973 Y-4.6600 
G01 X-15.1256 Y-4.6897 
G01 X-15.1092 Y-4.6733 
G01 X-15.0210 Y-4.6368 
G01 X-14.2652 Y-4.6368 
G01 X-14.1769 Y-4.6733 
G01 X-14.1094 Y-4.7409 
G01 X-14.0729 Y-4.8291 
G01 X-14.0729 Y-5.1568 
G01 X-10.3723 Y-5.1568 
G01 X-10.0698 Y-4.8543 
G01 X-10.0698 Y-0.8173 
G01 X-10.0327 Y-0.6787 
G01 X-9.9609 Y-0.5545 
G01 X-9.8595 Y-0.4531 
G01 X-9.7353 Y-0.3813 
G01 X-9.5967 Y-0.3442 
G01 X-1.0820 Y-0.3442 
G01 X-1.0764 Y-0.3428 
G01 X-1.0103 Y-0.3442 
G01 X-0.9443 Y-0.3442 
G01 X-0.9387 Y-0.3457 
G01 X-0.9330 Y-0.3458 
G01 X-0.8695 Y-0.3642 
G01 X-0.8057 Y-0.3813 
G01 X-0.8007 Y-0.3842 
G01 X-0.7952 Y-0.3858 
G01 X-0.7387 Y-0.4200 
G01 X-0.6815 Y-0.4531 
G01 X-0.6774 Y-0.4571 
G01 X-0.6725 Y-0.4601 
G00 Z1.0000 
G00 X-1.3381 Y-1.4338 
G01 Z-0.0700 F50.80 
G01 X-2.8808 Y-1.4338 F101.60 
G01 X-2.8808 Y-2.0470 
G01 X-2.6543 Y-2.0470 
G01 X-2.5661 Y-2.0835 
G01 X-2.4985 Y-2.1511 
G01 X-2.4620 Y-2.2393 
G01 X-2.4620 Y-3.5347 
G01 X-2.4985 Y-3.6229 
G01 X-2.5661 Y-3.6905 
G01 X-2.6543 Y-3.7270 
G01 X-3.9497 Y-3.7270 
G01 X-4.0379 Y-3.6905 
G01 X-4.1055 Y-3.6229 
G01 X-4.1420 Y-3.5347 
G01 X-4.1420 Y-2.2393 
G01 X-4.1055 Y-2.1511 
G01 X-4.0379 Y-2.0835 
G01 X-3.9497 Y-2.0470 
G01 X-3.6608 Y-2.0470 
G01 X-3.6608 Y-1.4338 
G01 X-8.9802 Y-1.4338 
G01 X-8.9802 Y-5.1517 
G01 X-9.0173 Y-5.2903 
G01 X-9.0891 Y-5.4145 
G01 X-9.1905 Y-5.5159 
G01 X-9.3763 Y-5.7018 
G01 X-9.3692 Y-5.7284 
G01 X-9.3692 Y-6.8825 
G01 X-7.9750 Y-8.5311 
G01 X-7.9750 Y-7.2153 
G01 X-7.9385 Y-7.1270 
G01 X-7.8709 Y-7.0595 
G01 X-7.7827 Y-7.0230 
G01 X-7.1832 Y-7.0230 
G01 X-7.1832 Y-5.7770 
G01 X-7.8327 Y-5.7770 
G01 X-7.9209 Y-5.7405 
G01 X-7.9885 Y-5.6729 
G01 X-8.0250 Y-5.5847 
G01 X-8.0250 Y-4.1893 
G01 X-7.9885 Y-4.1010 
G01 X-7.9209 Y-4.0335 
G01 X-7.8327 Y-3.9970 
G01 X-6.3669 Y-3.9970 
G01 X-6.4869 Y-3.8770 
G01 X-7.8327 Y-3.8770 
G01 X-7.9209 Y-3.8405 
G01 X-7.9885 Y-3.7729 
G01 X-8.0250 Y-3.6847 
G01 X-8.0250 Y-2.2893 
G01 X-7.9885 Y-2.2010 
G01 X-7.9209 Y-2.1335 
G01 X-7.8327 Y-2.0970 
G01 X-6.1373 Y-2.0970 
G01 X-6.0491 Y-2.1335 
G01 X-5.9815 Y-2.2010 
G01 X-5.9450 Y-2.2893 
G01 X-5.9450 Y-3.3159 
G01 X-4.8705 Y-4.3904 
G01 X-4.1420 Y-4.3904 
G01 X-4.1420 Y-4.3393 
G01 X-4.1055 Y-4.2511 
G01 X-4.0379 Y-4.1835 
G01 X-3.9497 Y-4.1470 
G01 X-2.6543 Y-4.1470 
G01 X-2.5661 Y-4.1835 
G01 X-2.4985 Y-4.2511 
G01 X-2.4620 Y-4.3393 
G01 X-2.4620 Y-5.6347 
G01 X-2.4985 Y-5.7229 
G01 X-2.5661 Y-5.7905 
G01 X-2.6543 Y-5.8270 
G01 X-3.9497 Y-5.8270 
G01 X-4.0379 Y-5.7905 
G01 X-4.1055 Y-5.7229 
G01 X-4.1420 Y-5.6347 
G01 X-4.1420 Y-5.1704 
G01 X-5.0833 Y-5.1704 
G01 X-5.1825 Y-5.1438 
G01 X-5.2715 Y-5.0925 
G01 X-5.9450 Y-4.4189 
G01 X-5.9450 Y-5.5847 
G01 X-5.9815 Y-5.6729 
G01 X-6.0491 Y-5.7405 
G01 X-6.1373 Y-5.7770 
G01 X-6.4032 Y-5.7770 
G01 X-6.4032 Y-7.0230 
G01 X-6.1873 Y-7.0230 
G01 X-6.0991 Y-7.0595 
G01 X-6.0315 Y-7.1270 
G01 X-5.9950 Y-7.2153 
G01 X-5.9950 Y-7.4096 
G01 X-4.2920 Y-7.4096 
G01 X-4.2920 Y-7.2153 
G01 X-4.2555 Y-7.1270 
G01 X-4.1879 Y-7.0595 
G01 X-4.0997 Y-7.0230 
G01 X-2.5043 Y-7.0230 
G01 X-2.4160 Y-7.0595 
G01 X-2.3485 Y-7.1270 
G01 X-2.3120 Y-7.2153 
G01 X-2.3120 Y-7.9553 
G01 X-1.7733 Y-8.4939 
G01 X-1.7007 Y-8.5665 
G01 X-1.6494 Y-8.6555 
G01 X-1.6228 Y-8.7547 
G01 X-1.6228 Y-11.8157 
G01 X-1.6208 Y-11.8575 
G01 X-1.6228 Y-11.8669 
G01 X-1.6228 Y-11.8765 
G01 X-1.6336 Y-11.9170 
G01 X-1.6425 Y-11.9579 
G01 X-1.6469 Y-11.9665 
G01 X-1.6494 Y-11.9757 
G01 X-1.6703 Y-12.0120 
G01 X-1.6895 Y-12.0492 
G01 X-1.6959 Y-12.0564 
G01 X-1.7007 Y-12.0647 
G01 X-1.7271 Y-12.0910 
G01 X-1.6273 Y-12.0910 
G01 X-1.5391 Y-12.1275 
G01 X-1.4715 Y-12.1951 
G01 X-1.4350 Y-12.2833 
G01 X-1.4350 Y-13.8787 
G01 X-1.4715 Y-13.9669 
G01 X-1.5391 Y-14.0345 
G01 X-1.6273 Y-14.0710 
G01 X-3.0227 Y-14.0710 
G01 X-3.1109 Y-14.0345 
G01 X-3.1750 Y-13.9704 
G01 X-3.2391 Y-14.0345 
G01 X-3.3273 Y-14.0710 
G01 X-3.6356 Y-14.0710 
G01 X-3.6356 Y-14.1409 
G01 X-3.6622 Y-14.2401 
G01 X-3.7135 Y-14.3291 
G01 X-4.2893 Y-14.9049 
G01 X-4.3783 Y-14.9562 
G01 X-4.4775 Y-14.9828 
G01 X-5.3304 Y-14.9828 
G01 X-5.0096 Y-15.3036 
G01 X-4.9879 Y-15.3559 
G01 X-4.9357 Y-15.3775 
G01 X-4.4439 Y-15.8693 
G01 X-4.4223 Y-15.9216 
G01 X-4.3700 Y-15.9432 
G01 X-3.8782 Y-16.4350 
G01 X-3.8566 Y-16.4872 
G01 X-3.8043 Y-16.5089 
G01 X-3.3125 Y-17.0007 
G01 X-3.2909 Y-17.0529 
G01 X-3.2386 Y-17.0746 
G01 X-2.7468 Y-17.5664 
G01 X-2.7252 Y-17.6186 
G01 X-2.6729 Y-17.6403 
G01 X-2.1812 Y-18.1320 
G01 X-2.1595 Y-18.1843 
G01 X-2.1072 Y-18.2060 
G01 X-1.6155 Y-18.6977 
G01 X-1.5938 Y-18.7500 
G01 X-1.5416 Y-18.7716 
G01 X-1.1316 Y-19.1816 
G01 X-0.8623 Y-19.1816 
G01 X-0.8623 Y-2.2989 
G01 X-1.3381 Y-1.4338 
G00 Z1.0000 
G00 X-4.2920 Y-8.1896 
G01 Z-0.0700 F50.80 
G01 X-5.9950 Y-8.1896 F101.60 
G01 X-5.9950 Y-8.6107 
G01 X-6.0315 Y-8.6989 
G01 X-6.0956 Y-8.7630 
G01 X-6.0315 Y-8.8270 
G01 X-5.9950 Y-8.9153 
G01 X-5.9950 Y-9.1708 
G01 X-4.2920 Y-9.1708 
G01 X-4.2920 Y-8.9153 
G01 X-4.2555 Y-8.8270 
G01 X-4.1914 Y-8.7630 
G01 X-4.2555 Y-8.6989 
G01 X-4.2920 Y-8.6107 
G01 X-4.2920 Y-8.1896 
G00 Z1.0000 
G00 X-4.2920 Y-9.9508 
G01 Z-0.0700 F50.80 
G01 X-5.9950 Y-9.9508 F101.60 
G01 X-5.9950 Y-10.3107 
G01 X-6.0315 Y-10.3989 
G01 X-6.0991 Y-10.4665 
G01 X-6.1873 Y-10.5030 
G01 X-7.1048 Y-10.5030 
G01 X-7.1048 Y-13.2084 
G01 X-6.7066 Y-13.6066 
G01 X-6.6850 Y-13.6588 
G01 X-6.6690 Y-13.6655 
G01 X-6.6579 Y-13.6544 
G01 X-6.5761 Y-13.0753 
G01 X-6.5727 Y-13.0351 
G01 X-6.5689 Y-13.0246 
G01 X-6.5674 Y-13.0135 
G01 X-6.5516 Y-12.9764 
G01 X-5.9809 Y-11.3908 
G01 X-5.9223 Y-11.3065 
G01 X-5.8438 Y-11.2402 
G01 X-5.7509 Y-11.1965 
G01 X-5.6499 Y-11.1783 
G01 X-5.5475 Y-11.1869 
G01 X-5.4993 Y-11.2042 
G01 X-2.4803 Y-11.2042 
G01 X-2.4718 Y-11.2023 
G01 X-2.4321 Y-11.2042 
G01 X-2.4028 Y-11.2042 
G01 X-2.4028 Y-10.4532 
G01 X-2.4160 Y-10.4665 
G01 X-2.5043 Y-10.5030 
G01 X-4.0997 Y-10.5030 
G01 X-4.1879 Y-10.4665 
G01 X-4.2555 Y-10.3989 
G01 X-4.2920 Y-10.3107 
G01 X-4.2920 Y-9.9508 
G00 Z1.0000 
G00 X-4.7227 Y-12.0910 
G01 Z-0.0700 F50.80 
G01 X-3.3273 Y-12.0910 F101.60 
G01 X-3.2391 Y-12.1275 
G01 X-3.1750 Y-12.1916 
G01 X-3.1109 Y-12.1275 
G01 X-3.0227 Y-12.0910 
G01 X-2.6544 Y-12.0910 
G01 X-2.6544 Y-11.9572 
G01 X-2.6642 Y-11.9382 
G01 X-5.3489 Y-11.9382 
G01 X-5.8079 Y-13.2132 
G01 X-5.9000 Y-13.8654 
G01 X-5.9000 Y-13.8893 
G01 X-5.9072 Y-13.9160 
G01 X-5.9110 Y-13.9434 
G01 X-5.9204 Y-13.9654 
G01 X-5.9266 Y-13.9885 
G01 X-5.9404 Y-14.0125 
G01 X-5.9512 Y-14.0379 
G01 X-5.9660 Y-14.0567 
G01 X-5.9779 Y-14.0775 
G01 X-5.9974 Y-14.0970 
G01 X-6.0145 Y-14.1188 
G01 X-6.0336 Y-14.1332 
G01 X-6.1210 Y-14.2205 
G01 X-6.1193 Y-14.2245 
G01 X-6.0670 Y-14.2462 
G01 X-6.0294 Y-14.2838 
G01 X-6.0263 Y-14.2807 
G01 X-5.9373 Y-14.2294 
G01 X-5.8381 Y-14.2028 
G01 X-4.6903 Y-14.2028 
G01 X-4.5585 Y-14.0710 
G01 X-4.7227 Y-14.0710 
G01 X-4.8109 Y-14.0345 
G01 X-4.8785 Y-13.9669 
G01 X-4.9150 Y-13.8787 
G01 X-4.9150 Y-12.2833 
G01 X-4.8785 Y-12.1951 
G01 X-4.8109 Y-12.1275 
G01 X-4.7227 Y-12.0910 
G00 Z1.0000 
G00 X-7.9912 Y-13.6357 
G01 Z-0.0700 F50.80 
G01 X-7.9912 Y-10.2573 F101.60 
G01 X-7.9750 Y-10.1968 
G01 X-7.9750 Y-9.6299 
G01 X-7.9816 Y-9.6311 
G01 X-8.0090 Y-9.6288 
G01 X-8.0363 Y-9.6304 
G01 X-8.0668 Y-9.6240 
G01 X-8.0979 Y-9.6214 
G01 X-8.1237 Y-9.6121 
G01 X-8.1506 Y-9.6065 
G01 X-8.1784 Y-9.5924 
G01 X-8.2077 Y-9.5819 
G01 X-8.2302 Y-9.5662 
G01 X-8.2547 Y-9.5539 
G01 X-8.2779 Y-9.5331 
G01 X-8.3035 Y-9.5153 
G01 X-8.3213 Y-9.4944 
G01 X-8.3417 Y-9.4761 
G01 X-8.3588 Y-9.4500 
G01 X-10.1389 Y-7.3451 
G01 X-10.1670 Y-7.3169 
G01 X-10.1764 Y-7.3007 
G01 X-10.1885 Y-7.2864 
G01 X-10.2055 Y-7.2504 
G01 X-10.2254 Y-7.2159 
G01 X-10.2302 Y-7.1978 
G01 X-10.2382 Y-7.1809 
G01 X-10.2453 Y-7.1416 
G01 X-10.2556 Y-7.1031 
G01 X-10.2556 Y-7.0844 
G01 X-10.2589 Y-7.0660 
G01 X-10.2556 Y-7.0263 
G01 X-10.2556 Y-6.1075 
G01 X-10.3670 Y-6.0432 
G01 X-14.0729 Y-6.0432 
G01 X-14.0729 Y-6.3469 
G01 X-14.1094 Y-6.4351 
G01 X-14.1769 Y-6.5027 
G01 X-14.2652 Y-6.5392 
G01 X-14.5453 Y-6.5392 
G01 X-14.5473 Y-6.5400 
G01 X-15.0427 Y-6.5400 
G01 X-15.0508 Y-6.5367 
G01 X-15.0508 Y-8.4673 
G01 X-14.3634 Y-9.1192 
G01 X-14.3385 Y-9.0590 
G01 X-14.2709 Y-8.9915 
G01 X-14.1827 Y-8.9550 
G01 X-12.4873 Y-8.9550 
G01 X-12.3991 Y-8.9915 
G01 X-12.3315 Y-9.0590 
G01 X-12.2950 Y-9.1473 
G01 X-12.2950 Y-10.5427 
G01 X-12.3315 Y-10.6309 
G01 X-12.3991 Y-10.6985 
G01 X-12.4873 Y-10.7350 
G01 X-14.1827 Y-10.7350 
G01 X-14.2709 Y-10.6985 
G01 X-14.3385 Y-10.6309 
G01 X-14.3750 Y-10.5427 
G01 X-14.3750 Y-10.1897 
G01 X-15.6796 Y-8.9526 
G01 X-15.6841 Y-8.9500 
G01 X-15.7170 Y-8.9171 
G01 X-15.7261 Y-8.9085 
G01 X-15.7390 Y-8.9565 
G01 X-15.7903 Y-9.0455 
G01 X-16.1050 Y-9.3601 
G01 X-16.1050 Y-10.5427 
G01 X-16.1415 Y-10.6309 
G01 X-16.2091 Y-10.6985 
G01 X-16.2973 Y-10.7350 
G01 X-17.9927 Y-10.7350 
G01 X-18.0809 Y-10.6985 
G01 X-18.1485 Y-10.6309 
G01 X-18.1850 Y-10.5427 
G01 X-18.1850 Y-9.1473 
G01 X-18.1485 Y-9.0590 
G01 X-18.0809 Y-8.9915 
G01 X-17.9927 Y-8.9550 
G01 X-16.8029 Y-8.9550 
G01 X-16.4924 Y-8.6445 
G01 X-16.4924 Y-6.5380 
G01 X-16.4973 Y-6.5400 
G01 X-16.9927 Y-6.5400 
G01 X-17.0037 Y-6.5354 
G01 X-17.0344 Y-6.5662 
G01 X-17.1227 Y-6.6027 
G01 X-18.1452 Y-6.6027 
G01 X-18.2334 Y-6.5662 
G01 X-18.3010 Y-6.4986 
G01 X-18.3375 Y-6.4104 
G01 X-18.3375 Y-6.0432 
G01 X-19.2489 Y-6.0432 
G01 X-21.1722 Y-7.7390 
G01 X-21.1722 Y-13.0114 
G01 X-15.1536 Y-13.0114 
G01 X-15.1482 Y-13.0101 
G01 X-15.0954 Y-13.0114 
G01 X-15.0425 Y-13.0114 
G01 X-15.0371 Y-13.0128 
G01 X-15.0316 Y-13.0130 
G01 X-14.9809 Y-13.0279 
G01 X-14.9360 Y-13.0399 
G01 X-15.7607 Y-12.2152 
G01 X-16.1050 Y-12.2152 
G01 X-16.1050 Y-12.4427 
G01 X-16.1415 Y-12.5309 
G01 X-16.2091 Y-12.5985 
G01 X-16.2973 Y-12.6350 
G01 X-17.9927 Y-12.6350 
G01 X-18.0809 Y-12.5985 
G01 X-18.1485 Y-12.5309 
G01 X-18.1850 Y-12.4427 
G01 X-18.1850 Y-11.0473 
G01 X-18.1485 Y-10.9590 
G01 X-18.0809 Y-10.8915 
G01 X-17.9927 Y-10.8550 
G01 X-16.2973 Y-10.8550 
G01 X-16.2091 Y-10.8915 
G01 X-16.1415 Y-10.9590 
G01 X-16.1050 Y-11.0473 
G01 X-16.1050 Y-11.4352 
G01 X-15.5479 Y-11.4352 
G01 X-15.4487 Y-11.4618 
G01 X-15.3597 Y-11.5131 
G01 X-15.2871 Y-11.5857 
G01 X-13.7198 Y-13.1530 
G01 X-13.7248 Y-13.1345 
G01 X-13.7248 Y-12.6350 
G01 X-14.1827 Y-12.6350 
G01 X-14.2709 Y-12.5985 
G01 X-14.3385 Y-12.5309 
G01 X-14.3750 Y-12.4427 
G01 X-14.3750 Y-11.0473 
G01 X-14.3385 Y-10.9590 
G01 X-14.2709 Y-10.8915 
G01 X-14.1827 Y-10.8550 
G01 X-12.4873 Y-10.8550 
G01 X-12.3991 Y-10.8915 
G01 X-12.3315 Y-10.9590 
G01 X-12.2950 Y-11.0473 
G01 X-12.2950 Y-12.4427 
G01 X-12.3315 Y-12.5309 
G01 X-12.3991 Y-12.5985 
G01 X-12.4873 Y-12.6350 
G01 X-12.9448 Y-12.6350 
G01 X-12.9448 Y-12.9217 
G01 X-11.6552 Y-14.2113 
G01 X-11.6390 Y-14.1722 
G01 X-11.1473 Y-13.6805 
G01 X-11.0950 Y-13.6588 
G01 X-11.0734 Y-13.6066 
G01 X-10.5816 Y-13.1148 
G01 X-10.4934 Y-13.0782 
G01 X-10.3979 Y-13.0782 
G01 X-10.3097 Y-13.1148 
G01 X-9.1815 Y-14.2430 
G01 X-9.1450 Y-14.3312 
G01 X-9.1450 Y-14.4266 
G01 X-9.1815 Y-14.5148 
G01 X-9.5711 Y-14.9044 
G01 X-9.2412 Y-14.9044 
G01 X-8.6117 Y-14.2750 
G01 X-8.5985 Y-14.2430 
G01 X-7.9912 Y-13.6357 
G00 Z1.0000 
G00 X-8.0544 Y-15.0283 
G01 Z-0.0700 F50.80 
G01 X-8.0948 Y-15.0116 F101.60 
G01 X-8.7855 Y-15.7022 
G01 X-8.8865 Y-15.7606 
G01 X-8.9992 Y-15.7908 
G01 X-10.1223 Y-15.7908 
G01 X-10.2351 Y-15.7606 
G01 X-10.3361 Y-15.7022 
G01 X-10.3525 Y-15.6859 
G01 X-10.8047 Y-16.1380 
G01 X-10.8569 Y-16.1596 
G01 X-10.8786 Y-16.2119 
G01 X-11.0807 Y-16.4140 
G01 X-9.2412 Y-16.4140 
G01 X-8.1896 Y-15.3624 
G01 X-8.1896 Y-15.2963 
G01 X-8.1630 Y-15.1971 
G01 X-8.1117 Y-15.1081 
G01 X-8.0478 Y-15.0443 
G01 X-8.0544 Y-15.0283 
G00 Z1.0000 
G00 X-7.7620 Y-16.1884 
G01 Z-0.0700 F50.80 
G01 X-8.7855 Y-17.2118 F101.60 
G01 X-8.8865 Y-17.2702 
G01 X-8.9992 Y-17.3004 
G01 X-11.3820 Y-17.3004 
G01 X-11.3820 Y-21.6227 
G01 X-11.3791 Y-21.6660 
G01 X-11.3820 Y-21.6808 
G01 X-11.3820 Y-21.6959 
G01 X-11.3932 Y-21.7379 
G01 X-11.4016 Y-21.7805 
G01 X-11.4083 Y-21.7941 
G01 X-11.4122 Y-21.8087 
G01 X-11.4339 Y-21.8463 
G01 X-11.4531 Y-21.8853 
G01 X-11.4630 Y-21.8966 
G01 X-11.4705 Y-21.9097 
G01 X-11.5013 Y-21.9405 
G01 X-12.0982 Y-22.6236 
G01 X-7.9626 Y-26.7592 
G01 X-7.5410 Y-26.3377 
G01 X-7.4888 Y-26.3160 
G01 X-7.4671 Y-26.2638 
G01 X-6.9753 Y-25.7720 
G01 X-6.9231 Y-25.7504 
G01 X-6.9014 Y-25.6981 
G01 X-6.4097 Y-25.2063 
G01 X-6.3574 Y-25.1847 
G01 X-6.3357 Y-25.1324 
G01 X-5.8440 Y-24.6406 
G01 X-5.7917 Y-24.6190 
G01 X-5.7701 Y-24.5667 
G01 X-5.2783 Y-24.0749 
G01 X-5.2260 Y-24.0533 
G01 X-5.2044 Y-24.0010 
G01 X-4.7126 Y-23.5093 
G01 X-4.6603 Y-23.4876 
G01 X-4.6387 Y-23.4353 
G01 X-4.1469 Y-22.9436 
G01 X-4.0946 Y-22.9219 
G01 X-4.0730 Y-22.8697 
G01 X-3.5812 Y-22.3779 
G01 X-3.5290 Y-22.3562 
G01 X-3.5073 Y-22.3040 
G01 X-3.0155 Y-21.8122 
G01 X-2.9633 Y-21.7906 
G01 X-2.9416 Y-21.7383 
G01 X-2.5768 Y-21.3735 
G01 X-3.5103 Y-20.4401 
G01 X-3.5829 Y-20.3675 
G01 X-3.6342 Y-20.2785 
G01 X-3.6424 Y-20.2480 
G01 X-3.6729 Y-20.2398 
G01 X-3.7619 Y-20.1885 
G01 X-7.7620 Y-16.1884 
G00 Z1.0000 
G00 X-13.3623 Y-15.9235 
G01 Z-0.0700 F50.80 
G01 X-15.2908 Y-13.8978 F101.60 
G01 X-17.3057 Y-13.8978 
G01 X-17.2871 Y-13.9055 
G01 X-17.2195 Y-13.9731 
G01 X-17.1830 Y-14.0613 
G01 X-17.1830 Y-14.7060 
G01 X-14.7931 Y-14.7060 
G01 X-14.6939 Y-14.7326 
G01 X-14.6049 Y-14.7839 
G01 X-14.5323 Y-14.8565 
G01 X-13.4278 Y-15.9610 
G01 X-13.4100 Y-15.9432 
G01 X-13.3623 Y-15.9235 
G00 Z1.0000 
G00 X-13.9794 Y-16.5126 
G01 Z-0.0700 F50.80 
G01 X-15.0059 Y-15.4860 F101.60 
G01 X-17.1830 Y-15.4860 
G01 X-17.1830 Y-15.6567 
G01 X-17.2195 Y-15.7449 
G01 X-17.2871 Y-15.8125 
G01 X-17.3753 Y-15.8490 
G01 X-18.7707 Y-15.8490 
G01 X-18.8589 Y-15.8125 
G01 X-18.9230 Y-15.7484 
G01 X-18.9870 Y-15.8125 
G01 X-19.0753 Y-15.8490 
G01 X-20.4707 Y-15.8490 
G01 X-20.5589 Y-15.8125 
G01 X-20.6265 Y-15.7449 
G01 X-20.6630 Y-15.6567 
G01 X-20.6630 Y-14.0613 
G01 X-20.6265 Y-13.9731 
G01 X-20.5589 Y-13.9055 
G01 X-20.5403 Y-13.8978 
G01 X-21.1722 Y-13.8978 
G01 X-21.1722 Y-21.8787 
G01 X-21.1223 Y-21.8287 
G01 X-18.8579 Y-19.5643 
G01 X-18.7689 Y-19.5130 
G01 X-18.6697 Y-19.4864 
G01 X-16.7505 Y-19.4864 
G01 X-16.7667 Y-19.4471 
G01 X-16.7667 Y-19.3516 
G01 X-16.7302 Y-19.2634 
G01 X-16.3591 Y-18.8923 
G01 X-19.2575 Y-18.3599 
G01 X-19.2717 Y-18.3812 
G01 X-19.3900 Y-18.4995 
G01 X-19.5292 Y-18.5925 
G01 X-19.6838 Y-18.6565 
G01 X-19.8479 Y-18.6892 
G01 X-20.0153 Y-18.6892 
G01 X-20.1794 Y-18.6565 
G01 X-20.3340 Y-18.5925 
G01 X-20.4732 Y-18.4995 
G01 X-20.5915 Y-18.3812 
G01 X-20.6845 Y-18.2420 
G01 X-20.7485 Y-18.0874 
G01 X-20.7812 Y-17.9233 
G01 X-20.7812 Y-17.7559 
G01 X-20.7485 Y-17.5918 
G01 X-20.6845 Y-17.4372 
G01 X-20.5915 Y-17.2980 
G01 X-20.4732 Y-17.1797 
G01 X-20.3340 Y-17.0867 
G01 X-20.1794 Y-17.0226 
G01 X-20.0153 Y-16.9900 
G01 X-19.8479 Y-16.9900 
G01 X-19.6838 Y-17.0226 
G01 X-19.5292 Y-17.0867 
G01 X-19.3900 Y-17.1797 
G01 X-19.2717 Y-17.2980 
G01 X-19.1787 Y-17.4372 
G01 X-19.1147 Y-17.5918 
G01 X-19.1144 Y-17.5932 
G01 X-15.6903 Y-18.2222 
G01 X-15.6890 Y-18.2222 
G01 X-15.6727 Y-18.2060 
G01 X-15.6205 Y-18.1843 
G01 X-15.6184 Y-18.1793 
G01 X-17.1775 Y-17.6026 
G01 X-17.2094 Y-17.6345 
G01 X-17.3486 Y-17.7275 
G01 X-17.5032 Y-17.7915 
G01 X-17.6673 Y-17.8242 
G01 X-17.8347 Y-17.8242 
G01 X-17.9988 Y-17.7915 
G01 X-18.1534 Y-17.7275 
G01 X-18.2926 Y-17.6345 
G01 X-18.4109 Y-17.5162 
G01 X-18.5039 Y-17.3770 
G01 X-18.5679 Y-17.2224 
G01 X-18.6006 Y-17.0583 
G01 X-18.6006 Y-16.8909 
G01 X-18.5679 Y-16.7268 
G01 X-18.5039 Y-16.5722 
G01 X-18.4109 Y-16.4330 
G01 X-18.2926 Y-16.3147 
G01 X-18.1534 Y-16.2217 
G01 X-17.9988 Y-16.1577 
G01 X-17.8347 Y-16.1250 
G01 X-17.6673 Y-16.1250 
G01 X-17.5032 Y-16.1577 
G01 X-17.3486 Y-16.2217 
G01 X-17.2094 Y-16.3147 
G01 X-17.0911 Y-16.4330 
G01 X-16.9981 Y-16.5722 
G01 X-16.9340 Y-16.7268 
G01 X-16.9052 Y-16.8716 
G01 X-15.2292 Y-17.4916 
G01 X-15.1971 Y-17.5002 
G01 X-15.1813 Y-17.5093 
G01 X-15.1641 Y-17.5156 
G01 X-15.1370 Y-17.5349 
G01 X-15.1081 Y-17.5515 
G01 X-15.0952 Y-17.5644 
G01 X-15.0803 Y-17.5750 
G01 X-15.0591 Y-17.6006 
G01 X-15.0508 Y-17.6089 
G01 X-15.0332 Y-17.5664 
G01 X-14.9858 Y-17.5190 
G01 X-15.3200 Y-17.1848 
G01 X-15.4544 Y-17.2115 
G01 X-15.6218 Y-17.2115 
G01 X-15.7859 Y-17.1788 
G01 X-15.9405 Y-17.1148 
G01 X-16.0797 Y-17.0218 
G01 X-16.1980 Y-16.9035 
G01 X-16.2910 Y-16.7643 
G01 X-16.3550 Y-16.6097 
G01 X-16.3877 Y-16.4456 
G01 X-16.3877 Y-16.2782 
G01 X-16.3550 Y-16.1141 
G01 X-16.2910 Y-15.9595 
G01 X-16.1980 Y-15.8203 
G01 X-16.0797 Y-15.7020 
G01 X-15.9405 Y-15.6090 
G01 X-15.7859 Y-15.5450 
G01 X-15.6218 Y-15.5123 
G01 X-15.4544 Y-15.5123 
G01 X-15.2903 Y-15.5450 
G01 X-15.1357 Y-15.6090 
G01 X-14.9965 Y-15.7020 
G01 X-14.8782 Y-15.8203 
G01 X-14.7852 Y-15.9595 
G01 X-14.7211 Y-16.1141 
G01 X-14.6885 Y-16.2782 
G01 X-14.6885 Y-16.4456 
G01 X-14.7211 Y-16.6097 
G01 X-14.7419 Y-16.6598 
G01 X-14.4342 Y-16.9674 
G01 X-13.9794 Y-16.5126 
G00 Z1.0000 
G00 X-12.7490 Y-15.2822 
G01 Z-0.0700 F50.80 
G01 X-12.7214 Y-15.2546 F101.60 
G01 X-13.8445 Y-14.1314 
G01 X-12.7490 Y-15.2822 
G00 Z1.0000 
