(.../EAGLE-7.2.0/ulp/pcb-gcode/pcb-gcode.ulp)
(Copyright 2005 - 2012 by John Johnson)
(See readme.txt for licensing terms.)
(This file generated from the board:)
(.../projects/QFP_32U4/QFP_32U4.brd)
(Current profile is .../pcb-gcode/profiles/generic.pp  )
(This file generated 2018/11/14 14:55:12)
(Settings from pcb-machine.h)
(spindle on time = 3.0000)
(spindle speed = 1000.0000)
(tool change at 0.0000 0.0000 5.0000 )
(feed rate xy = F0.00  )
(feed rate z  = F254.00 )
(Z Axis Settings)
(  High     Up        Down     Drill)
(5.0000 	1.0000 	-0.0700 	-1.7000 )
(Settings from pcb-defaults.h)
(isolate min = 0.0200)
(isolate max = 0.2000)
(isolate step = 0.1500)
(Generated top outlines, bottom outlines, bottom drill, )
(Unit of measure: mm)
( Tool|       Size       |  Min Sub |  Max Sub |   Count )
( T01  0.610mm 0.0240in 0.0000in 0.0000in )
( T02  1.016mm 0.0400in 0.0000in 0.0000in )
(Metric Mode)
G21
(Absolute Coordinates)
G90
S1000
G00 Z5.0000 
G00 X0.0000 Y0.0000 
M03
G04 P3.000000
M05
G00 Z5.0000 
G00 X0.0000 Y0.0000 
M06 T02  ; 1.0160 
G00 Z1.0000 
M03
G04 P3.000000
G00 Z0.999998
G00 X1.9050 Y-42.5450 
G01 Z-1.7000 F254.00 
G01 Z0.999998
(R1.0000  P1.000000)
G00 X4.4450 Y-42.5450 
G01 Z-1.700000
G01 Z0.999998
G00 X6.9850 Y-42.5450 
G01 Z-1.700000
G01 Z0.999998
G00 X9.5250 Y-42.5450 
G01 Z-1.700000
G01 Z0.999998
G00 X12.0650 Y-42.5450 
G01 Z-1.700000
G01 Z0.999998
G00 X14.6050 Y-42.5450 
G01 Z-1.700000
G01 Z0.999998
G00 X17.1450 Y-42.5450 
G01 Z-1.700000
G01 Z0.999998
G00 X19.6850 Y-42.5450 
G01 Z-1.700000
G01 Z0.999998
G00 X19.0500 Y-36.8300 
G01 Z-1.700000
G01 Z0.999998
G00 X19.0500 Y-34.2900 
G01 Z-1.700000
G01 Z0.999998
G00 X19.0500 Y-31.7500 
G01 Z-1.700000
G01 Z0.999998
G00 X16.5100 Y-31.7500 
G01 Z-1.700000
G01 Z0.999998
G00 X16.5100 Y-34.2900 
G01 Z-1.700000
G01 Z0.999998
G00 X16.5100 Y-36.8300 
G01 Z-1.700000
G01 Z0.999998
T01 
G00 Z5.0000 
M05
M02
