(.../EAGLE-7.2.0/ulp/pcb-gcode/pcb-gcode.ulp)
(Copyright 2005 - 2012 by John Johnson)
(See readme.txt for licensing terms.)
(This file generated from the board:)
(.../projects/QFP_32U4/QFP_32U4.brd)
(Current profile is .../pcb-gcode/profiles/generic.pp  )
(This file generated 2018/11/14 14:55:09)
(Settings from pcb-machine.h)
(spindle on time = 3.0000)
(  Tool Size)
(0.1400 )
(spindle speed = 1000.0000)
(tool change at 0.0000 0.0000 5.0000 )
(feed rate xy = F101.60 )
(feed rate z  = F50.80 )
(Z Axis Settings)
(  High     Up        Down     Drill)
(5.0000 	1.0000 	-0.0700 	-1.7000 )
(Settings from pcb-defaults.h)
(isolate min = 0.0200)
(isolate max = 0.2000)
(isolate step = 0.1500)
(Generated top outlines, bottom outlines, bottom drill, )
(Unit of measure: mm)
(Metric Mode)
G21
(Absolute Coordinates)
G90
S1000
G00 Z5.0000 
G00 X0.0000 Y0.0000 
M03
G04 P3.000000
G00 Z1.0000 
G00 X0.1473 Y-19.3768 
G01 Z-0.0700 F50.80 
G01 X0.2022 Y-19.3225 F101.60 
G01 X4.9678 Y-16.6029 
G01 X5.0006 Y-16.5840 
G01 X5.0020 Y-16.5834 
G01 X5.0386 Y-16.5738 
G01 X5.0752 Y-16.5640 
G01 X5.0767 Y-16.5638 
G01 X5.1147 Y-16.5640 
G01 X12.5556 Y-16.5640 
G01 X14.8614 Y-16.1779 
G01 X14.8654 Y-16.1578 
G01 X14.9181 Y-16.0305 
G01 X14.9947 Y-15.9159 
G01 X15.0921 Y-15.8185 
G01 X15.2067 Y-15.7419 
G01 X15.3340 Y-15.6892 
G01 X15.4692 Y-15.6623 
G01 X15.6070 Y-15.6623 
G01 X15.7422 Y-15.6892 
G01 X15.8695 Y-15.7419 
G01 X15.9841 Y-15.8185 
G01 X16.0815 Y-15.9159 
G01 X16.1581 Y-16.0305 
G01 X16.2108 Y-16.1578 
G01 X16.2377 Y-16.2930 
G01 X16.2377 Y-16.4308 
G01 X16.2108 Y-16.5660 
G01 X16.1581 Y-16.6933 
G01 X16.0815 Y-16.8079 
G01 X15.9841 Y-16.9053 
G01 X15.8695 Y-16.9819 
G01 X15.7422 Y-17.0346 
G01 X15.6070 Y-17.0615 
G01 X15.4692 Y-17.0615 
G01 X15.3340 Y-17.0346 
G01 X15.2067 Y-16.9819 
G01 X15.0921 Y-16.9053 
G01 X14.9947 Y-16.8079 
G01 X14.9600 Y-16.7560 
G01 X12.6423 Y-17.1441 
G01 X12.6186 Y-17.1504 
G01 X12.6044 Y-17.1504 
G01 X12.5903 Y-17.1527 
G01 X12.5659 Y-17.1504 
G01 X5.1916 Y-17.1504 
G01 X0.6234 Y-19.7572 
G01 X0.6234 Y-25.0812 
G01 X1.5122 Y-26.3500 
G01 X1.5677 Y-26.3390 
G01 X1.7055 Y-26.3390 
G01 X1.8407 Y-26.3659 
G01 X1.9680 Y-26.4186 
G01 X2.0826 Y-26.4952 
G01 X2.1800 Y-26.5926 
G01 X2.2566 Y-26.7072 
G01 X2.3093 Y-26.8345 
G01 X2.3362 Y-26.9697 
G01 X2.3362 Y-27.1075 
G01 X2.3093 Y-27.2427 
G01 X2.2566 Y-27.3700 
G01 X2.1800 Y-27.4846 
G01 X2.0826 Y-27.5820 
G01 X1.9680 Y-27.6586 
G01 X1.8407 Y-27.7113 
G01 X1.7055 Y-27.7382 
G01 X1.5677 Y-27.7382 
G01 X1.4325 Y-27.7113 
G01 X1.3052 Y-27.6586 
G01 X1.1906 Y-27.5820 
G01 X1.0932 Y-27.4846 
G01 X1.0166 Y-27.3700 
G01 X0.9639 Y-27.2427 
G01 X0.9370 Y-27.1075 
G01 X0.9370 Y-26.9697 
G01 X0.9639 Y-26.8345 
G01 X1.0166 Y-26.7072 
G01 X1.0312 Y-26.6854 
G01 X0.1187 Y-25.3828 
G01 X0.0923 Y-25.3103 
G01 X0.0856 Y-25.2334 
G01 X0.0989 Y-25.1573 
G01 X0.1316 Y-25.0874 
G01 X0.1386 Y-25.0789 
G01 X0.1386 Y-19.7248 
G01 X0.1072 Y-19.6698 
G01 X0.0876 Y-19.5951 
G01 X0.0880 Y-19.5179 
G01 X0.1084 Y-19.4435 
G01 X0.1473 Y-19.3768 
G00 Z1.0000 
G00 X1.1722 Y-24.7212 
G01 Z-0.0700 F50.80 
G01 X1.2696 Y-24.6238 F101.60 
G01 X1.3842 Y-24.5472 
G01 X1.5115 Y-24.4945 
G01 X1.6467 Y-24.4676 
G01 X1.7845 Y-24.4676 
G01 X1.9197 Y-24.4945 
G01 X2.0470 Y-24.5472 
G01 X2.1616 Y-24.6238 
G01 X2.2590 Y-24.7212 
G01 X2.3356 Y-24.8358 
G01 X2.3883 Y-24.9631 
G01 X2.4152 Y-25.0983 
G01 X2.4152 Y-25.2361 
G01 X2.3883 Y-25.3713 
G01 X2.3672 Y-25.4222 
G01 X4.0020 Y-27.1235 
G01 X4.0224 Y-27.1417 
G01 X4.0286 Y-27.1512 
G01 X4.0366 Y-27.1595 
G01 X4.0497 Y-27.1834 
G01 X4.0647 Y-27.2062 
G01 X4.0683 Y-27.2171 
G01 X4.0738 Y-27.2271 
G01 X4.0804 Y-27.2536 
G01 X4.8084 Y-29.4592 
G01 X4.8132 Y-29.4675 
G01 X4.8205 Y-29.4957 
G01 X4.8296 Y-29.5233 
G01 X4.8302 Y-29.5329 
G01 X4.8326 Y-29.5422 
G01 X4.8324 Y-29.5714 
G01 X4.8340 Y-29.6004 
G01 X4.8321 Y-29.6098 
G01 X4.7569 Y-39.4547 
G01 X6.2600 Y-41.3674 
G01 X6.2600 Y-41.2571 
G01 X6.2737 Y-41.2240 
G01 X6.2990 Y-41.1987 
G01 X6.3321 Y-41.1850 
G01 X7.6379 Y-41.1850 
G01 X7.6710 Y-41.1987 
G01 X7.6963 Y-41.2240 
G01 X7.7100 Y-41.2571 
G01 X7.7100 Y-41.8855 
G01 X7.9640 Y-42.1395 
G01 X7.9640 Y-42.9505 
G01 X7.7053 Y-43.2092 
G01 X7.6963 Y-43.2310 
G01 X7.6710 Y-43.2563 
G01 X7.6492 Y-43.2653 
G01 X7.3905 Y-43.5240 
G01 X6.5795 Y-43.5240 
G01 X6.3208 Y-43.2653 
G01 X6.2990 Y-43.2563 
G01 X6.2737 Y-43.2310 
G01 X6.2647 Y-43.2092 
G01 X6.0060 Y-42.9505 
G01 X6.0060 Y-42.1395 
G01 X6.0704 Y-42.0751 
G01 X4.2425 Y-39.7492 
G01 X4.2269 Y-39.7333 
G01 X4.2187 Y-39.7189 
G01 X4.2085 Y-39.7059 
G01 X4.1998 Y-39.6855 
G01 X4.1888 Y-39.6662 
G01 X4.1847 Y-39.6502 
G01 X4.1781 Y-39.6349 
G01 X4.1750 Y-39.6130 
G01 X4.1694 Y-39.5915 
G01 X4.1695 Y-39.5749 
G01 X4.1672 Y-39.5585 
G01 X4.1698 Y-39.5365 
G01 X4.2455 Y-29.6246 
G01 X3.5408 Y-27.4899 
G01 X1.9452 Y-25.8293 
G01 X1.9197 Y-25.8399 
G01 X1.7845 Y-25.8668 
G01 X1.6467 Y-25.8668 
G01 X1.5115 Y-25.8399 
G01 X1.3842 Y-25.7872 
G01 X1.2696 Y-25.7106 
G01 X1.1722 Y-25.6132 
G01 X1.0956 Y-25.4986 
G01 X1.0429 Y-25.3713 
G01 X1.0160 Y-25.2361 
G01 X1.0160 Y-25.0983 
G01 X1.0429 Y-24.9631 
G01 X1.0956 Y-24.8358 
G01 X1.1722 Y-24.7212 
G00 Z1.0000 
G00 X2.3536 Y-28.1070 
G01 Z-0.0700 F50.80 
G01 X2.4510 Y-28.0096 F101.60 
G01 X2.5656 Y-27.9330 
G01 X2.6929 Y-27.8803 
G01 X2.8281 Y-27.8534 
G01 X2.9659 Y-27.8534 
G01 X3.1011 Y-27.8803 
G01 X3.2284 Y-27.9330 
G01 X3.3430 Y-28.0096 
G01 X3.4404 Y-28.1070 
G01 X3.5170 Y-28.2216 
G01 X3.5697 Y-28.3489 
G01 X3.5966 Y-28.4841 
G01 X3.5966 Y-28.6219 
G01 X3.5697 Y-28.7571 
G01 X3.5170 Y-28.8844 
G01 X3.4404 Y-28.9990 
G01 X3.3430 Y-29.0964 
G01 X3.2284 Y-29.1730 
G01 X3.1902 Y-29.1888 
G01 X3.1902 Y-39.7364 
G01 X3.9270 Y-41.1850 
G01 X5.0979 Y-41.1850 
G01 X5.1310 Y-41.1987 
G01 X5.1563 Y-41.2240 
G01 X5.1700 Y-41.2571 
G01 X5.1700 Y-41.8855 
G01 X5.4240 Y-42.1395 
G01 X5.4240 Y-42.9505 
G01 X5.1653 Y-43.2092 
G01 X5.1563 Y-43.2310 
G01 X5.1310 Y-43.2563 
G01 X5.1092 Y-43.2653 
G01 X4.8505 Y-43.5240 
G01 X4.0395 Y-43.5240 
G01 X3.7808 Y-43.2653 
G01 X3.7590 Y-43.2563 
G01 X3.7337 Y-43.2310 
G01 X3.7247 Y-43.2092 
G01 X3.4660 Y-42.9505 
G01 X3.4660 Y-42.1395 
G01 X3.6573 Y-41.9482 
G01 X2.6392 Y-39.9465 
G01 X2.6238 Y-39.9199 
G01 X2.6217 Y-39.9123 
G01 X2.6182 Y-39.9052 
G01 X2.6118 Y-39.8751 
G01 X2.6038 Y-39.8453 
G01 X2.6038 Y-39.8374 
G01 X2.6022 Y-39.8297 
G01 X2.6038 Y-39.7989 
G01 X2.6038 Y-29.1888 
G01 X2.5656 Y-29.1730 
G01 X2.4510 Y-29.0964 
G01 X2.3536 Y-28.9990 
G01 X2.2770 Y-28.8844 
G01 X2.2243 Y-28.7571 
G01 X2.1974 Y-28.6219 
G01 X2.1974 Y-28.4841 
G01 X2.2243 Y-28.3489 
G01 X2.2770 Y-28.2216 
G01 X2.3536 Y-28.1070 
G00 Z1.0000 
G00 X4.6935 Y-28.0952 
G01 Z-0.0700 F50.80 
G01 X4.7204 Y-27.9600 F101.60 
G01 X4.7731 Y-27.8327 
G01 X4.8497 Y-27.7181 
G01 X4.9471 Y-27.6207 
G01 X5.0617 Y-27.5441 
G01 X5.1890 Y-27.4914 
G01 X5.3242 Y-27.4645 
G01 X5.4620 Y-27.4645 
G01 X5.5972 Y-27.4914 
G01 X5.7245 Y-27.5441 
G01 X5.8391 Y-27.6207 
G01 X5.9365 Y-27.7181 
G01 X6.0131 Y-27.8327 
G01 X6.0658 Y-27.9600 
G01 X6.0927 Y-28.0952 
G01 X6.0927 Y-28.2330 
G01 X6.0658 Y-28.3682 
G01 X6.0131 Y-28.4955 
G01 X5.9365 Y-28.6101 
G01 X5.8391 Y-28.7075 
G01 X5.7245 Y-28.7841 
G01 X5.7104 Y-28.7899 
G01 X6.0813 Y-38.5222 
G01 X6.0641 Y-38.5975 
G01 X6.0479 Y-38.6282 
G01 X6.0576 Y-38.6972 
G01 X6.1155 Y-38.7087 
G01 X6.2428 Y-38.7614 
G01 X6.3574 Y-38.8380 
G01 X6.4548 Y-38.9354 
G01 X6.4890 Y-38.9866 
G01 X18.5946 Y-38.9866 
G01 X18.5658 Y-38.5075 
G01 X18.3971 Y-38.5075 
G01 X18.3640 Y-38.4938 
G01 X18.3387 Y-38.4685 
G01 X18.3250 Y-38.4354 
G01 X18.3250 Y-37.3099 
G01 X18.1980 Y-37.1829 
G01 X18.1980 Y-36.4771 
G01 X18.3250 Y-36.3501 
G01 X18.3250 Y-36.1771 
G01 X18.3387 Y-36.1440 
G01 X18.3640 Y-36.1187 
G01 X18.3971 Y-36.1050 
G01 X18.5701 Y-36.1050 
G01 X18.6971 Y-35.9780 
G01 X19.4029 Y-35.9780 
G01 X19.5299 Y-36.1050 
G01 X19.7029 Y-36.1050 
G01 X19.7360 Y-36.1187 
G01 X19.7613 Y-36.1440 
G01 X19.7750 Y-36.1771 
G01 X19.7750 Y-36.3501 
G01 X19.9020 Y-36.4771 
G01 X19.9020 Y-37.1829 
G01 X19.7750 Y-37.3099 
G01 X19.7750 Y-38.4354 
G01 X19.7613 Y-38.4685 
G01 X19.7360 Y-38.4938 
G01 X19.7029 Y-38.5075 
G01 X19.3569 Y-38.5075 
G01 X19.4055 Y-39.3178 
G01 X19.4086 Y-39.3294 
G01 X19.4086 Y-39.3696 
G01 X19.4110 Y-39.4096 
G01 X19.4086 Y-39.4214 
G01 X19.4086 Y-39.9571 
G01 X19.7068 Y-41.1850 
G01 X20.3379 Y-41.1850 
G01 X20.3710 Y-41.1987 
G01 X20.3963 Y-41.2240 
G01 X20.4100 Y-41.2571 
G01 X20.4100 Y-41.8855 
G01 X20.6640 Y-42.1395 
G01 X20.6640 Y-42.9505 
G01 X20.4053 Y-43.2092 
G01 X20.3963 Y-43.2310 
G01 X20.3710 Y-43.2563 
G01 X20.3492 Y-43.2653 
G01 X20.0905 Y-43.5240 
G01 X19.2795 Y-43.5240 
G01 X19.0208 Y-43.2653 
G01 X18.9990 Y-43.2563 
G01 X18.9737 Y-43.2310 
G01 X18.9647 Y-43.2092 
G01 X18.7060 Y-42.9505 
G01 X18.7060 Y-42.1395 
G01 X18.9600 Y-41.8855 
G01 X18.9600 Y-41.4558 
G01 X18.6312 Y-40.1020 
G01 X18.6190 Y-40.0564 
G01 X18.6190 Y-40.0517 
G01 X18.6179 Y-40.0471 
G01 X18.6190 Y-39.9997 
G01 X18.6190 Y-39.7762 
G01 X6.4890 Y-39.7762 
G01 X6.4548 Y-39.8274 
G01 X6.3574 Y-39.9248 
G01 X6.2428 Y-40.0014 
G01 X6.1155 Y-40.0541 
G01 X5.9803 Y-40.0810 
G01 X5.8425 Y-40.0810 
G01 X5.7073 Y-40.0541 
G01 X5.5800 Y-40.0014 
G01 X5.4654 Y-39.9248 
G01 X5.3680 Y-39.8274 
G01 X5.2914 Y-39.7128 
G01 X5.2387 Y-39.5855 
G01 X5.2118 Y-39.4503 
G01 X5.2118 Y-39.3125 
G01 X5.2387 Y-39.1773 
G01 X5.2914 Y-39.0500 
G01 X5.3680 Y-38.9354 
G01 X5.4654 Y-38.8380 
G01 X5.5800 Y-38.7614 
G01 X5.5818 Y-38.7607 
G01 X5.5727 Y-38.6962 
G01 X5.5592 Y-38.6836 
G01 X5.5181 Y-38.6183 
G01 X5.4953 Y-38.5445 
G01 X5.1243 Y-28.8100 
G01 X5.0617 Y-28.7841 
G01 X4.9471 Y-28.7075 
G01 X4.8497 Y-28.6101 
G01 X4.7731 Y-28.4955 
G01 X4.7204 Y-28.3682 
G01 X4.6935 Y-28.2330 
G01 X4.6935 Y-28.0952 
G00 Z1.0000 
G00 X11.9058 Y-33.0748 
G01 Z-0.0700 F50.80 
G01 X11.9058 Y-20.5384 F101.60 
G01 X11.9043 Y-20.5317 
G01 X11.9058 Y-20.4999 
G01 X11.9058 Y-20.4680 
G01 X11.9076 Y-20.4614 
G01 X11.9079 Y-20.4546 
G01 X11.9175 Y-20.4242 
G01 X11.9258 Y-20.3934 
G01 X11.9292 Y-20.3875 
G01 X11.9313 Y-20.3810 
G01 X11.9485 Y-20.3541 
G01 X11.9644 Y-20.3266 
G01 X11.9692 Y-20.3218 
G01 X11.9729 Y-20.3160 
G01 X11.9964 Y-20.2945 
G01 X12.0190 Y-20.2720 
G01 X12.0249 Y-20.2686 
G01 X14.8868 Y-17.6576 
G01 X14.9019 Y-17.6405 
G01 X14.9152 Y-17.6317 
G01 X14.9269 Y-17.6210 
G01 X14.9472 Y-17.6105 
G01 X14.9663 Y-17.5978 
G01 X14.9814 Y-17.5928 
G01 X14.9955 Y-17.5855 
G01 X15.0178 Y-17.5806 
G01 X17.0527 Y-16.8992 
G01 X17.0783 Y-16.7705 
G01 X17.1310 Y-16.6432 
G01 X17.2076 Y-16.5286 
G01 X17.3050 Y-16.4312 
G01 X17.4196 Y-16.3546 
G01 X17.5469 Y-16.3019 
G01 X17.6821 Y-16.2750 
G01 X17.8199 Y-16.2750 
G01 X17.9551 Y-16.3019 
G01 X18.0824 Y-16.3546 
G01 X18.1970 Y-16.4312 
G01 X18.2944 Y-16.5286 
G01 X18.3710 Y-16.6432 
G01 X18.4237 Y-16.7705 
G01 X18.4506 Y-16.9057 
G01 X18.4506 Y-17.0435 
G01 X18.4237 Y-17.1787 
G01 X18.3710 Y-17.3060 
G01 X18.2944 Y-17.4206 
G01 X18.1970 Y-17.5180 
G01 X18.0824 Y-17.5946 
G01 X17.9551 Y-17.6473 
G01 X17.8199 Y-17.6742 
G01 X17.6821 Y-17.6742 
G01 X17.5469 Y-17.6473 
G01 X17.4196 Y-17.5946 
G01 X17.3050 Y-17.5180 
G01 X17.2414 Y-17.4544 
G01 X15.2478 Y-18.1220 
G01 X12.4922 Y-20.6360 
G01 X12.4922 Y-32.9327 
G01 X13.9293 Y-33.9244 
G01 X14.8325 Y-33.9244 
G01 X14.8325 Y-33.6371 
G01 X14.8462 Y-33.6040 
G01 X14.8715 Y-33.5787 
G01 X14.9046 Y-33.5650 
G01 X16.0301 Y-33.5650 
G01 X16.1571 Y-33.4380 
G01 X16.8629 Y-33.4380 
G01 X17.3620 Y-33.9371 
G01 X17.3620 Y-34.6429 
G01 X16.8629 Y-35.1420 
G01 X16.1571 Y-35.1420 
G01 X16.0301 Y-35.0150 
G01 X14.9046 Y-35.0150 
G01 X14.8715 Y-35.0013 
G01 X14.8462 Y-34.9760 
G01 X14.8325 Y-34.9429 
G01 X14.8325 Y-34.5108 
G01 X13.8647 Y-34.5108 
G01 X13.8529 Y-34.5129 
G01 X13.8262 Y-34.5108 
G01 X13.7994 Y-34.5108 
G01 X13.7879 Y-34.5077 
G01 X13.7760 Y-34.5067 
G01 X13.7507 Y-34.4978 
G01 X13.7248 Y-34.4908 
G01 X13.7145 Y-34.4848 
G01 X13.7032 Y-34.4808 
G01 X13.6812 Y-34.4656 
G01 X13.6580 Y-34.4522 
G01 X13.6495 Y-34.4438 
G01 X12.0422 Y-33.3346 
G01 X12.0190 Y-33.3212 
G01 X12.0105 Y-33.3128 
G01 X12.0007 Y-33.3060 
G01 X11.9833 Y-33.2856 
G01 X11.9644 Y-33.2666 
G01 X11.9584 Y-33.2563 
G01 X11.9507 Y-33.2472 
G01 X11.9392 Y-33.2230 
G01 X11.9258 Y-33.1998 
G01 X11.9227 Y-33.1882 
G01 X11.9176 Y-33.1775 
G01 X11.9127 Y-33.1511 
G01 X11.9058 Y-33.1252 
G01 X11.9058 Y-33.1133 
G01 X11.9036 Y-33.1015 
G01 X11.9058 Y-33.0748 
G00 Z1.0000 
G00 X15.8240 Y-32.4613 
G01 Z-0.0700 F50.80 
G01 X15.7987 Y-32.4360 F101.60 
G01 X15.7850 Y-32.4029 
G01 X15.7850 Y-32.2299 
G01 X15.6580 Y-32.1029 
G01 X15.6580 Y-31.3971 
G01 X15.7850 Y-31.2701 
G01 X15.7850 Y-30.1446 
G01 X15.7987 Y-30.1115 
G01 X15.8240 Y-30.0862 
G01 X15.8571 Y-30.0725 
G01 X17.1629 Y-30.0725 
G01 X17.1960 Y-30.0862 
G01 X17.2213 Y-30.1115 
G01 X17.2350 Y-30.1446 
G01 X17.2350 Y-31.2701 
G01 X17.3620 Y-31.3971 
G01 X17.3620 Y-32.1029 
G01 X17.2350 Y-32.2299 
G01 X17.2350 Y-32.4029 
G01 X17.2213 Y-32.4360 
G01 X17.1960 Y-32.4613 
G01 X17.1629 Y-32.4750 
G01 X16.9899 Y-32.4750 
G01 X16.8629 Y-32.6020 
G01 X16.1571 Y-32.6020 
G01 X16.0301 Y-32.4750 
G01 X15.8571 Y-32.4750 
G01 X15.8240 Y-32.4613 
G00 Z1.0000 
G00 X18.3640 Y-32.4613 
G01 Z-0.0700 F50.80 
G01 X18.3387 Y-32.4360 F101.60 
G01 X18.3250 Y-32.4029 
G01 X18.3250 Y-32.1985 
G01 X18.2950 Y-32.1536 
G01 X18.2307 Y-31.9985 
G01 X18.1980 Y-31.8339 
G01 X18.1980 Y-31.6661 
G01 X18.2307 Y-31.5015 
G01 X18.2950 Y-31.3464 
G01 X18.3250 Y-31.3015 
G01 X18.3250 Y-30.1446 
G01 X18.3387 Y-30.1115 
G01 X18.3640 Y-30.0862 
G01 X18.3971 Y-30.0725 
G01 X19.7029 Y-30.0725 
G01 X19.7360 Y-30.0862 
G01 X19.7613 Y-30.1115 
G01 X19.7750 Y-30.1446 
G01 X19.7750 Y-31.3015 
G01 X19.8050 Y-31.3464 
G01 X19.8693 Y-31.5015 
G01 X19.9020 Y-31.6661 
G01 X19.9020 Y-31.8339 
G01 X19.8693 Y-31.9985 
G01 X19.8050 Y-32.1536 
G01 X19.7750 Y-32.1985 
G01 X19.7750 Y-32.4029 
G01 X19.7613 Y-32.4360 
G01 X19.7360 Y-32.4613 
G01 X19.7029 Y-32.4750 
G01 X19.4985 Y-32.4750 
G01 X19.4536 Y-32.5050 
G01 X19.2985 Y-32.5693 
G01 X19.1339 Y-32.6020 
G01 X18.9661 Y-32.6020 
G01 X18.8015 Y-32.5693 
G01 X18.6464 Y-32.5050 
G01 X18.6015 Y-32.4750 
G01 X18.3971 Y-32.4750 
G01 X18.3640 Y-32.4613 
G00 Z1.0000 
G00 X18.6971 Y-33.4380 
G01 Z-0.0700 F50.80 
G01 X19.4029 Y-33.4380 F101.60 
G01 X19.4447 Y-33.4798 
G01 X20.0881 Y-32.8365 
G01 X20.1118 Y-31.1064 
G01 X20.0999 Y-29.7779 
G01 X16.9166 Y-24.9513 
G01 X16.9104 Y-24.9450 
G01 X16.8954 Y-24.9191 
G01 X16.8790 Y-24.8942 
G01 X16.8762 Y-24.8858 
G01 X16.8718 Y-24.8782 
G01 X16.8640 Y-24.8493 
G01 X16.8546 Y-24.8209 
G01 X16.8541 Y-24.8121 
G01 X16.8518 Y-24.8036 
G01 X16.8518 Y-24.7737 
G01 X16.8500 Y-24.7439 
G01 X16.8518 Y-24.7352 
G01 X16.8518 Y-20.1544 
G01 X16.8718 Y-20.0798 
G01 X16.9104 Y-20.0130 
G01 X16.9501 Y-19.9733 
G01 X16.9963 Y-19.7884 
G01 X16.9912 Y-19.7779 
G01 X16.9768 Y-19.7020 
G01 X16.9824 Y-19.6250 
G01 X17.0078 Y-19.5521 
G01 X17.0512 Y-19.4883 
G01 X17.1096 Y-19.4378 
G01 X18.6759 Y-18.6806 
G01 X19.2747 Y-18.0818 
G01 X19.2589 Y-18.0437 
G01 X19.2320 Y-17.9085 
G01 X19.2320 Y-17.7707 
G01 X19.2589 Y-17.6355 
G01 X19.3116 Y-17.5082 
G01 X19.3882 Y-17.3936 
G01 X19.4856 Y-17.2962 
G01 X19.6002 Y-17.2196 
G01 X19.7275 Y-17.1669 
G01 X19.8627 Y-17.1400 
G01 X20.0005 Y-17.1400 
G01 X20.1357 Y-17.1669 
G01 X20.2630 Y-17.2196 
G01 X20.3776 Y-17.2962 
G01 X20.4750 Y-17.3936 
G01 X20.5516 Y-17.5082 
G01 X20.6043 Y-17.6355 
G01 X20.6312 Y-17.7707 
G01 X20.6312 Y-17.9085 
G01 X20.6043 Y-18.0437 
G01 X20.5516 Y-18.1710 
G01 X20.4750 Y-18.2856 
G01 X20.3776 Y-18.3830 
G01 X20.2630 Y-18.4596 
G01 X20.1357 Y-18.5123 
G01 X20.0005 Y-18.5392 
G01 X19.8627 Y-18.5392 
G01 X19.7275 Y-18.5123 
G01 X19.6893 Y-18.4965 
G01 X19.0751 Y-19.1107 
G01 X19.0690 Y-19.1197 
G01 X19.0479 Y-19.1379 
G01 X19.0282 Y-19.1576 
G01 X19.0188 Y-19.1631 
G01 X19.0106 Y-19.1702 
G01 X18.9855 Y-19.1823 
G01 X18.9614 Y-19.1962 
G01 X18.9509 Y-19.1990 
G01 X17.4636 Y-19.9180 
G01 X17.4208 Y-20.0894 
G01 X17.4382 Y-20.1544 
G01 X17.4382 Y-24.6770 
G01 X20.6199 Y-29.5013 
G01 X20.6253 Y-29.5066 
G01 X20.6411 Y-29.5335 
G01 X20.6583 Y-29.5595 
G01 X20.6607 Y-29.5666 
G01 X20.6645 Y-29.5731 
G01 X20.6728 Y-29.6032 
G01 X20.6827 Y-29.6327 
G01 X20.6831 Y-29.6402 
G01 X20.6851 Y-29.6475 
G01 X20.6854 Y-29.6787 
G01 X20.6873 Y-29.7098 
G01 X20.6858 Y-29.7172 
G01 X20.6979 Y-31.0692 
G01 X20.6987 Y-31.0725 
G01 X20.6982 Y-31.1078 
G01 X20.6985 Y-31.1431 
G01 X20.6977 Y-31.1463 
G01 X20.6728 Y-32.9616 
G01 X20.6728 Y-32.9982 
G01 X20.6723 Y-33.0002 
G01 X20.6722 Y-33.0022 
G01 X20.6623 Y-33.0374 
G01 X20.6528 Y-33.0728 
G01 X20.6518 Y-33.0745 
G01 X20.6512 Y-33.0765 
G01 X20.6325 Y-33.1079 
G01 X20.6142 Y-33.1396 
G01 X20.6128 Y-33.1411 
G01 X20.6117 Y-33.1428 
G01 X20.5855 Y-33.1683 
G01 X20.1888 Y-33.5650 
G01 X20.6554 Y-33.5650 
G01 X20.6885 Y-33.5787 
G01 X20.7138 Y-33.6040 
G01 X20.7275 Y-33.6371 
G01 X20.7275 Y-34.9429 
G01 X20.7138 Y-34.9760 
G01 X20.6885 Y-35.0013 
G01 X20.6554 Y-35.0150 
G01 X19.5299 Y-35.0150 
G01 X19.4029 Y-35.1420 
G01 X18.6971 Y-35.1420 
G01 X18.1980 Y-34.6429 
G01 X18.1980 Y-33.9371 
G01 X18.6971 Y-33.4380 
G00 Z1.0000 
G00 X21.0698 Y-31.6400 
G01 Z-0.0700 F50.80 
G01 X21.0898 Y-31.5654 F101.60 
G01 X21.1211 Y-31.5111 
G01 X21.0467 Y-24.7389 
G01 X18.9592 Y-23.1404 
G01 X18.8345 Y-23.1921 
G01 X18.6993 Y-23.2190 
G01 X18.5615 Y-23.2190 
G01 X18.4263 Y-23.1921 
G01 X18.2990 Y-23.1394 
G01 X18.1844 Y-23.0628 
G01 X18.0870 Y-22.9654 
G01 X18.0104 Y-22.8508 
G01 X17.9577 Y-22.7235 
G01 X17.9308 Y-22.5883 
G01 X17.9308 Y-22.4505 
G01 X17.9577 Y-22.3153 
G01 X18.0104 Y-22.1880 
G01 X18.0870 Y-22.0734 
G01 X18.1844 Y-21.9760 
G01 X18.2990 Y-21.8994 
G01 X18.4263 Y-21.8467 
G01 X18.5615 Y-21.8198 
G01 X18.6993 Y-21.8198 
G01 X18.8345 Y-21.8467 
G01 X18.9618 Y-21.8994 
G01 X19.0764 Y-21.9760 
G01 X19.1738 Y-22.0734 
G01 X19.2504 Y-22.1880 
G01 X19.3031 Y-22.3153 
G01 X19.3300 Y-22.4505 
G01 X19.3300 Y-22.5883 
G01 X19.3132 Y-22.6729 
G01 X21.4936 Y-24.3425 
G01 X21.5407 Y-24.4037 
G01 X21.5703 Y-24.4750 
G01 X21.5804 Y-24.5515 
G01 X21.5704 Y-24.6280 
G01 X21.5410 Y-24.6994 
G01 X21.5265 Y-24.7182 
G01 X21.6011 Y-31.5046 
G01 X21.6362 Y-31.5654 
G01 X21.6562 Y-31.6400 
G01 X21.6562 Y-43.2466 
G01 X21.6575 Y-43.2795 
G01 X21.6562 Y-43.2851 
G01 X21.6562 Y-43.2908 
G01 X21.6477 Y-43.3227 
G01 X21.6404 Y-43.3548 
G01 X21.6377 Y-43.3598 
G01 X21.6362 Y-43.3654 
G01 X21.6197 Y-43.3939 
G01 X21.6044 Y-43.4231 
G01 X21.6005 Y-43.4273 
G01 X21.5976 Y-43.4322 
G01 X21.5743 Y-43.4555 
G01 X21.5519 Y-43.4797 
G01 X21.5471 Y-43.4828 
G01 X21.5430 Y-43.4868 
G01 X21.5145 Y-43.5033 
G01 X20.3121 Y-44.2606 
G01 X20.3080 Y-44.2646 
G01 X20.2795 Y-44.2811 
G01 X20.2516 Y-44.2987 
G01 X20.2461 Y-44.3004 
G01 X20.2412 Y-44.3032 
G01 X20.2094 Y-44.3117 
G01 X20.1778 Y-44.3215 
G01 X20.1721 Y-44.3217 
G01 X20.1666 Y-44.3232 
G01 X20.1336 Y-44.3232 
G01 X20.1007 Y-44.3245 
G01 X20.0951 Y-44.3232 
G01 X10.7802 Y-44.3232 
G01 X10.7056 Y-44.3032 
G01 X10.6388 Y-44.2646 
G01 X9.8982 Y-43.5240 
G01 X9.1195 Y-43.5240 
G01 X8.8608 Y-43.2653 
G01 X8.8390 Y-43.2563 
G01 X8.8137 Y-43.2310 
G01 X8.8047 Y-43.2092 
G01 X8.5460 Y-42.9505 
G01 X8.5460 Y-42.1395 
G01 X8.8000 Y-41.8855 
G01 X8.8000 Y-41.2571 
G01 X8.8137 Y-41.2240 
G01 X8.8390 Y-41.1987 
G01 X8.8721 Y-41.1850 
G01 X10.1779 Y-41.1850 
G01 X10.2110 Y-41.1987 
G01 X10.2363 Y-41.2240 
G01 X10.2500 Y-41.2571 
G01 X10.2500 Y-41.8855 
G01 X10.5040 Y-42.1395 
G01 X10.5040 Y-42.9505 
G01 X10.3290 Y-43.1255 
G01 X10.9402 Y-43.7368 
G01 X20.0434 Y-43.7368 
G01 X21.0698 Y-43.0904 
G01 X21.0698 Y-31.6400 
G00 Z1.0000 
G00 X17.1960 Y-36.1187 
G01 Z-0.0700 F50.80 
G01 X17.2213 Y-36.1440 F101.60 
G01 X17.2350 Y-36.1771 
G01 X17.2350 Y-36.3501 
G01 X17.3620 Y-36.4771 
G01 X17.3620 Y-37.1829 
G01 X17.2350 Y-37.3099 
G01 X17.2350 Y-38.4354 
G01 X17.2213 Y-38.4685 
G01 X17.1960 Y-38.4938 
G01 X17.1629 Y-38.5075 
G01 X15.8571 Y-38.5075 
G01 X15.8240 Y-38.4938 
G01 X15.7987 Y-38.4685 
G01 X15.7850 Y-38.4354 
G01 X15.7850 Y-37.3099 
G01 X15.6580 Y-37.1829 
G01 X15.6580 Y-36.4771 
G01 X15.7850 Y-36.3501 
G01 X15.7850 Y-36.1771 
G01 X15.7987 Y-36.1440 
G01 X15.8240 Y-36.1187 
G01 X15.8571 Y-36.1050 
G01 X16.0301 Y-36.1050 
G01 X16.1571 Y-35.9780 
G01 X16.8629 Y-35.9780 
G01 X16.9899 Y-36.1050 
G01 X17.1629 Y-36.1050 
G01 X17.1960 Y-36.1187 
G00 Z1.0000 
G00 X17.7979 Y-41.1850 
G01 Z-0.0700 F50.80 
G01 X17.8310 Y-41.1987 F101.60 
G01 X17.8563 Y-41.2240 
G01 X17.8700 Y-41.2571 
G01 X17.8700 Y-41.8855 
G01 X18.1240 Y-42.1395 
G01 X18.1240 Y-42.9505 
G01 X17.8653 Y-43.2092 
G01 X17.8563 Y-43.2310 
G01 X17.8310 Y-43.2563 
G01 X17.8092 Y-43.2653 
G01 X17.5505 Y-43.5240 
G01 X16.7395 Y-43.5240 
G01 X16.4808 Y-43.2653 
G01 X16.4590 Y-43.2563 
G01 X16.4337 Y-43.2310 
G01 X16.4247 Y-43.2092 
G01 X16.1660 Y-42.9505 
G01 X16.1660 Y-42.1395 
G01 X16.4200 Y-41.8855 
G01 X16.4200 Y-41.2571 
G01 X16.4337 Y-41.2240 
G01 X16.4590 Y-41.1987 
G01 X16.4921 Y-41.1850 
G01 X17.7979 Y-41.1850 
G00 Z1.0000 
G00 X15.2910 Y-41.1987 
G01 Z-0.0700 F50.80 
G01 X15.3163 Y-41.2240 F101.60 
G01 X15.3300 Y-41.2571 
G01 X15.3300 Y-41.8855 
G01 X15.5840 Y-42.1395 
G01 X15.5840 Y-42.9505 
G01 X15.3253 Y-43.2092 
G01 X15.3163 Y-43.2310 
G01 X15.2910 Y-43.2563 
G01 X15.2692 Y-43.2653 
G01 X15.0105 Y-43.5240 
G01 X14.1995 Y-43.5240 
G01 X13.9408 Y-43.2653 
G01 X13.9190 Y-43.2563 
G01 X13.8937 Y-43.2310 
G01 X13.8847 Y-43.2092 
G01 X13.6260 Y-42.9505 
G01 X13.6260 Y-42.1395 
G01 X13.8800 Y-41.8855 
G01 X13.8800 Y-41.2571 
G01 X13.8937 Y-41.2240 
G01 X13.9190 Y-41.1987 
G01 X13.9521 Y-41.1850 
G01 X15.2579 Y-41.1850 
G01 X15.2910 Y-41.1987 
G00 Z1.0000 
G00 X12.7510 Y-41.1987 
G01 Z-0.0700 F50.80 
G01 X12.7763 Y-41.2240 F101.60 
G01 X12.7900 Y-41.2571 
G01 X12.7900 Y-41.8855 
G01 X13.0440 Y-42.1395 
G01 X13.0440 Y-42.9505 
G01 X12.7853 Y-43.2092 
G01 X12.7763 Y-43.2310 
G01 X12.7510 Y-43.2563 
G01 X12.7292 Y-43.2653 
G01 X12.4705 Y-43.5240 
G01 X11.6595 Y-43.5240 
G01 X11.4008 Y-43.2653 
G01 X11.3790 Y-43.2563 
G01 X11.3537 Y-43.2310 
G01 X11.3447 Y-43.2092 
G01 X11.0860 Y-42.9505 
G01 X11.0860 Y-42.1395 
G01 X11.3400 Y-41.8855 
G01 X11.3400 Y-41.2571 
G01 X11.3537 Y-41.2240 
G01 X11.3790 Y-41.1987 
G01 X11.4121 Y-41.1850 
G01 X12.7179 Y-41.1850 
G01 X12.7510 Y-41.1987 
G00 Z1.0000 
G00 X2.5910 Y-41.1987 
G01 Z-0.0700 F50.80 
G01 X2.6163 Y-41.2240 F101.60 
G01 X2.6300 Y-41.2571 
G01 X2.6300 Y-41.8855 
G01 X2.8840 Y-42.1395 
G01 X2.8840 Y-42.9505 
G01 X2.6253 Y-43.2092 
G01 X2.6163 Y-43.2310 
G01 X2.5910 Y-43.2563 
G01 X2.5692 Y-43.2653 
G01 X2.3105 Y-43.5240 
G01 X1.4995 Y-43.5240 
G01 X1.2408 Y-43.2653 
G01 X1.2190 Y-43.2563 
G01 X1.1937 Y-43.2310 
G01 X1.1847 Y-43.2092 
G01 X0.9260 Y-42.9505 
G01 X0.9260 Y-42.1395 
G01 X1.1800 Y-41.8855 
G01 X1.1800 Y-41.2571 
G01 X1.1937 Y-41.2240 
G01 X1.2190 Y-41.1987 
G01 X1.2521 Y-41.1850 
G01 X2.5579 Y-41.1850 
G01 X2.5910 Y-41.1987 
G00 Z1.0000 
G00 X0.0277 Y-19.2841 
G01 Z-0.0700 F50.80 
G01 X0.1107 Y-19.2020 F101.60 
G01 X4.8930 Y-16.4729 
G01 X4.9427 Y-16.4442 
G01 X4.9438 Y-16.4439 
G01 X5.0001 Y-16.4288 
G01 X5.0555 Y-16.4140 
G01 X5.0566 Y-16.4140 
G01 X5.0577 Y-16.4137 
G01 X5.1148 Y-16.4140 
G01 X12.5432 Y-16.4140 
G01 X14.7500 Y-16.0445 
G01 X14.7852 Y-15.9595 
G01 X14.8782 Y-15.8203 
G01 X14.9965 Y-15.7020 
G01 X15.1357 Y-15.6090 
G01 X15.2903 Y-15.5450 
G01 X15.4544 Y-15.5123 
G01 X15.6218 Y-15.5123 
G01 X15.7859 Y-15.5450 
G01 X15.9405 Y-15.6090 
G01 X16.0797 Y-15.7020 
G01 X16.1980 Y-15.8203 
G01 X16.2910 Y-15.9595 
G01 X16.3550 Y-16.1141 
G01 X16.3877 Y-16.2782 
G01 X16.3877 Y-16.4456 
G01 X16.3550 Y-16.6097 
G01 X16.2910 Y-16.7643 
G01 X16.1980 Y-16.9035 
G01 X16.0797 Y-17.0218 
G01 X15.9446 Y-17.1121 
G01 X16.9225 Y-16.7846 
G01 X16.9340 Y-16.7268 
G01 X16.9981 Y-16.5722 
G01 X17.0911 Y-16.4330 
G01 X17.2094 Y-16.3147 
G01 X17.3486 Y-16.2217 
G01 X17.5032 Y-16.1577 
G01 X17.6673 Y-16.1250 
G01 X17.8347 Y-16.1250 
G01 X17.9988 Y-16.1577 
G01 X18.1534 Y-16.2217 
G01 X18.2926 Y-16.3147 
G01 X18.4109 Y-16.4330 
G01 X18.5039 Y-16.5722 
G01 X18.5679 Y-16.7268 
G01 X18.6006 Y-16.8909 
G01 X18.6006 Y-17.0583 
G01 X18.5679 Y-17.2224 
G01 X18.5039 Y-17.3770 
G01 X18.4109 Y-17.5162 
G01 X18.2926 Y-17.6345 
G01 X18.1534 Y-17.7275 
G01 X17.9988 Y-17.7915 
G01 X17.8347 Y-17.8242 
G01 X17.6673 Y-17.8242 
G01 X17.5032 Y-17.7915 
G01 X17.3486 Y-17.7275 
G01 X17.2094 Y-17.6345 
G01 X17.2010 Y-17.6261 
G01 X15.3255 Y-18.2541 
G01 X12.6422 Y-20.7022 
G01 X12.6422 Y-32.8540 
G01 X13.9761 Y-33.7744 
G01 X14.6825 Y-33.7744 
G01 X14.6825 Y-33.6073 
G01 X14.7190 Y-33.5191 
G01 X14.7866 Y-33.4515 
G01 X14.8748 Y-33.4150 
G01 X15.9680 Y-33.4150 
G01 X16.0950 Y-33.2880 
G01 X16.9250 Y-33.2880 
G01 X17.5120 Y-33.8750 
G01 X17.5120 Y-34.7050 
G01 X16.9250 Y-35.2920 
G01 X16.0950 Y-35.2920 
G01 X15.9680 Y-35.1650 
G01 X14.8748 Y-35.1650 
G01 X14.7866 Y-35.1285 
G01 X14.7190 Y-35.0609 
G01 X14.6825 Y-34.9727 
G01 X14.6825 Y-34.6608 
G01 X13.8783 Y-34.6608 
G01 X13.8606 Y-34.6641 
G01 X13.8202 Y-34.6608 
G01 X13.7797 Y-34.6608 
G01 X13.7622 Y-34.6561 
G01 X13.7442 Y-34.6547 
G01 X13.7061 Y-34.6411 
G01 X13.6669 Y-34.6306 
G01 X13.6513 Y-34.6216 
G01 X13.6343 Y-34.6155 
G01 X13.6010 Y-34.5925 
G01 X13.5659 Y-34.5722 
G01 X13.5531 Y-34.5595 
G01 X11.9620 Y-33.4615 
G01 X11.9269 Y-33.4412 
G01 X11.9141 Y-33.4285 
G01 X11.8993 Y-33.4182 
G01 X11.8730 Y-33.3874 
G01 X11.8444 Y-33.3587 
G01 X11.8353 Y-33.3431 
G01 X11.8236 Y-33.3294 
G01 X11.8063 Y-33.2927 
G01 X11.7860 Y-33.2577 
G01 X11.7813 Y-33.2402 
G01 X11.7736 Y-33.2239 
G01 X11.7663 Y-33.1841 
G01 X11.7558 Y-33.1449 
G01 X11.7558 Y-33.1269 
G01 X11.7525 Y-33.1092 
G01 X11.7558 Y-33.0688 
G01 X11.7558 Y-20.5546 
G01 X11.7536 Y-20.5446 
G01 X11.7558 Y-20.4964 
G01 X11.7558 Y-20.4483 
G01 X11.7585 Y-20.4383 
G01 X11.7589 Y-20.4280 
G01 X11.7735 Y-20.3821 
G01 X11.7860 Y-20.3355 
G01 X11.7912 Y-20.3266 
G01 X11.7943 Y-20.3168 
G01 X11.8203 Y-20.2762 
G01 X11.8444 Y-20.2345 
G01 X11.8516 Y-20.2272 
G01 X11.8572 Y-20.2185 
G01 X11.8928 Y-20.1860 
G01 X11.9269 Y-20.1519 
G01 X11.9358 Y-20.1468 
G01 X14.7797 Y-17.5522 
G01 X14.8026 Y-17.5263 
G01 X14.8227 Y-17.5130 
G01 X14.8404 Y-17.4969 
G01 X14.8711 Y-17.4810 
G01 X14.8999 Y-17.4619 
G01 X14.9227 Y-17.4542 
G01 X14.9440 Y-17.4432 
G01 X14.9778 Y-17.4358 
G01 X15.6855 Y-17.1988 
G01 X15.6218 Y-17.2115 
G01 X15.4544 Y-17.2115 
G01 X15.2903 Y-17.1788 
G01 X15.1357 Y-17.1148 
G01 X14.9965 Y-17.0218 
G01 X14.8938 Y-16.9191 
G01 X12.6742 Y-17.2908 
G01 X12.6383 Y-17.3004 
G01 X12.6168 Y-17.3004 
G01 X12.5956 Y-17.3039 
G01 X12.5587 Y-17.3004 
G01 X5.2314 Y-17.3004 
G01 X0.7734 Y-19.8444 
G01 X0.7734 Y-25.0339 
G01 X0.8660 Y-25.1661 
G01 X0.8660 Y-25.0835 
G01 X0.8986 Y-24.9194 
G01 X0.9627 Y-24.7648 
G01 X1.0557 Y-24.6256 
G01 X1.1740 Y-24.5073 
G01 X1.3132 Y-24.4143 
G01 X1.4678 Y-24.3502 
G01 X1.6319 Y-24.3176 
G01 X1.7993 Y-24.3176 
G01 X1.9634 Y-24.3502 
G01 X2.1180 Y-24.4143 
G01 X2.2572 Y-24.5073 
G01 X2.3755 Y-24.6256 
G01 X2.4685 Y-24.7648 
G01 X2.5325 Y-24.9194 
G01 X2.5652 Y-25.0835 
G01 X2.5652 Y-25.2509 
G01 X2.5387 Y-25.3841 
G01 X4.1061 Y-27.0154 
G01 X4.1370 Y-27.0429 
G01 X4.1464 Y-27.0573 
G01 X4.1584 Y-27.0698 
G01 X4.1783 Y-27.1059 
G01 X4.2010 Y-27.1405 
G01 X4.2064 Y-27.1569 
G01 X4.2147 Y-27.1720 
G01 X4.2246 Y-27.2121 
G01 X4.5435 Y-28.1781 
G01 X4.5435 Y-28.0804 
G01 X4.5762 Y-27.9163 
G01 X4.6402 Y-27.7617 
G01 X4.7332 Y-27.6225 
G01 X4.8515 Y-27.5042 
G01 X4.9907 Y-27.4112 
G01 X5.1453 Y-27.3471 
G01 X5.3094 Y-27.3145 
G01 X5.4768 Y-27.3145 
G01 X5.6409 Y-27.3471 
G01 X5.7955 Y-27.4112 
G01 X5.9347 Y-27.5042 
G01 X6.0530 Y-27.6225 
G01 X6.1460 Y-27.7617 
G01 X6.2100 Y-27.9163 
G01 X6.2427 Y-28.0804 
G01 X6.2427 Y-28.2478 
G01 X6.2100 Y-28.4119 
G01 X6.1460 Y-28.5665 
G01 X6.0530 Y-28.7057 
G01 X5.9347 Y-28.8240 
G01 X5.8636 Y-28.8715 
G01 X6.2319 Y-38.5362 
G01 X6.2198 Y-38.5895 
G01 X6.3138 Y-38.6285 
G01 X6.4530 Y-38.7215 
G01 X6.5681 Y-38.8366 
G01 X18.4353 Y-38.8366 
G01 X18.4246 Y-38.6575 
G01 X18.3673 Y-38.6575 
G01 X18.2791 Y-38.6210 
G01 X18.2115 Y-38.5534 
G01 X18.1750 Y-38.4652 
G01 X18.1750 Y-37.3720 
G01 X18.0480 Y-37.2450 
G01 X18.0480 Y-36.4150 
G01 X18.1750 Y-36.2880 
G01 X18.1750 Y-36.1473 
G01 X18.2115 Y-36.0590 
G01 X18.2791 Y-35.9915 
G01 X18.3673 Y-35.9550 
G01 X18.5080 Y-35.9550 
G01 X18.6350 Y-35.8280 
G01 X19.4650 Y-35.8280 
G01 X19.5920 Y-35.9550 
G01 X19.7327 Y-35.9550 
G01 X19.8209 Y-35.9915 
G01 X19.8885 Y-36.0590 
G01 X19.9250 Y-36.1473 
G01 X19.9250 Y-36.2880 
G01 X20.0520 Y-36.4150 
G01 X20.0520 Y-37.2450 
G01 X19.9250 Y-37.3720 
G01 X19.9250 Y-38.4652 
G01 X19.8885 Y-38.5534 
G01 X19.8209 Y-38.6210 
G01 X19.7327 Y-38.6575 
G01 X19.5161 Y-38.6575 
G01 X19.5543 Y-39.2937 
G01 X19.5586 Y-39.3097 
G01 X19.5586 Y-39.3651 
G01 X19.5619 Y-39.4204 
G01 X19.5586 Y-39.4366 
G01 X19.5586 Y-39.9392 
G01 X19.8247 Y-41.0350 
G01 X20.3677 Y-41.0350 
G01 X20.4559 Y-41.0715 
G01 X20.5235 Y-41.1390 
G01 X20.5600 Y-41.2273 
G01 X20.5600 Y-41.8234 
G01 X20.8140 Y-42.0774 
G01 X20.8140 Y-43.0126 
G01 X20.6477 Y-43.1789 
G01 X20.9198 Y-43.0076 
G01 X20.9198 Y-31.6202 
G01 X20.9500 Y-31.5075 
G01 X20.9707 Y-31.4717 
G01 X20.8976 Y-24.8136 
G01 X18.9367 Y-23.3121 
G01 X18.8782 Y-23.3363 
G01 X18.7141 Y-23.3690 
G01 X18.5467 Y-23.3690 
G01 X18.3826 Y-23.3363 
G01 X18.2280 Y-23.2723 
G01 X18.0888 Y-23.1793 
G01 X17.9705 Y-23.0610 
G01 X17.8775 Y-22.9218 
G01 X17.8134 Y-22.7672 
G01 X17.7808 Y-22.6031 
G01 X17.7808 Y-22.4357 
G01 X17.8134 Y-22.2716 
G01 X17.8775 Y-22.1170 
G01 X17.9705 Y-21.9778 
G01 X18.0888 Y-21.8595 
G01 X18.2280 Y-21.7665 
G01 X18.3826 Y-21.7024 
G01 X18.5467 Y-21.6698 
G01 X18.7141 Y-21.6698 
G01 X18.8782 Y-21.7024 
G01 X19.0328 Y-21.7665 
G01 X19.1720 Y-21.8595 
G01 X19.2903 Y-21.9778 
G01 X19.3833 Y-22.1170 
G01 X19.4473 Y-22.2716 
G01 X19.4800 Y-22.4357 
G01 X19.4800 Y-22.6031 
G01 X19.4785 Y-22.6106 
G01 X21.6005 Y-24.2354 
G01 X21.6716 Y-24.3279 
G01 X21.7164 Y-24.4357 
G01 X21.7317 Y-24.5513 
G01 X21.7166 Y-24.6671 
G01 X21.6770 Y-24.7629 
G01 X21.7507 Y-31.4637 
G01 X21.7760 Y-31.5075 
G01 X21.8062 Y-31.6202 
G01 X21.8062 Y-43.2437 
G01 X21.8081 Y-43.2935 
G01 X21.8062 Y-43.3019 
G01 X21.8062 Y-43.3105 
G01 X21.7933 Y-43.3587 
G01 X21.7823 Y-43.4073 
G01 X21.7782 Y-43.4149 
G01 X21.7760 Y-43.4233 
G01 X21.7511 Y-43.4664 
G01 X21.7278 Y-43.5105 
G01 X21.7220 Y-43.5168 
G01 X21.7176 Y-43.5243 
G01 X21.6824 Y-43.5596 
G01 X21.6486 Y-43.5961 
G01 X21.6412 Y-43.6007 
G01 X21.6351 Y-43.6068 
G01 X21.5920 Y-43.6318 
G01 X20.4062 Y-44.3785 
G01 X20.4001 Y-44.3846 
G01 X20.3569 Y-44.4096 
G01 X20.3148 Y-44.4361 
G01 X20.3066 Y-44.4387 
G01 X20.2991 Y-44.4430 
G01 X20.2509 Y-44.4559 
G01 X20.2033 Y-44.4706 
G01 X20.1947 Y-44.4710 
G01 X20.1863 Y-44.4732 
G01 X20.1365 Y-44.4732 
G01 X20.0867 Y-44.4751 
G01 X20.0783 Y-44.4732 
G01 X10.7605 Y-44.4732 
G01 X10.6477 Y-44.4430 
G01 X10.5467 Y-44.3846 
G01 X9.8360 Y-43.6740 
G01 X9.0574 Y-43.6740 
G01 X8.7758 Y-43.3925 
G01 X8.7540 Y-43.3835 
G01 X8.6865 Y-43.3159 
G01 X8.6775 Y-43.2942 
G01 X8.3960 Y-43.0126 
G01 X8.3960 Y-42.0774 
G01 X8.6500 Y-41.8234 
G01 X8.6500 Y-41.2273 
G01 X8.6865 Y-41.1390 
G01 X8.7540 Y-41.0715 
G01 X8.8423 Y-41.0350 
G01 X10.2077 Y-41.0350 
G01 X10.2959 Y-41.0715 
G01 X10.3635 Y-41.1390 
G01 X10.4000 Y-41.2273 
G01 X10.4000 Y-41.8234 
G01 X10.6540 Y-42.0774 
G01 X10.6540 Y-43.0126 
G01 X10.5411 Y-43.1255 
G01 X11.0024 Y-43.5868 
G01 X11.5102 Y-43.5868 
G01 X11.3158 Y-43.3925 
G01 X11.2941 Y-43.3835 
G01 X11.2265 Y-43.3159 
G01 X11.2175 Y-43.2942 
G01 X10.9360 Y-43.0126 
G01 X10.9360 Y-42.0774 
G01 X11.1900 Y-41.8234 
G01 X11.1900 Y-41.2273 
G01 X11.2265 Y-41.1390 
G01 X11.2941 Y-41.0715 
G01 X11.3823 Y-41.0350 
G01 X12.7477 Y-41.0350 
G01 X12.8359 Y-41.0715 
G01 X12.9035 Y-41.1390 
G01 X12.9400 Y-41.2273 
G01 X12.9400 Y-41.8234 
G01 X13.1940 Y-42.0774 
G01 X13.1940 Y-43.0126 
G01 X12.9125 Y-43.2942 
G01 X12.9035 Y-43.3159 
G01 X12.8359 Y-43.3835 
G01 X12.8142 Y-43.3925 
G01 X12.6198 Y-43.5868 
G01 X14.0502 Y-43.5868 
G01 X13.8558 Y-43.3925 
G01 X13.8340 Y-43.3835 
G01 X13.7665 Y-43.3159 
G01 X13.7575 Y-43.2942 
G01 X13.4760 Y-43.0126 
G01 X13.4760 Y-42.0774 
G01 X13.7300 Y-41.8234 
G01 X13.7300 Y-41.2273 
G01 X13.7665 Y-41.1390 
G01 X13.8340 Y-41.0715 
G01 X13.9223 Y-41.0350 
G01 X15.2877 Y-41.0350 
G01 X15.3759 Y-41.0715 
G01 X15.4435 Y-41.1390 
G01 X15.4800 Y-41.2273 
G01 X15.4800 Y-41.8234 
G01 X15.7340 Y-42.0774 
G01 X15.7340 Y-43.0126 
G01 X15.4525 Y-43.2942 
G01 X15.4435 Y-43.3159 
G01 X15.3759 Y-43.3835 
G01 X15.3542 Y-43.3925 
G01 X15.1598 Y-43.5868 
G01 X16.5902 Y-43.5868 
G01 X16.3958 Y-43.3925 
G01 X16.3741 Y-43.3835 
G01 X16.3065 Y-43.3159 
G01 X16.2975 Y-43.2942 
G01 X16.0160 Y-43.0126 
G01 X16.0160 Y-42.0774 
G01 X16.2700 Y-41.8234 
G01 X16.2700 Y-41.2273 
G01 X16.3065 Y-41.1390 
G01 X16.3741 Y-41.0715 
G01 X16.4623 Y-41.0350 
G01 X17.8277 Y-41.0350 
G01 X17.9159 Y-41.0715 
G01 X17.9835 Y-41.1390 
G01 X18.0200 Y-41.2273 
G01 X18.0200 Y-41.8234 
G01 X18.2740 Y-42.0774 
G01 X18.2740 Y-43.0126 
G01 X17.9925 Y-43.2942 
G01 X17.9835 Y-43.3159 
G01 X17.9159 Y-43.3835 
G01 X17.8942 Y-43.3925 
G01 X17.6998 Y-43.5868 
G01 X19.1302 Y-43.5868 
G01 X18.9358 Y-43.3925 
G01 X18.9140 Y-43.3835 
G01 X18.8465 Y-43.3159 
G01 X18.8375 Y-43.2942 
G01 X18.5560 Y-43.0126 
G01 X18.5560 Y-42.0774 
G01 X18.8100 Y-41.8234 
G01 X18.8100 Y-41.4738 
G01 X18.4859 Y-40.1392 
G01 X18.4690 Y-40.0761 
G01 X18.4690 Y-40.0696 
G01 X18.4675 Y-40.0633 
G01 X18.4690 Y-39.9980 
G01 X18.4690 Y-39.9262 
G01 X6.5681 Y-39.9262 
G01 X6.4530 Y-40.0413 
G01 X6.3138 Y-40.1343 
G01 X6.1592 Y-40.1983 
G01 X5.9951 Y-40.2310 
G01 X5.8277 Y-40.2310 
G01 X5.6636 Y-40.1983 
G01 X5.5090 Y-40.1343 
G01 X5.4516 Y-40.0960 
G01 X6.2172 Y-41.0702 
G01 X6.3023 Y-41.0350 
G01 X7.6677 Y-41.0350 
G01 X7.7559 Y-41.0715 
G01 X7.8235 Y-41.1390 
G01 X7.8600 Y-41.2273 
G01 X7.8600 Y-41.8234 
G01 X8.1140 Y-42.0774 
G01 X8.1140 Y-43.0126 
G01 X7.8325 Y-43.2942 
G01 X7.8235 Y-43.3159 
G01 X7.7559 Y-43.3835 
G01 X7.7342 Y-43.3925 
G01 X7.4526 Y-43.6740 
G01 X6.5174 Y-43.6740 
G01 X6.2358 Y-43.3925 
G01 X6.2141 Y-43.3835 
G01 X6.1465 Y-43.3159 
G01 X6.1375 Y-43.2942 
G01 X5.8560 Y-43.0126 
G01 X5.8560 Y-42.0774 
G01 X5.8702 Y-42.0632 
G01 X5.3200 Y-41.3630 
G01 X5.3200 Y-41.8234 
G01 X5.5740 Y-42.0774 
G01 X5.5740 Y-43.0126 
G01 X5.2925 Y-43.2942 
G01 X5.2835 Y-43.3159 
G01 X5.2159 Y-43.3835 
G01 X5.1942 Y-43.3925 
G01 X4.9126 Y-43.6740 
G01 X3.9774 Y-43.6740 
G01 X3.6958 Y-43.3925 
G01 X3.6740 Y-43.3835 
G01 X3.6065 Y-43.3159 
G01 X3.5975 Y-43.2942 
G01 X3.3160 Y-43.0126 
G01 X3.3160 Y-42.0774 
G01 X3.4742 Y-41.9192 
G01 X2.5073 Y-40.0181 
G01 X2.4840 Y-39.9778 
G01 X2.4809 Y-39.9662 
G01 X2.4755 Y-39.9556 
G01 X2.4659 Y-39.9100 
G01 X2.4538 Y-39.8650 
G01 X2.4538 Y-39.8531 
G01 X2.4513 Y-39.8414 
G01 X2.4538 Y-39.7949 
G01 X2.4538 Y-29.2787 
G01 X2.3554 Y-29.2129 
G01 X2.2371 Y-29.0946 
G01 X2.1441 Y-28.9554 
G01 X2.0800 Y-28.8008 
G01 X2.0474 Y-28.6367 
G01 X2.0474 Y-28.4693 
G01 X2.0800 Y-28.3052 
G01 X2.1441 Y-28.1506 
G01 X2.2371 Y-28.0114 
G01 X2.3554 Y-27.8931 
G01 X2.4946 Y-27.8001 
G01 X2.6492 Y-27.7360 
G01 X2.8133 Y-27.7034 
G01 X2.9807 Y-27.7034 
G01 X3.1448 Y-27.7360 
G01 X3.2994 Y-27.8001 
G01 X3.4386 Y-27.8931 
G01 X3.5541 Y-28.0086 
G01 X3.4091 Y-27.5693 
G01 X1.8984 Y-25.9971 
G01 X1.7993 Y-26.0168 
G01 X1.6319 Y-26.0168 
G01 X1.4678 Y-25.9841 
G01 X1.4273 Y-25.9674 
G01 X1.5826 Y-26.1890 
G01 X1.7203 Y-26.1890 
G01 X1.8844 Y-26.2217 
G01 X2.0390 Y-26.2857 
G01 X2.1782 Y-26.3787 
G01 X2.2965 Y-26.4970 
G01 X2.3895 Y-26.6362 
G01 X2.4535 Y-26.7908 
G01 X2.4862 Y-26.9549 
G01 X2.4862 Y-27.1223 
G01 X2.4535 Y-27.2864 
G01 X2.3895 Y-27.4410 
G01 X2.2965 Y-27.5802 
G01 X2.1782 Y-27.6985 
G01 X2.0390 Y-27.7915 
G01 X1.8844 Y-27.8555 
G01 X1.7203 Y-27.8882 
G01 X1.5529 Y-27.8882 
G01 X1.3888 Y-27.8555 
G01 X1.2342 Y-27.7915 
G01 X1.0950 Y-27.6985 
G01 X0.9767 Y-27.5802 
G01 X0.8837 Y-27.4410 
G01 X0.8196 Y-27.2864 
G01 X0.7870 Y-27.1223 
G01 X0.7870 Y-26.9549 
G01 X0.8196 Y-26.7908 
G01 X0.8576 Y-26.6991 
G01 X-0.0155 Y-25.4527 
G01 X-0.0554 Y-25.3430 
G01 X-0.0656 Y-25.2268 
G01 X-0.0454 Y-25.1119 
G01 X-0.0114 Y-25.0390 
G01 X-0.0114 Y-19.7646 
G01 X-0.0328 Y-19.7270 
G01 X-0.0625 Y-19.6141 
G01 X-0.0619 Y-19.4974 
G01 X-0.0311 Y-19.3849 
G01 X0.0277 Y-19.2841 
G00 Z1.0000 
G00 X3.7466 Y-28.5917 
G01 Z-0.0700 F50.80 
G01 X3.7466 Y-28.6367 F101.60 
G01 X3.7139 Y-28.8008 
G01 X3.6499 Y-28.9554 
G01 X3.5569 Y-29.0946 
G01 X3.4386 Y-29.2129 
G01 X3.3402 Y-29.2787 
G01 X3.3402 Y-39.7005 
G01 X4.0189 Y-41.0350 
G01 X5.0622 Y-41.0350 
G01 X4.1297 Y-39.8484 
G01 X4.1062 Y-39.8245 
G01 X4.0938 Y-39.8027 
G01 X4.0784 Y-39.7831 
G01 X4.0652 Y-39.7522 
G01 X4.0486 Y-39.7230 
G01 X4.0423 Y-39.6988 
G01 X4.0325 Y-39.6758 
G01 X4.0277 Y-39.6426 
G01 X4.0193 Y-39.6101 
G01 X4.0195 Y-39.5850 
G01 X4.0159 Y-39.5603 
G01 X4.0199 Y-39.5269 
G01 X4.0954 Y-29.6482 
G01 X3.7466 Y-28.5917 
G00 Z1.0000 
G00 X4.7025 Y-28.6598 
G01 Z-0.0700 F50.80 
G01 X4.9462 Y-29.3981 F101.60 
G01 X4.9534 Y-29.4107 
G01 X4.9644 Y-29.4533 
G01 X4.9783 Y-29.4951 
G01 X4.9791 Y-29.5096 
G01 X4.9827 Y-29.5236 
G01 X4.9824 Y-29.5676 
G01 X4.9849 Y-29.6116 
G01 X4.9819 Y-29.6258 
G01 X4.9073 Y-39.4033 
G01 X5.1052 Y-39.6551 
G01 X5.0945 Y-39.6292 
G01 X5.0618 Y-39.4651 
G01 X5.0618 Y-39.2977 
G01 X5.0945 Y-39.1336 
G01 X5.1585 Y-38.9790 
G01 X5.2515 Y-38.8398 
G01 X5.3698 Y-38.7215 
G01 X5.3951 Y-38.7045 
G01 X5.3806 Y-38.6815 
G01 X5.3461 Y-38.5700 
G01 X4.9779 Y-28.9085 
G01 X4.8515 Y-28.8240 
G01 X4.7332 Y-28.7057 
G01 X4.7025 Y-28.6598 
G00 Z1.0000 
G00 X15.6715 Y-30.0266 
G01 Z-0.0700 F50.80 
G01 X15.7391 Y-29.9590 F101.60 
G01 X15.8273 Y-29.9225 
G01 X17.1927 Y-29.9225 
G01 X17.2809 Y-29.9590 
G01 X17.3485 Y-30.0266 
G01 X17.3850 Y-30.1148 
G01 X17.3850 Y-31.2080 
G01 X17.5120 Y-31.3350 
G01 X17.5120 Y-32.1650 
G01 X17.3850 Y-32.2920 
G01 X17.3850 Y-32.4327 
G01 X17.3485 Y-32.5209 
G01 X17.2809 Y-32.5885 
G01 X17.1927 Y-32.6250 
G01 X17.0520 Y-32.6250 
G01 X16.9250 Y-32.7520 
G01 X16.0950 Y-32.7520 
G01 X15.9680 Y-32.6250 
G01 X15.8273 Y-32.6250 
G01 X15.7391 Y-32.5885 
G01 X15.6715 Y-32.5209 
G01 X15.6350 Y-32.4327 
G01 X15.6350 Y-32.2920 
G01 X15.5080 Y-32.1650 
G01 X15.5080 Y-31.3350 
G01 X15.6350 Y-31.2080 
G01 X15.6350 Y-30.1148 
G01 X15.6715 Y-30.0266 
G00 Z1.0000 
G00 X18.2115 Y-30.0266 
G01 Z-0.0700 F50.80 
G01 X18.2791 Y-29.9590 F101.60 
G01 X18.3673 Y-29.9225 
G01 X19.7327 Y-29.9225 
G01 X19.8209 Y-29.9590 
G01 X19.8885 Y-30.0266 
G01 X19.9250 Y-30.1148 
G01 X19.9250 Y-31.2560 
G01 X19.9380 Y-31.2754 
G01 X19.9588 Y-31.3256 
G01 X19.9618 Y-31.1060 
G01 X19.9503 Y-29.8235 
G01 X16.7998 Y-25.0466 
G01 X16.7904 Y-25.0371 
G01 X16.7677 Y-24.9980 
G01 X16.7429 Y-24.9603 
G01 X16.7387 Y-24.9476 
G01 X16.7320 Y-24.9361 
G01 X16.7203 Y-24.8924 
G01 X16.7061 Y-24.8496 
G01 X16.7053 Y-24.8362 
G01 X16.7018 Y-24.8233 
G01 X16.7018 Y-24.7782 
G01 X16.6991 Y-24.7331 
G01 X16.7018 Y-24.7200 
G01 X16.7018 Y-20.1347 
G01 X16.7320 Y-20.0219 
G01 X16.7904 Y-19.9209 
G01 X16.8146 Y-19.8966 
G01 X16.8410 Y-19.7910 
G01 X16.8257 Y-19.7107 
G01 X16.8343 Y-19.5944 
G01 X16.8726 Y-19.4841 
G01 X16.9382 Y-19.3876 
G01 X17.0266 Y-19.3114 
G01 X18.5878 Y-18.5566 
G01 X19.1051 Y-18.0393 
G01 X19.0820 Y-17.9233 
G01 X19.0820 Y-17.7559 
G01 X19.1147 Y-17.5918 
G01 X19.1787 Y-17.4372 
G01 X19.2717 Y-17.2980 
G01 X19.3900 Y-17.1797 
G01 X19.5292 Y-17.0867 
G01 X19.6838 Y-17.0226 
G01 X19.8479 Y-16.9900 
G01 X20.0153 Y-16.9900 
G01 X20.1794 Y-17.0226 
G01 X20.3340 Y-17.0867 
G01 X20.4732 Y-17.1797 
G01 X20.5915 Y-17.2980 
G01 X20.6845 Y-17.4372 
G01 X20.7485 Y-17.5918 
G01 X20.7812 Y-17.7559 
G01 X20.7812 Y-17.9233 
G01 X20.7485 Y-18.0874 
G01 X20.6845 Y-18.2420 
G01 X20.5915 Y-18.3812 
G01 X20.4732 Y-18.4995 
G01 X20.3340 Y-18.5925 
G01 X20.1794 Y-18.6565 
G01 X20.0153 Y-18.6892 
G01 X19.8479 Y-18.6892 
G01 X19.7319 Y-18.6661 
G01 X19.1912 Y-19.2068 
G01 X19.1820 Y-19.2204 
G01 X19.1501 Y-19.2479 
G01 X19.1203 Y-19.2776 
G01 X19.1061 Y-19.2859 
G01 X19.0936 Y-19.2966 
G01 X19.0557 Y-19.3149 
G01 X19.0193 Y-19.3360 
G01 X19.0034 Y-19.3403 
G01 X17.5921 Y-20.0225 
G01 X17.5757 Y-20.0880 
G01 X17.5882 Y-20.1347 
G01 X17.5882 Y-24.6320 
G01 X20.7364 Y-29.4054 
G01 X20.7445 Y-29.4134 
G01 X20.7685 Y-29.4541 
G01 X20.7944 Y-29.4934 
G01 X20.7980 Y-29.5042 
G01 X20.8037 Y-29.5139 
G01 X20.8164 Y-29.5594 
G01 X20.8312 Y-29.6041 
G01 X20.8319 Y-29.6154 
G01 X20.8350 Y-29.6264 
G01 X20.8354 Y-29.6735 
G01 X20.8382 Y-29.7206 
G01 X20.8359 Y-29.7317 
G01 X20.8477 Y-31.0499 
G01 X20.8490 Y-31.0548 
G01 X20.8482 Y-31.1083 
G01 X20.8487 Y-31.1615 
G01 X20.8474 Y-31.1664 
G01 X20.8228 Y-32.9627 
G01 X20.8228 Y-33.0179 
G01 X20.8220 Y-33.0209 
G01 X20.8220 Y-33.0240 
G01 X20.8069 Y-33.0773 
G01 X20.7926 Y-33.1307 
G01 X20.7910 Y-33.1333 
G01 X20.7902 Y-33.1363 
G01 X20.7619 Y-33.1838 
G01 X20.7342 Y-33.2317 
G01 X20.7321 Y-33.2339 
G01 X20.7305 Y-33.2366 
G01 X20.6909 Y-33.2751 
G01 X20.5510 Y-33.4150 
G01 X20.6852 Y-33.4150 
G01 X20.7734 Y-33.4515 
G01 X20.8410 Y-33.5191 
G01 X20.8775 Y-33.6073 
G01 X20.8775 Y-34.9727 
G01 X20.8410 Y-35.0609 
G01 X20.7734 Y-35.1285 
G01 X20.6852 Y-35.1650 
G01 X19.5920 Y-35.1650 
G01 X19.4650 Y-35.2920 
G01 X18.6350 Y-35.2920 
G01 X18.0480 Y-34.7050 
G01 X18.0480 Y-33.8750 
G01 X18.6350 Y-33.2880 
G01 X19.4244 Y-33.2880 
G01 X19.9389 Y-32.7735 
G01 X19.9467 Y-32.2035 
G01 X19.9380 Y-32.2246 
G01 X19.9250 Y-32.2440 
G01 X19.9250 Y-32.4327 
G01 X19.8885 Y-32.5209 
G01 X19.8209 Y-32.5885 
G01 X19.7327 Y-32.6250 
G01 X19.5440 Y-32.6250 
G01 X19.5246 Y-32.6380 
G01 X19.3423 Y-32.7135 
G01 X19.1487 Y-32.7520 
G01 X18.9513 Y-32.7520 
G01 X18.7577 Y-32.7135 
G01 X18.5754 Y-32.6380 
G01 X18.5560 Y-32.6250 
G01 X18.3673 Y-32.6250 
G01 X18.2791 Y-32.5885 
G01 X18.2115 Y-32.5209 
G01 X18.1750 Y-32.4327 
G01 X18.1750 Y-32.2440 
G01 X18.1620 Y-32.2246 
G01 X18.0865 Y-32.0423 
G01 X18.0480 Y-31.8487 
G01 X18.0480 Y-31.6513 
G01 X18.0865 Y-31.4577 
G01 X18.1620 Y-31.2754 
G01 X18.1750 Y-31.2560 
G01 X18.1750 Y-30.1148 
G01 X18.2115 Y-30.0266 
G00 Z1.0000 
G00 X17.2809 Y-35.9915 
G01 Z-0.0700 F50.80 
G01 X17.3485 Y-36.0590 F101.60 
G01 X17.3850 Y-36.1473 
G01 X17.3850 Y-36.2880 
G01 X17.5120 Y-36.4150 
G01 X17.5120 Y-37.2450 
G01 X17.3850 Y-37.3720 
G01 X17.3850 Y-38.4652 
G01 X17.3485 Y-38.5534 
G01 X17.2809 Y-38.6210 
G01 X17.1927 Y-38.6575 
G01 X15.8273 Y-38.6575 
G01 X15.7391 Y-38.6210 
G01 X15.6715 Y-38.5534 
G01 X15.6350 Y-38.4652 
G01 X15.6350 Y-37.3720 
G01 X15.5080 Y-37.2450 
G01 X15.5080 Y-36.4150 
G01 X15.6350 Y-36.2880 
G01 X15.6350 Y-36.1473 
G01 X15.6715 Y-36.0590 
G01 X15.7391 Y-35.9915 
G01 X15.8273 Y-35.9550 
G01 X15.9680 Y-35.9550 
G01 X16.0950 Y-35.8280 
G01 X16.9250 Y-35.8280 
G01 X17.0520 Y-35.9550 
G01 X17.1927 Y-35.9550 
G01 X17.2809 Y-35.9915 
G00 Z1.0000 
G00 X2.6759 Y-41.0715 
G01 Z-0.0700 F50.80 
G01 X2.7435 Y-41.1390 F101.60 
G01 X2.7800 Y-41.2273 
G01 X2.7800 Y-41.8234 
G01 X3.0340 Y-42.0774 
G01 X3.0340 Y-43.0126 
G01 X2.7525 Y-43.2942 
G01 X2.7435 Y-43.3159 
G01 X2.6759 Y-43.3835 
G01 X2.6542 Y-43.3925 
G01 X2.3726 Y-43.6740 
G01 X1.4374 Y-43.6740 
G01 X1.1558 Y-43.3925 
G01 X1.1341 Y-43.3835 
G01 X1.0665 Y-43.3159 
G01 X1.0575 Y-43.2942 
G01 X0.7760 Y-43.0126 
G01 X0.7760 Y-42.0774 
G01 X1.0300 Y-41.8234 
G01 X1.0300 Y-41.2273 
G01 X1.0665 Y-41.1390 
G01 X1.1341 Y-41.0715 
G01 X1.2223 Y-41.0350 
G01 X2.5877 Y-41.0350 
G01 X2.6759 Y-41.0715 
G00 Z1.0000 
G00 X0.0362 Y-19.0717 
G01 Z-0.0700 F50.80 
G01 X4.8016 Y-16.3523 F101.60 
G01 X4.8328 Y-16.3315 
G01 X4.8522 Y-16.3235 
G01 X4.8705 Y-16.3130 
G01 X4.9061 Y-16.3011 
G01 X4.9408 Y-16.2868 
G01 X4.9614 Y-16.2827 
G01 X4.9814 Y-16.2760 
G01 X5.0186 Y-16.2713 
G01 X5.0554 Y-16.2640 
G01 X5.0764 Y-16.2640 
G01 X5.0973 Y-16.2614 
G01 X5.1347 Y-16.2640 
G01 X12.5307 Y-16.2640 
G01 X14.6432 Y-15.9103 
G01 X14.6523 Y-15.8884 
G01 X14.7617 Y-15.7247 
G01 X14.9009 Y-15.5855 
G01 X15.0646 Y-15.4761 
G01 X15.2465 Y-15.4007 
G01 X15.4396 Y-15.3623 
G01 X15.6366 Y-15.3623 
G01 X15.8297 Y-15.4007 
G01 X16.0116 Y-15.4761 
G01 X16.1753 Y-15.5855 
G01 X16.3145 Y-15.7247 
G01 X16.4239 Y-15.8884 
G01 X16.4993 Y-16.0703 
G01 X16.5377 Y-16.2634 
G01 X16.5377 Y-16.4604 
G01 X16.4993 Y-16.6535 
G01 X16.4441 Y-16.7866 
G01 X16.7957 Y-16.6689 
G01 X16.8652 Y-16.5011 
G01 X16.9746 Y-16.3374 
G01 X17.1138 Y-16.1982 
G01 X17.2775 Y-16.0888 
G01 X17.4594 Y-16.0134 
G01 X17.6525 Y-15.9750 
G01 X17.8495 Y-15.9750 
G01 X18.0426 Y-16.0134 
G01 X18.2245 Y-16.0888 
G01 X18.3882 Y-16.1982 
G01 X18.5274 Y-16.3374 
G01 X18.6368 Y-16.5011 
G01 X18.7122 Y-16.6830 
G01 X18.7506 Y-16.8761 
G01 X18.7506 Y-17.0731 
G01 X18.7122 Y-17.2662 
G01 X18.6368 Y-17.4481 
G01 X18.5274 Y-17.6118 
G01 X18.3882 Y-17.7510 
G01 X18.2245 Y-17.8604 
G01 X18.0426 Y-17.9358 
G01 X17.8495 Y-17.9742 
G01 X17.6525 Y-17.9742 
G01 X17.4594 Y-17.9358 
G01 X17.2775 Y-17.8604 
G01 X17.1761 Y-17.7927 
G01 X15.4032 Y-18.3863 
G01 X12.7922 Y-20.7684 
G01 X12.7922 Y-32.7752 
G01 X14.0228 Y-33.6244 
G01 X14.5325 Y-33.6244 
G01 X14.5325 Y-33.6037 
G01 X14.5591 Y-33.5045 
G01 X14.6104 Y-33.4155 
G01 X14.6830 Y-33.3429 
G01 X14.7720 Y-33.2916 
G01 X14.8712 Y-33.2650 
G01 X15.9058 Y-33.2650 
G01 X16.0328 Y-33.1380 
G01 X16.9872 Y-33.1380 
G01 X17.6620 Y-33.8128 
G01 X17.6620 Y-34.7672 
G01 X16.9872 Y-35.4420 
G01 X16.0328 Y-35.4420 
G01 X15.9058 Y-35.3150 
G01 X14.8712 Y-35.3150 
G01 X14.7720 Y-35.2884 
G01 X14.6830 Y-35.2371 
G01 X14.6104 Y-35.1645 
G01 X14.5591 Y-35.0755 
G01 X14.5325 Y-34.9763 
G01 X14.5325 Y-34.8108 
G01 X13.8919 Y-34.8108 
G01 X13.8875 Y-34.8116 
G01 X13.8335 Y-34.8108 
G01 X13.7796 Y-34.8108 
G01 X13.7752 Y-34.8099 
G01 X13.7707 Y-34.8099 
G01 X13.7178 Y-34.7985 
G01 X13.6650 Y-34.7880 
G01 X13.6608 Y-34.7863 
G01 X13.6564 Y-34.7853 
G01 X13.6068 Y-34.7639 
G01 X13.5570 Y-34.7433 
G01 X13.5533 Y-34.7408 
G01 X13.5492 Y-34.7390 
G01 X13.5048 Y-34.7084 
G01 X13.4599 Y-34.6784 
G01 X13.4567 Y-34.6752 
G01 X11.8657 Y-33.5774 
G01 X11.8209 Y-33.5474 
G01 X11.8177 Y-33.5442 
G01 X11.8140 Y-33.5417 
G01 X11.7764 Y-33.5029 
G01 X11.7382 Y-33.4647 
G01 X11.7357 Y-33.4610 
G01 X11.7326 Y-33.4578 
G01 X11.7033 Y-33.4125 
G01 X11.6733 Y-33.3676 
G01 X11.6716 Y-33.3634 
G01 X11.6692 Y-33.3597 
G01 X11.6493 Y-33.3095 
G01 X11.6286 Y-33.2596 
G01 X11.6277 Y-33.2552 
G01 X11.6261 Y-33.2511 
G01 X11.6163 Y-33.1979 
G01 X11.6058 Y-33.1450 
G01 X11.6058 Y-33.1405 
G01 X11.6050 Y-33.1361 
G01 X11.6058 Y-33.0821 
G01 X11.6058 Y-20.5513 
G01 X11.6037 Y-20.5378 
G01 X11.6058 Y-20.4930 
G01 X11.6058 Y-20.4482 
G01 X11.6085 Y-20.4348 
G01 X11.6091 Y-20.4211 
G01 X11.6199 Y-20.3775 
G01 X11.6286 Y-20.3336 
G01 X11.6338 Y-20.3209 
G01 X11.6371 Y-20.3076 
G01 X11.6562 Y-20.2670 
G01 X11.6733 Y-20.2256 
G01 X11.6809 Y-20.2142 
G01 X11.6867 Y-20.2018 
G01 X11.7133 Y-20.1657 
G01 X11.7382 Y-20.1285 
G01 X11.7479 Y-20.1188 
G01 X11.7560 Y-20.1077 
G01 X11.7892 Y-20.0775 
G01 X11.8209 Y-20.0458 
G01 X11.8322 Y-20.0382 
G01 X14.6583 Y-17.4600 
G01 X14.6626 Y-17.4543 
G01 X14.7014 Y-17.4206 
G01 X14.7394 Y-17.3860 
G01 X14.7454 Y-17.3823 
G01 X14.7508 Y-17.3776 
G01 X14.7954 Y-17.3521 
G01 X14.8394 Y-17.3256 
G01 X14.8461 Y-17.3232 
G01 X14.8522 Y-17.3196 
G01 X14.9009 Y-17.3034 
G01 X14.9493 Y-17.2859 
G01 X14.9563 Y-17.2848 
G01 X15.0657 Y-17.2482 
G01 X15.0646 Y-17.2477 
G01 X14.9009 Y-17.1383 
G01 X14.8424 Y-17.0798 
G01 X12.6869 Y-17.4408 
G01 X12.6384 Y-17.4504 
G01 X12.6293 Y-17.4504 
G01 X12.6203 Y-17.4519 
G01 X12.5710 Y-17.4504 
G01 X5.2711 Y-17.4504 
G01 X0.9234 Y-19.9315 
G01 X0.9234 Y-24.5536 
G01 X0.9392 Y-24.5300 
G01 X1.0784 Y-24.3908 
G01 X1.2421 Y-24.2814 
G01 X1.4240 Y-24.2060 
G01 X1.6171 Y-24.1676 
G01 X1.8141 Y-24.1676 
G01 X2.0072 Y-24.2060 
G01 X2.1891 Y-24.2814 
G01 X2.3528 Y-24.3908 
G01 X2.4920 Y-24.5300 
G01 X2.6014 Y-24.6937 
G01 X2.6768 Y-24.8756 
G01 X2.7152 Y-25.0687 
G01 X2.7152 Y-25.2657 
G01 X2.7011 Y-25.3366 
G01 X4.1968 Y-26.8933 
G01 X4.2095 Y-26.9032 
G01 X4.2372 Y-26.9353 
G01 X4.2666 Y-26.9659 
G01 X4.2753 Y-26.9795 
G01 X4.2858 Y-26.9917 
G01 X4.3067 Y-27.0286 
G01 X4.3296 Y-27.0644 
G01 X4.3354 Y-27.0794 
G01 X4.3434 Y-27.0934 
G01 X4.3567 Y-27.1337 
G01 X4.3721 Y-27.1732 
G01 X4.3750 Y-27.1890 
G01 X4.5295 Y-27.6573 
G01 X4.6167 Y-27.5269 
G01 X4.7559 Y-27.3877 
G01 X4.9196 Y-27.2783 
G01 X5.1015 Y-27.2029 
G01 X5.2946 Y-27.1645 
G01 X5.4916 Y-27.1645 
G01 X5.6847 Y-27.2029 
G01 X5.8666 Y-27.2783 
G01 X6.0303 Y-27.3877 
G01 X6.1695 Y-27.5269 
G01 X6.2789 Y-27.6906 
G01 X6.3543 Y-27.8725 
G01 X6.3927 Y-28.0656 
G01 X6.3927 Y-28.2626 
G01 X6.3543 Y-28.4557 
G01 X6.2789 Y-28.6376 
G01 X6.1695 Y-28.8013 
G01 X6.0303 Y-28.9405 
G01 X6.0167 Y-28.9497 
G01 X6.3804 Y-38.4937 
G01 X6.3849 Y-38.4956 
G01 X6.5486 Y-38.6050 
G01 X6.6302 Y-38.6866 
G01 X15.5926 Y-38.6866 
G01 X15.5629 Y-38.6570 
G01 X15.5116 Y-38.5680 
G01 X15.4850 Y-38.4688 
G01 X15.4850 Y-37.4342 
G01 X15.3580 Y-37.3072 
G01 X15.3580 Y-36.3528 
G01 X15.4850 Y-36.2258 
G01 X15.4850 Y-36.1437 
G01 X15.5116 Y-36.0445 
G01 X15.5629 Y-35.9555 
G01 X15.6355 Y-35.8829 
G01 X15.7245 Y-35.8316 
G01 X15.8237 Y-35.8050 
G01 X15.9058 Y-35.8050 
G01 X16.0328 Y-35.6780 
G01 X16.9872 Y-35.6780 
G01 X17.1142 Y-35.8050 
G01 X17.1963 Y-35.8050 
G01 X17.2955 Y-35.8316 
G01 X17.3845 Y-35.8829 
G01 X17.4571 Y-35.9555 
G01 X17.5084 Y-36.0445 
G01 X17.5350 Y-36.1437 
G01 X17.5350 Y-36.2258 
G01 X17.6620 Y-36.3528 
G01 X17.6620 Y-37.3072 
G01 X17.5350 Y-37.4342 
G01 X17.5350 Y-38.4688 
G01 X17.5084 Y-38.5680 
G01 X17.4571 Y-38.6570 
G01 X17.4274 Y-38.6866 
G01 X18.1326 Y-38.6866 
G01 X18.1029 Y-38.6570 
G01 X18.0516 Y-38.5680 
G01 X18.0250 Y-38.4688 
G01 X18.0250 Y-37.4342 
G01 X17.8980 Y-37.3072 
G01 X17.8980 Y-36.3528 
G01 X18.0250 Y-36.2258 
G01 X18.0250 Y-36.1437 
G01 X18.0516 Y-36.0445 
G01 X18.1029 Y-35.9555 
G01 X18.1755 Y-35.8829 
G01 X18.2645 Y-35.8316 
G01 X18.3637 Y-35.8050 
G01 X18.4458 Y-35.8050 
G01 X18.5728 Y-35.6780 
G01 X19.5272 Y-35.6780 
G01 X19.6542 Y-35.8050 
G01 X19.7363 Y-35.8050 
G01 X19.8355 Y-35.8316 
G01 X19.9245 Y-35.8829 
G01 X19.9971 Y-35.9555 
G01 X20.0484 Y-36.0445 
G01 X20.0750 Y-36.1437 
G01 X20.0750 Y-36.2258 
G01 X20.2020 Y-36.3528 
G01 X20.2020 Y-37.3072 
G01 X20.0750 Y-37.4342 
G01 X20.0750 Y-38.4688 
G01 X20.0484 Y-38.5680 
G01 X19.9971 Y-38.6570 
G01 X19.9245 Y-38.7296 
G01 X19.8355 Y-38.7809 
G01 X19.7363 Y-38.8075 
G01 X19.6754 Y-38.8075 
G01 X19.7045 Y-39.2924 
G01 X19.7086 Y-39.3130 
G01 X19.7086 Y-39.3605 
G01 X19.7114 Y-39.4081 
G01 X19.7086 Y-39.4289 
G01 X19.7086 Y-39.9212 
G01 X19.9426 Y-40.8850 
G01 X20.3713 Y-40.8850 
G01 X20.4705 Y-40.9116 
G01 X20.5595 Y-40.9629 
G01 X20.6321 Y-41.0355 
G01 X20.6834 Y-41.1245 
G01 X20.7100 Y-41.2237 
G01 X20.7100 Y-41.7612 
G01 X20.7698 Y-41.8210 
G01 X20.7698 Y-35.2933 
G01 X20.6888 Y-35.3150 
G01 X19.6542 Y-35.3150 
G01 X19.5272 Y-35.4420 
G01 X18.5728 Y-35.4420 
G01 X17.8980 Y-34.7672 
G01 X17.8980 Y-33.8128 
G01 X18.5728 Y-33.1380 
G01 X19.3623 Y-33.1380 
G01 X19.7253 Y-32.7750 
G01 X19.5758 Y-32.7750 
G01 X19.4922 Y-32.8176 
G01 X19.3198 Y-32.8736 
G01 X19.1407 Y-32.9020 
G01 X18.9593 Y-32.9020 
G01 X18.7802 Y-32.8736 
G01 X18.6078 Y-32.8176 
G01 X18.5242 Y-32.7750 
G01 X18.3637 Y-32.7750 
G01 X18.2645 Y-32.7484 
G01 X18.1755 Y-32.6971 
G01 X18.1029 Y-32.6245 
G01 X18.0516 Y-32.5355 
G01 X18.0250 Y-32.4363 
G01 X18.0250 Y-32.2758 
G01 X17.9824 Y-32.1922 
G01 X17.9264 Y-32.0198 
G01 X17.8980 Y-31.8407 
G01 X17.8980 Y-31.6593 
G01 X17.9264 Y-31.4802 
G01 X17.9824 Y-31.3078 
G01 X18.0250 Y-31.2242 
G01 X18.0250 Y-30.1112 
G01 X18.0516 Y-30.0120 
G01 X18.1029 Y-29.9230 
G01 X18.1755 Y-29.8504 
G01 X18.2645 Y-29.7991 
G01 X18.3637 Y-29.7725 
G01 X19.7363 Y-29.7725 
G01 X16.6508 Y-25.0930 
G01 X16.6193 Y-25.0460 
G01 X16.6186 Y-25.0443 
G01 X16.6176 Y-25.0428 
G01 X16.5962 Y-24.9902 
G01 X16.5746 Y-24.9380 
G01 X16.5742 Y-24.9363 
G01 X16.5736 Y-24.9346 
G01 X16.5628 Y-24.8788 
G01 X16.5518 Y-24.8234 
G01 X16.5518 Y-24.8216 
G01 X16.5515 Y-24.8199 
G01 X16.5518 Y-24.7633 
G01 X16.5518 Y-20.1346 
G01 X16.5746 Y-20.0200 
G01 X16.6193 Y-19.9120 
G01 X16.6782 Y-19.8239 
G01 X16.6865 Y-19.7905 
G01 X16.6832 Y-19.7775 
G01 X16.6764 Y-19.6608 
G01 X16.6926 Y-19.5451 
G01 X16.7310 Y-19.4348 
G01 X16.7902 Y-19.3340 
G01 X16.8680 Y-19.2468 
G01 X16.9612 Y-19.1764 
G01 X18.4997 Y-18.4326 
G01 X18.9423 Y-17.9900 
G01 X18.9320 Y-17.9381 
G01 X18.9320 Y-17.7411 
G01 X18.9704 Y-17.5480 
G01 X19.0458 Y-17.3661 
G01 X19.1552 Y-17.2024 
G01 X19.2944 Y-17.0632 
G01 X19.4581 Y-16.9538 
G01 X19.6400 Y-16.8784 
G01 X19.8331 Y-16.8400 
G01 X20.0301 Y-16.8400 
G01 X20.2232 Y-16.8784 
G01 X20.4051 Y-16.9538 
G01 X20.5688 Y-17.0632 
G01 X20.7080 Y-17.2024 
G01 X20.8174 Y-17.3661 
G01 X20.8928 Y-17.5480 
G01 X20.9312 Y-17.7411 
G01 X20.9312 Y-17.9381 
G01 X20.8928 Y-18.1312 
G01 X20.8174 Y-18.3131 
G01 X20.7080 Y-18.4768 
G01 X20.5688 Y-18.6160 
G01 X20.4051 Y-18.7254 
G01 X20.2232 Y-18.8008 
G01 X20.0301 Y-18.8392 
G01 X19.8331 Y-18.8392 
G01 X19.7812 Y-18.8289 
G01 X19.2798 Y-19.3303 
G01 X19.2522 Y-19.3612 
G01 X19.2385 Y-19.3716 
G01 X19.2263 Y-19.3838 
G01 X19.1920 Y-19.4067 
G01 X19.1590 Y-19.4316 
G01 X19.1435 Y-19.4391 
G01 X19.1292 Y-19.4487 
G01 X19.0910 Y-19.4645 
G01 X17.7353 Y-20.1199 
G01 X17.7382 Y-20.1346 
G01 X17.7382 Y-22.0613 
G01 X17.7446 Y-22.0459 
G01 X17.8540 Y-21.8822 
G01 X17.9932 Y-21.7430 
G01 X18.1569 Y-21.6336 
G01 X18.3388 Y-21.5582 
G01 X18.5319 Y-21.5198 
G01 X18.7289 Y-21.5198 
G01 X18.9220 Y-21.5582 
G01 X19.1039 Y-21.6336 
G01 X19.2676 Y-21.7430 
G01 X19.4068 Y-21.8822 
G01 X19.5162 Y-22.0459 
G01 X19.5916 Y-22.2278 
G01 X19.6300 Y-22.4209 
G01 X19.6300 Y-22.5377 
G01 X21.6917 Y-24.1163 
G01 X21.7689 Y-24.2041 
G01 X21.8274 Y-24.3052 
G01 X21.8651 Y-24.4158 
G01 X21.8804 Y-24.5317 
G01 X21.8729 Y-24.6483 
G01 X21.8428 Y-24.7612 
G01 X21.8274 Y-24.7925 
G01 X21.9002 Y-31.4255 
G01 X21.9334 Y-31.5056 
G01 X21.9562 Y-31.6202 
G01 X21.9562 Y-43.2018 
G01 X21.9576 Y-43.2098 
G01 X21.9562 Y-43.2602 
G01 X21.9562 Y-43.3106 
G01 X21.9546 Y-43.3185 
G01 X21.9544 Y-43.3266 
G01 X21.9432 Y-43.3758 
G01 X21.9334 Y-43.4252 
G01 X21.9303 Y-43.4327 
G01 X21.9285 Y-43.4406 
G01 X21.9080 Y-43.4866 
G01 X21.8887 Y-43.5332 
G01 X21.8842 Y-43.5399 
G01 X21.8809 Y-43.5473 
G01 X21.8517 Y-43.5885 
G01 X21.8238 Y-43.6303 
G01 X21.8181 Y-43.6360 
G01 X21.8134 Y-43.6426 
G01 X21.7768 Y-43.6773 
G01 X21.7411 Y-43.7130 
G01 X21.7344 Y-43.7175 
G01 X21.7286 Y-43.7230 
G01 X21.6859 Y-43.7499 
G01 X21.6440 Y-43.7779 
G01 X21.6365 Y-43.7810 
G01 X20.4509 Y-44.5277 
G01 X20.4090 Y-44.5557 
G01 X20.4015 Y-44.5588 
G01 X20.3947 Y-44.5631 
G01 X20.3476 Y-44.5811 
G01 X20.3010 Y-44.6004 
G01 X20.2931 Y-44.6020 
G01 X20.2856 Y-44.6049 
G01 X20.2358 Y-44.6134 
G01 X20.1864 Y-44.6232 
G01 X20.1783 Y-44.6232 
G01 X20.1704 Y-44.6246 
G01 X20.1200 Y-44.6232 
G01 X10.7604 Y-44.6232 
G01 X10.6458 Y-44.6004 
G01 X10.5378 Y-44.5557 
G01 X10.4407 Y-44.4908 
G01 X9.7739 Y-43.8240 
G01 X8.9952 Y-43.8240 
G01 X8.6807 Y-43.5095 
G01 X8.6505 Y-43.4921 
G01 X8.5779 Y-43.4195 
G01 X8.5605 Y-43.3893 
G01 X8.2550 Y-43.0838 
G01 X7.9495 Y-43.3893 
G01 X7.9321 Y-43.4195 
G01 X7.8595 Y-43.4921 
G01 X7.8293 Y-43.5095 
G01 X7.5148 Y-43.8240 
G01 X6.4552 Y-43.8240 
G01 X6.1407 Y-43.5095 
G01 X6.1105 Y-43.4921 
G01 X6.0379 Y-43.4195 
G01 X6.0205 Y-43.3893 
G01 X5.7150 Y-43.0838 
G01 X5.4095 Y-43.3893 
G01 X5.3921 Y-43.4195 
G01 X5.3195 Y-43.4921 
G01 X5.2893 Y-43.5095 
G01 X4.9748 Y-43.8240 
G01 X3.9152 Y-43.8240 
G01 X3.6007 Y-43.5095 
G01 X3.5705 Y-43.4921 
G01 X3.4979 Y-43.4195 
G01 X3.4805 Y-43.3893 
G01 X3.1750 Y-43.0838 
G01 X2.8695 Y-43.3893 
G01 X2.8521 Y-43.4195 
G01 X2.7795 Y-43.4921 
G01 X2.7493 Y-43.5095 
G01 X2.4348 Y-43.8240 
G01 X1.3752 Y-43.8240 
G01 X1.0607 Y-43.5095 
G01 X1.0305 Y-43.4921 
G01 X0.9579 Y-43.4195 
G01 X0.9405 Y-43.3893 
G01 X0.6260 Y-43.0748 
G01 X0.6260 Y-42.0152 
G01 X0.8800 Y-41.7612 
G01 X0.8800 Y-41.2237 
G01 X0.9066 Y-41.1245 
G01 X0.9579 Y-41.0355 
G01 X1.0305 Y-40.9629 
G01 X1.1195 Y-40.9116 
G01 X1.2187 Y-40.8850 
G01 X2.5913 Y-40.8850 
G01 X2.6905 Y-40.9116 
G01 X2.7795 Y-40.9629 
G01 X2.8521 Y-41.0355 
G01 X2.8890 Y-41.0996 
G01 X2.3842 Y-40.1070 
G01 X2.3713 Y-40.0877 
G01 X2.3578 Y-40.0550 
G01 X2.3418 Y-40.0235 
G01 X2.3355 Y-40.0012 
G01 X2.3266 Y-39.9797 
G01 X2.3197 Y-39.9451 
G01 X2.3101 Y-39.9111 
G01 X2.3083 Y-39.8879 
G01 X2.3038 Y-39.8651 
G01 X2.3038 Y-39.8298 
G01 X2.3011 Y-39.7946 
G01 X2.3038 Y-39.7715 
G01 X2.3038 Y-29.3588 
G01 X2.2598 Y-29.3294 
G01 X2.1206 Y-29.1902 
G01 X2.0112 Y-29.0265 
G01 X1.9358 Y-28.8446 
G01 X1.8974 Y-28.6515 
G01 X1.8974 Y-28.4545 
G01 X1.9358 Y-28.2614 
G01 X2.0112 Y-28.0795 
G01 X2.1186 Y-27.9188 
G01 X2.1101 Y-27.9244 
G01 X1.9282 Y-27.9998 
G01 X1.7351 Y-28.0382 
G01 X1.5381 Y-28.0382 
G01 X1.3450 Y-27.9998 
G01 X1.1631 Y-27.9244 
G01 X0.9994 Y-27.8150 
G01 X0.8602 Y-27.6758 
G01 X0.7508 Y-27.5121 
G01 X0.6754 Y-27.3302 
G01 X0.6370 Y-27.1371 
G01 X0.6370 Y-26.9401 
G01 X0.6754 Y-26.7470 
G01 X0.6876 Y-26.7177 
G01 X-0.1384 Y-25.5387 
G01 X-0.1855 Y-25.4317 
G01 X-0.2108 Y-25.3177 
G01 X-0.2133 Y-25.2008 
G01 X-0.1931 Y-25.0858 
G01 X-0.1614 Y-25.0043 
G01 X-0.1614 Y-19.8044 
G01 X-0.1632 Y-19.8013 
G01 X-0.2002 Y-19.6904 
G01 X-0.2148 Y-19.5745 
G01 X-0.2066 Y-19.4579 
G01 X-0.1758 Y-19.3452 
G01 X-0.1236 Y-19.2407 
G01 X-0.0520 Y-19.1483 
G01 X0.0362 Y-19.0717 
G00 Z1.0000 
G00 X2.6362 Y-26.9814 
G01 Z-0.0700 F50.80 
G01 X2.6362 Y-27.1371 F101.60 
G01 X2.5978 Y-27.3302 
G01 X2.5224 Y-27.5121 
G01 X2.4150 Y-27.6728 
G01 X2.4235 Y-27.6672 
G01 X2.6054 Y-27.5918 
G01 X2.7985 Y-27.5534 
G01 X2.9955 Y-27.5534 
G01 X3.1886 Y-27.5918 
G01 X3.2453 Y-27.6153 
G01 X2.6362 Y-26.9814 
G00 Z1.0000 
G00 X3.7489 Y-29.0772 
G01 Z-0.0700 F50.80 
G01 X3.6734 Y-29.1902 F101.60 
G01 X3.5342 Y-29.3294 
G01 X3.4902 Y-29.3588 
G01 X3.4902 Y-39.6645 
G01 X4.1109 Y-40.8850 
G01 X4.7536 Y-40.8850 
G01 X4.0170 Y-39.9477 
G01 X3.9993 Y-39.9297 
G01 X3.9810 Y-39.9019 
G01 X3.9604 Y-39.8757 
G01 X3.9489 Y-39.8532 
G01 X3.9351 Y-39.8321 
G01 X3.9226 Y-39.8012 
G01 X3.9075 Y-39.7715 
G01 X3.9007 Y-39.7472 
G01 X3.8912 Y-39.7238 
G01 X3.8849 Y-39.6910 
G01 X3.8760 Y-39.6590 
G01 X3.8740 Y-39.6338 
G01 X3.8693 Y-39.6090 
G01 X3.8695 Y-39.5757 
G01 X3.8670 Y-39.5425 
G01 X3.8700 Y-39.5174 
G01 X3.9452 Y-29.6718 
G01 X3.7489 Y-29.0772 
G00 Z1.0000 
G00 X5.0857 Y-35.6759 
G01 Z-0.0700 F50.80 
G01 X5.0615 Y-38.8542 F101.60 
G01 X5.1350 Y-38.7442 
G01 X5.2169 Y-38.6622 
G01 X5.1963 Y-38.5758 
G01 X5.0857 Y-35.6759 
G00 Z1.0000 
G00 X5.8664 Y-40.3810 
G01 Z-0.0700 F50.80 
G01 X6.2688 Y-40.8930 F101.60 
G01 X6.2987 Y-40.8850 
G01 X7.6713 Y-40.8850 
G01 X7.7705 Y-40.9116 
G01 X7.8595 Y-40.9629 
G01 X7.9321 Y-41.0355 
G01 X7.9834 Y-41.1245 
G01 X8.0100 Y-41.2237 
G01 X8.0100 Y-41.7612 
G01 X8.2550 Y-42.0062 
G01 X8.5000 Y-41.7612 
G01 X8.5000 Y-41.2237 
G01 X8.5266 Y-41.1245 
G01 X8.5779 Y-41.0355 
G01 X8.6505 Y-40.9629 
G01 X8.7395 Y-40.9116 
G01 X8.8387 Y-40.8850 
G01 X10.2113 Y-40.8850 
G01 X10.3105 Y-40.9116 
G01 X10.3995 Y-40.9629 
G01 X10.4721 Y-41.0355 
G01 X10.5234 Y-41.1245 
G01 X10.5500 Y-41.2237 
G01 X10.5500 Y-41.7612 
G01 X10.7950 Y-42.0062 
G01 X11.0400 Y-41.7612 
G01 X11.0400 Y-41.2237 
G01 X11.0666 Y-41.1245 
G01 X11.1179 Y-41.0355 
G01 X11.1905 Y-40.9629 
G01 X11.2795 Y-40.9116 
G01 X11.3787 Y-40.8850 
G01 X12.7513 Y-40.8850 
G01 X12.8505 Y-40.9116 
G01 X12.9395 Y-40.9629 
G01 X13.0121 Y-41.0355 
G01 X13.0634 Y-41.1245 
G01 X13.0900 Y-41.2237 
G01 X13.0900 Y-41.7612 
G01 X13.3350 Y-42.0062 
G01 X13.5800 Y-41.7612 
G01 X13.5800 Y-41.2237 
G01 X13.6066 Y-41.1245 
G01 X13.6579 Y-41.0355 
G01 X13.7305 Y-40.9629 
G01 X13.8195 Y-40.9116 
G01 X13.9187 Y-40.8850 
G01 X15.2913 Y-40.8850 
G01 X15.3905 Y-40.9116 
G01 X15.4795 Y-40.9629 
G01 X15.5521 Y-41.0355 
G01 X15.6034 Y-41.1245 
G01 X15.6300 Y-41.2237 
G01 X15.6300 Y-41.7612 
G01 X15.8750 Y-42.0062 
G01 X16.1200 Y-41.7612 
G01 X16.1200 Y-41.2237 
G01 X16.1466 Y-41.1245 
G01 X16.1979 Y-41.0355 
G01 X16.2705 Y-40.9629 
G01 X16.3595 Y-40.9116 
G01 X16.4587 Y-40.8850 
G01 X17.8313 Y-40.8850 
G01 X17.9305 Y-40.9116 
G01 X18.0195 Y-40.9629 
G01 X18.0921 Y-41.0355 
G01 X18.1434 Y-41.1245 
G01 X18.1700 Y-41.2237 
G01 X18.1700 Y-41.7612 
G01 X18.4150 Y-42.0062 
G01 X18.6600 Y-41.7612 
G01 X18.6600 Y-41.4917 
G01 X18.3513 Y-40.2206 
G01 X18.3457 Y-40.2071 
G01 X18.3352 Y-40.1542 
G01 X18.3225 Y-40.1019 
G01 X18.3219 Y-40.0872 
G01 X18.3197 Y-40.0762 
G01 X6.6302 Y-40.0762 
G01 X6.5486 Y-40.1578 
G01 X6.3849 Y-40.2672 
G01 X6.2030 Y-40.3426 
G01 X6.0099 Y-40.3810 
G01 X5.8664 Y-40.3810 
G00 Z1.0000 
G00 X2.9053 Y-41.1316 
G01 Z-0.0700 F50.80 
G01 X2.9300 Y-41.2237 F101.60 
G01 X2.9300 Y-41.7612 
G01 X3.1750 Y-42.0062 
G01 X3.2911 Y-41.8901 
G01 X2.9053 Y-41.1316 
G00 Z1.0000 
G00 X10.7950 Y-43.0838 
G01 Z-0.0700 F50.80 
G01 X10.7532 Y-43.1255 F101.60 
G01 X11.0645 Y-43.4368 
G01 X11.1353 Y-43.4368 
G01 X11.1179 Y-43.4195 
G01 X11.1005 Y-43.3893 
G01 X10.7950 Y-43.0838 
G00 Z1.0000 
G00 X13.3350 Y-43.0838 
G01 Z-0.0700 F50.80 
G01 X13.0295 Y-43.3893 F101.60 
G01 X13.0121 Y-43.4195 
G01 X12.9947 Y-43.4368 
G01 X13.6753 Y-43.4368 
G01 X13.6579 Y-43.4195 
G01 X13.6405 Y-43.3893 
G01 X13.3350 Y-43.0838 
G00 Z1.0000 
G00 X15.8750 Y-43.0838 
G01 Z-0.0700 F50.80 
G01 X15.5695 Y-43.3893 F101.60 
G01 X15.5521 Y-43.4195 
G01 X15.5347 Y-43.4368 
G01 X16.2153 Y-43.4368 
G01 X16.1979 Y-43.4195 
G01 X16.1805 Y-43.3893 
G01 X15.8750 Y-43.0838 
G00 Z1.0000 
G00 X18.4150 Y-43.0838 
G01 Z-0.0700 F50.80 
G01 X18.1095 Y-43.3893 F101.60 
G01 X18.0921 Y-43.4195 
G01 X18.0747 Y-43.4368 
G01 X18.7553 Y-43.4368 
G01 X18.7379 Y-43.4195 
G01 X18.7205 Y-43.3893 
G01 X18.4150 Y-43.0838 
G00 Z1.0000 
G00 X17.4571 Y-32.6245 
G01 Z-0.0700 F50.80 
G01 X17.3845 Y-32.6971 F101.60 
G01 X17.2955 Y-32.7484 
G01 X17.1963 Y-32.7750 
G01 X17.1142 Y-32.7750 
G01 X16.9872 Y-32.9020 
G01 X16.0328 Y-32.9020 
G01 X15.9058 Y-32.7750 
G01 X15.8237 Y-32.7750 
G01 X15.7245 Y-32.7484 
G01 X15.6355 Y-32.6971 
G01 X15.5629 Y-32.6245 
G01 X15.5116 Y-32.5355 
G01 X15.4850 Y-32.4363 
G01 X15.4850 Y-32.3542 
G01 X15.3580 Y-32.2272 
G01 X15.3580 Y-31.2728 
G01 X15.4850 Y-31.1458 
G01 X15.4850 Y-30.1112 
G01 X15.5116 Y-30.0120 
G01 X15.5629 Y-29.9230 
G01 X15.6355 Y-29.8504 
G01 X15.7245 Y-29.7991 
G01 X15.8237 Y-29.7725 
G01 X17.1963 Y-29.7725 
G01 X17.2955 Y-29.7991 
G01 X17.3845 Y-29.8504 
G01 X17.4571 Y-29.9230 
G01 X17.5084 Y-30.0120 
G01 X17.5350 Y-30.1112 
G01 X17.5350 Y-31.1458 
G01 X17.6620 Y-31.2728 
G01 X17.6620 Y-32.2272 
G01 X17.5350 Y-32.3542 
G01 X17.5350 Y-32.4363 
G01 X17.5084 Y-32.5355 
G01 X17.4571 Y-32.6245 
G00 Z1.0000 
G00 X20.7960 Y-29.2234 
G01 Z-0.0700 F50.80 
G01 X20.7484 Y-24.8882 F101.60 
G01 X18.9124 Y-23.4825 
G01 X18.7289 Y-23.5190 
G01 X18.5319 Y-23.5190 
G01 X18.3388 Y-23.4806 
G01 X18.1569 Y-23.4052 
G01 X17.9932 Y-23.2958 
G01 X17.8540 Y-23.1566 
G01 X17.7446 Y-22.9929 
G01 X17.7382 Y-22.9775 
G01 X17.7382 Y-24.5870 
G01 X20.7960 Y-29.2234 
G00 Z1.0000 
G00 Z5.0000 
M05
M02
