(.../EAGLE-7.2.0/ulp/pcb-gcode/pcb-gcode.ulp)
(Copyright 2005 - 2012 by John Johnson)
(See readme.txt for licensing terms.)
(This file generated from the board:)
(.../EAGLE-7.2.0/projects/usb328/usb328.brd)
(Current profile is .../pcb-gcode/profiles/generic.pp  )
(This file generated 2018/12/02 11:08:12)
(Settings from pcb-machine.h)
(spindle on time = 3.0000)
(spindle speed = 1000.0000)
(tool change at 0.0000 0.0000 5.0000 )
(feed rate xy = F0.00  )
(feed rate z  = F254.00 )
(Z Axis Settings)
(  High     Up        Down     Drill)
(5.0000 	1.0000 	-0.0750 	-1.7000 )
(Settings from pcb-defaults.h)
(isolate min = 0.0200)
(isolate max = 0.1000)
(isolate step = 0.1500)
(Generated top outlines, bottom outlines, bottom drill, )
(Unit of measure: mm)
( Tool|       Size       |  Min Sub |  Max Sub |   Count )
( T01  0.600mm 0.0236in 0.0000in 0.0000in )
( T02  0.610mm 0.0240in 0.0000in 0.0000in )
(Metric Mode)
G21
(Absolute Coordinates)
G90
S1000
G00 Z5.0000 
G00 X0.0000 Y0.0000 
M03
G04 P3.000000
M05
M06 T01  ; 0.6000 
G00 Z1.0000 
M03
G04 P3.000000
G00 Z0.999998
G00 X-0.9207 Y7.9692 
G01 Z-1.7000 F254.00 
G01 Z0.999998
(R1.0000  P1.000000)
G00 X-6.3500 Y5.1753 
G01 Z-1.700000
G01 Z0.999998
G00 X-7.3978 Y4.0640 
G01 Z-1.700000
G01 Z0.999998
G00 X-8.8900 Y4.4450 
G01 Z-1.700000
G01 Z0.999998
M05
G00 Z5.0000 
G00 X0.0000 Y0.0000 
M06 T02  ; 0.6096 
G00 Z1.0000 
M03
G04 P3.000000
G00 Z0.999998
G00 X-4.9212 Y16.3513 
G01 Z-1.7000 F254.00 
G01 Z0.999998
(R1.0000  P1.000000)
G00 X-10.6680 Y15.1765 
G01 Z-1.700000
G01 Z0.999998
G00 X-10.3823 Y13.8430 
G01 Z-1.700000
G01 Z0.999998
G00 X-10.1918 Y7.5565 
G01 Z-1.700000
G01 Z0.999998
G00 X-22.4473 Y9.0488 
G01 Z-1.700000
G01 Z0.999998
G00 X-22.8600 Y11.8110 
G01 Z-1.700000
G01 Z0.999998
G00 X-23.0188 Y13.7795 
G01 Z-1.700000
G01 Z0.999998
T01 
G00 Z5.0000 
M05
M02
