(.../EAGLE-7.2.0/ulp/pcb-gcode/pcb-gcode.ulp)
(Copyright 2005 - 2012 by John Johnson)
(See readme.txt for licensing terms.)
(This file generated from the board:)
(.../EAGLE-7.2.0/projects/usb328/usb328.brd)
(Current profile is .../pcb-gcode/profiles/generic.pp  )
(This file generated 2018/12/02 10:50:28)
(Settings from pcb-machine.h)
(spindle on time = 3.0000)
(  Tool Size)
(0.1400 )
(spindle speed = 1000.0000)
(tool change at 0.0000 0.0000 5.0000 )
(feed rate xy = F101.60 )
(feed rate z  = F50.80 )
(Z Axis Settings)
(  High     Up        Down     Drill)
(5.0000 	1.0000 	-0.0750 	-1.7000 )
(Settings from pcb-defaults.h)
(isolate min = 0.0200)
(isolate max = 0.1000)
(isolate step = 0.1500)
(Generated top outlines, bottom outlines, bottom drill, )
(Unit of measure: mm)
(Metric Mode)
G21
(Absolute Coordinates)
G90
S1000
G00 Z5.0000 
G00 X0.0000 Y0.0000 
M03
G04 P3.000000
G00 Z1.0000 
G00 X-1.0425 Y-0.0306 
G01 Z-0.0750 F50.80 
G01 X-1.0425 Y1.9356 F101.60 
G01 X-1.0288 Y1.9687 
G01 X-1.0035 Y1.9940 
G01 X-0.9704 Y2.0077 
G01 X2.8754 Y2.0077 
G01 X2.9085 Y1.9940 
G01 X2.9338 Y1.9687 
G01 X2.9475 Y1.9356 
G01 X2.9475 Y1.2457 
G01 X7.4985 Y1.2457 
G01 X7.9873 Y1.7345 
G01 X8.4917 Y4.0044 
G01 X8.4292 Y4.0669 
G01 X8.3643 Y4.1640 
G01 X8.3196 Y4.2720 
G01 X8.2968 Y4.3866 
G01 X8.2968 Y4.5034 
G01 X8.3196 Y4.6180 
G01 X8.3643 Y4.7260 
G01 X8.4292 Y4.8231 
G01 X8.5119 Y4.9058 
G01 X8.6090 Y4.9707 
G01 X8.7170 Y5.0154 
G01 X8.8316 Y5.0382 
G01 X8.9484 Y5.0382 
G01 X9.0630 Y5.0154 
G01 X9.1710 Y4.9707 
G01 X9.2681 Y4.9058 
G01 X9.3508 Y4.8231 
G01 X9.4157 Y4.7260 
G01 X9.4604 Y4.6180 
G01 X9.4832 Y4.5034 
G01 X9.4832 Y4.3866 
G01 X9.4604 Y4.2720 
G01 X9.4157 Y4.1640 
G01 X9.3508 Y4.0669 
G01 X9.2681 Y3.9842 
G01 X9.1710 Y3.9193 
G01 X9.0636 Y3.8749 
G01 X8.5482 Y1.5553 
G01 X8.5482 Y1.5489 
G01 X8.5398 Y1.5177 
G01 X8.5328 Y1.4862 
G01 X8.5299 Y1.4805 
G01 X8.5282 Y1.4743 
G01 X8.5121 Y1.4464 
G01 X8.4972 Y1.4178 
G01 X8.4928 Y1.4130 
G01 X8.4896 Y1.4075 
G01 X8.4668 Y1.3846 
G01 X8.4450 Y1.3609 
G01 X8.4396 Y1.3574 
G01 X7.8546 Y0.7725 
G01 X7.8000 Y0.7179 
G01 X7.7332 Y0.6793 
G01 X7.6586 Y0.6593 
G01 X2.9475 Y0.6593 
G01 X2.9475 Y-0.0306 
G01 X2.9338 Y-0.0637 
G01 X2.9085 Y-0.0890 
G01 X2.8754 Y-0.1027 
G01 X-0.9704 Y-0.1027 
G01 X-1.0035 Y-0.0890 
G01 X-1.0288 Y-0.0637 
G01 X-1.0425 Y-0.0306 
G00 Z1.0000 
G00 X-1.0288 Y2.4763 
G01 Z-0.0750 F50.80 
G01 X-1.0425 Y2.5094 F101.60 
G01 X-1.0425 Y4.4756 
G01 X-1.0288 Y4.5087 
G01 X-1.0035 Y4.5340 
G01 X-0.9704 Y4.5477 
G01 X2.8754 Y4.5477 
G01 X2.9085 Y4.5340 
G01 X2.9338 Y4.5087 
G01 X2.9475 Y4.4756 
G01 X2.9475 Y3.7857 
G01 X5.3564 Y3.7857 
G01 X6.8208 Y4.2041 
G01 X6.8273 Y4.2370 
G01 X6.8721 Y4.3450 
G01 X6.9370 Y4.4421 
G01 X7.0196 Y4.5248 
G01 X7.1168 Y4.5897 
G01 X7.2247 Y4.6344 
G01 X7.3393 Y4.6572 
G01 X7.4562 Y4.6572 
G01 X7.5708 Y4.6344 
G01 X7.6787 Y4.5897 
G01 X7.7759 Y4.5248 
G01 X7.8585 Y4.4421 
G01 X7.9234 Y4.3450 
G01 X7.9681 Y4.2370 
G01 X7.9909 Y4.1224 
G01 X7.9909 Y4.0056 
G01 X7.9681 Y3.8910 
G01 X7.9234 Y3.7830 
G01 X7.8585 Y3.6859 
G01 X7.7759 Y3.6032 
G01 X7.6787 Y3.5383 
G01 X7.5708 Y3.4936 
G01 X7.4562 Y3.4708 
G01 X7.3393 Y3.4708 
G01 X7.2247 Y3.4936 
G01 X7.1168 Y3.5383 
G01 X7.0196 Y3.6032 
G01 X6.9824 Y3.6404 
G01 X5.5128 Y3.2205 
G01 X5.5107 Y3.2193 
G01 X5.4756 Y3.2099 
G01 X5.4409 Y3.2000 
G01 X5.4385 Y3.1999 
G01 X5.4361 Y3.1993 
G01 X5.3999 Y3.1993 
G01 X5.3637 Y3.1987 
G01 X5.3614 Y3.1993 
G01 X2.9475 Y3.1993 
G01 X2.9475 Y2.5094 
G01 X2.9338 Y2.4763 
G01 X2.9085 Y2.4510 
G01 X2.8754 Y2.4373 
G01 X-0.9704 Y2.4373 
G01 X-1.0035 Y2.4510 
G01 X-1.0288 Y2.4763 
G00 Z1.0000 
G00 X-1.0288 Y5.0163 
G01 Z-0.0750 F50.80 
G01 X-1.0425 Y5.0494 F101.60 
G01 X-1.0425 Y7.0156 
G01 X-1.0288 Y7.0487 
G01 X-1.0035 Y7.0740 
G01 X-0.9704 Y7.0877 
G01 X2.8754 Y7.0877 
G01 X2.9085 Y7.0740 
G01 X2.9338 Y7.0487 
G01 X2.9475 Y7.0156 
G01 X2.9475 Y6.3119 
G01 X2.9707 Y6.3057 
G01 X3.0375 Y6.2671 
G01 X3.0921 Y6.2125 
G01 X3.9269 Y5.3778 
G01 X5.8212 Y5.4488 
G01 X5.8243 Y5.4562 
G01 X5.8892 Y5.5534 
G01 X5.9719 Y5.6360 
G01 X6.0690 Y5.7009 
G01 X6.1770 Y5.7457 
G01 X6.2916 Y5.7684 
G01 X6.4084 Y5.7684 
G01 X6.5230 Y5.7457 
G01 X6.6310 Y5.7009 
G01 X6.7281 Y5.6360 
G01 X6.8108 Y5.5534 
G01 X6.8757 Y5.4562 
G01 X6.9204 Y5.3483 
G01 X6.9432 Y5.2337 
G01 X6.9432 Y5.1168 
G01 X6.9204 Y5.0022 
G01 X6.8757 Y4.8943 
G01 X6.8108 Y4.7971 
G01 X6.7281 Y4.7145 
G01 X6.6310 Y4.6496 
G01 X6.5230 Y4.6048 
G01 X6.4084 Y4.5820 
G01 X6.2916 Y4.5820 
G01 X6.1770 Y4.6048 
G01 X6.0690 Y4.6496 
G01 X5.9719 Y4.7145 
G01 X5.8892 Y4.7971 
G01 X5.8453 Y4.8629 
G01 X3.8540 Y4.7882 
G01 X3.8486 Y4.7868 
G01 X3.8155 Y4.7868 
G01 X3.7824 Y4.7856 
G01 X3.7770 Y4.7868 
G01 X3.7714 Y4.7868 
G01 X3.7394 Y4.7954 
G01 X3.7071 Y4.8027 
G01 X3.7022 Y4.8053 
G01 X3.6968 Y4.8068 
G01 X3.6682 Y4.8233 
G01 X3.6389 Y4.8388 
G01 X3.6348 Y4.8426 
G01 X3.6300 Y4.8454 
G01 X3.6066 Y4.8688 
G01 X3.5823 Y4.8913 
G01 X3.5793 Y4.8960 
G01 X2.9475 Y5.5279 
G01 X2.9475 Y5.0494 
G01 X2.9338 Y5.0163 
G01 X2.9085 Y4.9910 
G01 X2.8754 Y4.9773 
G01 X-0.9704 Y4.9773 
G01 X-1.0035 Y4.9910 
G01 X-1.0288 Y5.0163 
G00 Z1.0000 
G00 X0.4600 Y7.5911 
G01 Z-0.0750 F50.80 
G01 X0.3951 Y7.6883 F101.60 
G01 X0.3503 Y7.7962 
G01 X0.3276 Y7.9108 
G01 X0.3276 Y8.0277 
G01 X0.3503 Y8.1423 
G01 X0.3951 Y8.2502 
G01 X0.4600 Y8.3474 
G01 X0.5316 Y8.4190 
G01 X-0.0814 Y8.4190 
G01 X-0.1145 Y8.4327 
G01 X-0.1398 Y8.4580 
G01 X-0.1535 Y8.4911 
G01 X-0.1535 Y18.3694 
G01 X-0.1398 Y18.4025 
G01 X-0.1145 Y18.4278 
G01 X-0.0814 Y18.4415 
G01 X2.8754 Y18.4415 
G01 X2.9085 Y18.4278 
G01 X2.9338 Y18.4025 
G01 X2.9475 Y18.3694 
G01 X2.9475 Y12.3645 
G01 X3.1203 Y12.3645 
G01 X3.1373 Y12.3815 
G01 X3.1703 Y12.3952 
G01 X3.7583 Y12.3952 
G01 X3.7649 Y12.3976 
G01 X3.7751 Y12.4035 
G01 X3.8011 Y12.4104 
G01 X3.8265 Y12.4195 
G01 X3.8382 Y12.4204 
G01 X3.8496 Y12.4234 
G01 X3.8766 Y12.4234 
G01 X3.9034 Y12.4256 
G01 X3.9150 Y12.4234 
G01 X3.9268 Y12.4234 
G01 X3.9529 Y12.4165 
G01 X3.9794 Y12.4116 
G01 X3.9900 Y12.4065 
G01 X4.0014 Y12.4035 
G01 X4.0157 Y12.3952 
G01 X4.6062 Y12.3952 
G01 X4.6392 Y12.3815 
G01 X4.6645 Y12.3562 
G01 X4.6782 Y12.3232 
G01 X4.6782 Y11.9373 
G01 X4.6645 Y11.9043 
G01 X4.6392 Y11.8789 
G01 X4.6302 Y11.8752 
G01 X4.6302 Y11.5839 
G01 X5.7440 Y6.7130 
G01 X9.9992 Y6.7130 
G01 X10.0076 Y6.7179 
G01 X10.1080 Y6.7448 
G01 X10.9490 Y6.7448 
G01 X11.5502 Y7.3460 
G01 X10.9525 Y8.0154 
G01 X10.9236 Y8.0443 
G01 X10.9179 Y8.0541 
G01 X10.9104 Y8.0626 
G01 X10.8920 Y8.0990 
G01 X10.8716 Y8.1344 
G01 X10.8687 Y8.1453 
G01 X10.8636 Y8.1554 
G01 X10.8553 Y8.1954 
G01 X10.8447 Y8.2348 
G01 X10.8447 Y8.2461 
G01 X10.8424 Y8.2572 
G01 X10.8430 Y8.2686 
G01 X9.1972 Y9.9144 
G01 X9.1972 Y9.4270 
G01 X9.1835 Y9.3939 
G01 X9.1582 Y9.3686 
G01 X9.1251 Y9.3549 
G01 X8.2893 Y9.3549 
G01 X8.2562 Y9.3686 
G01 X8.2309 Y9.3939 
G01 X8.2172 Y9.4270 
G01 X8.2172 Y10.5628 
G01 X8.2309 Y10.5959 
G01 X8.2562 Y10.6212 
G01 X8.2893 Y10.6349 
G01 X8.5683 Y10.6349 
G01 X8.5683 Y11.7615 
G01 X8.5306 Y11.7615 
G01 X8.4975 Y11.7752 
G01 X8.4722 Y11.8006 
G01 X8.4585 Y11.8336 
G01 X8.4585 Y12.9695 
G01 X8.4722 Y13.0025 
G01 X8.4975 Y13.0278 
G01 X8.5306 Y13.0415 
G01 X9.3664 Y13.0415 
G01 X9.3995 Y13.0278 
G01 X9.4248 Y13.0025 
G01 X9.4385 Y12.9695 
G01 X9.4385 Y11.8336 
G01 X9.4248 Y11.8006 
G01 X9.3995 Y11.7752 
G01 X9.3664 Y11.7615 
G01 X9.2149 Y11.7615 
G01 X9.2149 Y10.7259 
G01 X11.1677 Y8.7732 
G01 X11.9813 Y9.5869 
G01 X12.0325 Y9.6164 
G01 X12.7949 Y10.3788 
G01 X12.8279 Y10.3925 
G01 X12.8532 Y10.3925 
G01 X13.0500 Y10.9239 
G01 X13.0633 Y10.9598 
G01 X13.0763 Y10.9950 
G01 X13.0990 Y11.0270 
G01 X13.1205 Y11.0573 
G01 X13.1505 Y11.0822 
G01 X13.1792 Y11.1061 
G01 X13.2144 Y11.1222 
G01 X13.2486 Y11.1380 
G01 X13.2497 Y11.1383 
G01 X13.2870 Y11.1445 
G01 X13.3239 Y11.1508 
G01 X13.4554 Y11.1726 
G01 X13.4700 Y11.1774 
G01 X13.4929 Y11.1788 
G01 X13.5155 Y11.1826 
G01 X13.5308 Y11.1811 
G01 X13.5462 Y11.1820 
G01 X13.5687 Y11.1774 
G01 X13.5915 Y11.1752 
G01 X13.6059 Y11.1698 
G01 X13.6210 Y11.1667 
G01 X13.6415 Y11.1565 
G01 X13.6630 Y11.1484 
G01 X13.6755 Y11.1395 
G01 X13.6893 Y11.1326 
G01 X13.7065 Y11.1174 
G01 X13.7251 Y11.1040 
G01 X13.7299 Y11.0983 
G01 X14.5583 Y11.0588 
G01 X18.5251 Y14.8412 
G01 X18.5079 Y14.8585 
G01 X18.4942 Y14.8916 
G01 X18.4942 Y14.9274 
G01 X18.5079 Y14.9604 
G01 X19.4312 Y15.8838 
G01 X19.4643 Y15.8975 
G01 X19.5001 Y15.8975 
G01 X19.5332 Y15.8838 
G01 X19.9536 Y15.4633 
G01 X19.9673 Y15.4303 
G01 X19.9673 Y15.3945 
G01 X19.9536 Y15.3614 
G01 X19.0303 Y14.4380 
G01 X18.9972 Y14.4243 
G01 X18.9614 Y14.4243 
G01 X18.9384 Y14.4339 
G01 X14.8937 Y10.5773 
G01 X14.8918 Y10.5743 
G01 X14.8661 Y10.5510 
G01 X14.8410 Y10.5270 
G01 X14.8379 Y10.5253 
G01 X14.8353 Y10.5230 
G01 X14.8045 Y10.5071 
G01 X14.7740 Y10.4904 
G01 X14.7706 Y10.4896 
G01 X14.7675 Y10.4880 
G01 X14.7336 Y10.4806 
G01 X14.6998 Y10.4724 
G01 X14.6963 Y10.4725 
G01 X14.6928 Y10.4718 
G01 X14.6582 Y10.4734 
G01 X14.6234 Y10.4742 
G01 X14.6201 Y10.4752 
G01 X13.5217 Y10.5275 
G01 X13.3126 Y9.9630 
G01 X13.3173 Y9.9584 
G01 X13.3310 Y9.9253 
G01 X13.3310 Y9.8895 
G01 X13.3173 Y9.8564 
G01 X12.5961 Y9.1352 
G01 X12.5916 Y9.1186 
G01 X12.5397 Y9.0286 
G01 X11.7825 Y8.2714 
G01 X12.1244 Y7.8884 
G01 X13.0345 Y8.3557 
G01 X13.9262 Y9.2475 
G01 X13.9593 Y9.2612 
G01 X13.9951 Y9.2612 
G01 X14.0282 Y9.2475 
G01 X14.4486 Y8.8270 
G01 X14.4623 Y8.7939 
G01 X14.4623 Y8.7581 
G01 X14.4486 Y8.7250 
G01 X13.5744 Y7.8508 
G01 X13.5680 Y7.8307 
G01 X13.5116 Y7.7433 
G01 X13.4346 Y7.6735 
G01 X12.4087 Y7.1468 
G01 X12.4011 Y7.1184 
G01 X12.3492 Y7.0283 
G01 X11.4284 Y6.1076 
G01 X11.3549 Y6.0341 
G01 X11.2649 Y5.9821 
G01 X11.1645 Y5.9552 
G01 X10.5548 Y5.9552 
G01 X10.5548 Y5.0204 
G01 X10.9241 Y5.0204 
G01 X10.9572 Y5.0067 
G01 X10.9825 Y4.9814 
G01 X10.9962 Y4.9483 
G01 X10.9962 Y3.5225 
G01 X10.9825 Y3.4895 
G01 X10.9572 Y3.4642 
G01 X10.9241 Y3.4505 
G01 X10.5548 Y3.4505 
G01 X10.5548 Y2.9122 
G01 X10.8289 Y2.9122 
G01 X10.8620 Y2.8985 
G01 X10.8873 Y2.8732 
G01 X10.9010 Y2.8401 
G01 X10.9010 Y1.4143 
G01 X10.8873 Y1.3813 
G01 X10.8620 Y1.3559 
G01 X10.8289 Y1.3422 
G01 X10.5548 Y1.3422 
G01 X10.5548 Y0.8710 
G01 X20.9793 Y0.8710 
G01 X20.9793 Y1.6683 
G01 X20.2798 Y1.6683 
G01 X20.2468 Y1.6820 
G01 X20.2215 Y1.7073 
G01 X20.2078 Y1.7403 
G01 X20.2078 Y3.2761 
G01 X20.2215 Y3.3092 
G01 X20.2468 Y3.3345 
G01 X20.2798 Y3.3482 
G01 X20.9793 Y3.3482 
G01 X20.9793 Y3.8272 
G01 X20.2798 Y3.8272 
G01 X20.2468 Y3.8409 
G01 X20.2215 Y3.8663 
G01 X20.2078 Y3.8993 
G01 X20.2078 Y5.4126 
G01 X19.7679 Y5.8525 
G01 X19.7293 Y5.9193 
G01 X19.7093 Y5.9939 
G01 X19.7093 Y6.5461 
G01 X18.9934 Y7.2619 
G01 X18.9675 Y7.2360 
G01 X18.9344 Y7.2223 
G01 X18.8986 Y7.2223 
G01 X18.8655 Y7.2360 
G01 X17.9422 Y8.1594 
G01 X17.9285 Y8.1924 
G01 X17.9285 Y8.2282 
G01 X17.9422 Y8.2613 
G01 X18.3626 Y8.6818 
G01 X18.3957 Y8.6955 
G01 X18.4315 Y8.6955 
G01 X18.4646 Y8.6818 
G01 X19.3879 Y7.7584 
G01 X19.4016 Y7.7253 
G01 X19.4016 Y7.6895 
G01 X19.3997 Y7.6849 
G01 X20.1825 Y6.9021 
G01 X20.2371 Y6.8475 
G01 X20.2757 Y6.7807 
G01 X20.2957 Y6.7061 
G01 X20.2957 Y6.1539 
G01 X20.8175 Y5.6321 
G01 X20.8721 Y5.5775 
G01 X20.9107 Y5.5107 
G01 X20.9116 Y5.5072 
G01 X21.6156 Y5.5072 
G01 X21.6487 Y5.4935 
G01 X21.6740 Y5.4682 
G01 X21.6877 Y5.4352 
G01 X21.6877 Y4.5850 
G01 X21.6895 Y4.5784 
G01 X21.6895 Y4.5766 
G01 X21.6899 Y4.5749 
G01 X21.6895 Y4.5385 
G01 X21.6895 Y2.6370 
G01 X21.6899 Y2.6006 
G01 X21.6895 Y2.5989 
G01 X21.6895 Y2.5971 
G01 X21.6877 Y2.5905 
G01 X21.6877 Y2.5212 
G01 X21.6895 Y2.5147 
G01 X21.6895 Y2.5044 
G01 X21.6915 Y2.4943 
G01 X21.6895 Y2.4663 
G01 X21.6895 Y1.9621 
G01 X21.6877 Y1.9555 
G01 X21.6877 Y1.7403 
G01 X21.6740 Y1.7073 
G01 X21.6487 Y1.6820 
G01 X21.6156 Y1.6683 
G01 X21.5657 Y1.6683 
G01 X21.5657 Y0.8710 
G01 X26.5352 Y0.8710 
G01 X26.4382 Y1.3128 
G01 X25.9838 Y1.3128 
G01 X25.9508 Y1.3264 
G01 X25.9255 Y1.3518 
G01 X25.9118 Y1.3848 
G01 X25.9118 Y2.5206 
G01 X25.9255 Y2.5537 
G01 X25.9508 Y2.5790 
G01 X25.9838 Y2.5927 
G01 X27.4197 Y2.5927 
G01 X27.4527 Y2.5790 
G01 X27.4780 Y2.5537 
G01 X27.4917 Y2.5206 
G01 X27.4917 Y1.3848 
G01 X27.4780 Y1.3518 
G01 X27.4527 Y1.3264 
G01 X27.4197 Y1.3128 
G01 X27.2466 Y1.3128 
G01 X27.3437 Y0.8710 
G01 X27.8627 Y0.8710 
G01 X27.8627 Y5.5372 
G01 X27.3012 Y5.6484 
G01 X27.3012 Y5.6393 
G01 X27.2875 Y5.6063 
G01 X27.2622 Y5.5809 
G01 X27.2292 Y5.5672 
G01 X25.7933 Y5.5672 
G01 X25.7603 Y5.5809 
G01 X25.7350 Y5.6063 
G01 X25.7213 Y5.6393 
G01 X25.7213 Y6.7752 
G01 X25.7350 Y6.8082 
G01 X25.7603 Y6.8335 
G01 X25.7933 Y6.8472 
G01 X27.2292 Y6.8472 
G01 X27.2622 Y6.8335 
G01 X27.2875 Y6.8082 
G01 X27.3012 Y6.7752 
G01 X27.3012 Y6.4533 
G01 X27.8627 Y6.3421 
G01 X27.8627 Y10.0888 
G01 X27.1425 Y10.2119 
G01 X27.1425 Y10.1796 
G01 X27.1288 Y10.1465 
G01 X27.1035 Y10.1212 
G01 X27.0704 Y10.1075 
G01 X25.6346 Y10.1075 
G01 X25.6015 Y10.1212 
G01 X25.5762 Y10.1465 
G01 X25.5625 Y10.1796 
G01 X25.5625 Y11.3154 
G01 X25.5762 Y11.3485 
G01 X25.6015 Y11.3738 
G01 X25.6346 Y11.3875 
G01 X27.0704 Y11.3875 
G01 X27.1035 Y11.3738 
G01 X27.1288 Y11.3485 
G01 X27.1425 Y11.3154 
G01 X27.1425 Y11.0130 
G01 X27.8627 Y10.8899 
G01 X27.8627 Y16.4632 
G01 X27.8615 Y16.4682 
G01 X27.8627 Y16.5151 
G01 X27.8627 Y16.7342 
G01 X26.9520 Y16.7342 
G01 X26.9520 Y16.5611 
G01 X26.9383 Y16.5280 
G01 X26.9130 Y16.5027 
G01 X26.8799 Y16.4890 
G01 X25.4441 Y16.4890 
G01 X25.4110 Y16.5027 
G01 X25.3857 Y16.5280 
G01 X25.3720 Y16.5611 
G01 X25.3720 Y17.6969 
G01 X25.3857 Y17.7300 
G01 X25.4110 Y17.7553 
G01 X25.4441 Y17.7690 
G01 X26.8799 Y17.7690 
G01 X26.9130 Y17.7553 
G01 X26.9383 Y17.7300 
G01 X26.9520 Y17.6969 
G01 X26.9520 Y17.5238 
G01 X27.8627 Y17.5238 
G01 X27.8627 Y18.1495 
G01 X27.8896 Y18.2499 
G01 X27.9416 Y18.3399 
G01 X28.0151 Y18.4134 
G01 X28.1051 Y18.4654 
G01 X28.2055 Y18.4923 
G01 X28.3095 Y18.4923 
G01 X28.4099 Y18.4654 
G01 X28.4999 Y18.4134 
G01 X28.5734 Y18.3399 
G01 X28.6254 Y18.2499 
G01 X28.6523 Y18.1495 
G01 X28.6523 Y17.2423 
G01 X28.6562 Y17.2262 
G01 X28.6683 Y17.1810 
G01 X28.6683 Y17.1758 
G01 X28.6695 Y17.1708 
G01 X28.6683 Y17.1239 
G01 X28.6683 Y17.0770 
G01 X28.6670 Y17.0720 
G01 X28.6523 Y16.5049 
G01 X28.6523 Y0.5830 
G01 X28.6254 Y0.4826 
G01 X28.5734 Y0.3926 
G01 X28.4999 Y0.3191 
G01 X28.4147 Y0.2338 
G01 X28.3412 Y0.1603 
G01 X28.2511 Y0.1084 
G01 X28.1507 Y0.0814 
G01 X10.1080 Y0.0814 
G01 X10.0076 Y0.1084 
G01 X9.9176 Y0.1603 
G01 X9.8441 Y0.2338 
G01 X9.7921 Y0.3239 
G01 X9.7652 Y0.4243 
G01 X9.7652 Y4.3977 
G01 X9.7604 Y4.4061 
G01 X9.7334 Y4.5065 
G01 X9.7334 Y5.9234 
G01 X5.4738 Y5.9234 
G01 X5.4666 Y5.9218 
G01 X5.4219 Y5.9234 
G01 X5.3773 Y5.9234 
G01 X5.3701 Y5.9254 
G01 X5.3627 Y5.9256 
G01 X5.3200 Y5.9388 
G01 X5.2769 Y5.9504 
G01 X5.2704 Y5.9541 
G01 X5.2633 Y5.9562 
G01 X5.2255 Y5.9800 
G01 X5.1868 Y6.0023 
G01 X5.1816 Y6.0076 
G01 X5.1753 Y6.0115 
G01 X5.1449 Y6.0442 
G01 X5.1133 Y6.0758 
G01 X5.1096 Y6.0823 
G01 X5.1046 Y6.0877 
G01 X5.0837 Y6.1272 
G01 X5.0614 Y6.1659 
G01 X5.0594 Y6.1730 
G01 X5.0560 Y6.1796 
G01 X5.0460 Y6.2231 
G01 X5.0344 Y6.2663 
G01 X5.0344 Y6.2737 
G01 X3.9000 Y11.2353 
G01 X2.9475 Y11.1218 
G01 X2.9475 Y8.4911 
G01 X2.9338 Y8.4580 
G01 X2.9085 Y8.4327 
G01 X2.8754 Y8.4190 
G01 X1.3278 Y8.4190 
G01 X1.3274 Y8.4015 
G01 X1.3815 Y8.3474 
G01 X1.4464 Y8.2502 
G01 X1.4911 Y8.1423 
G01 X1.5139 Y8.0277 
G01 X1.5139 Y7.9108 
G01 X1.4911 Y7.7962 
G01 X1.4464 Y7.6883 
G01 X1.3815 Y7.5911 
G01 X1.2989 Y7.5085 
G01 X1.2017 Y7.4436 
G01 X1.0938 Y7.3988 
G01 X0.9792 Y7.3761 
G01 X0.8623 Y7.3761 
G01 X0.7477 Y7.3988 
G01 X0.6398 Y7.4436 
G01 X0.5426 Y7.5085 
G01 X0.4600 Y7.5911 
G00 Z1.0000 
G00 X5.9665 Y6.9537 
G01 Z-0.0750 F50.80 
G01 X5.9665 Y8.4895 F101.60 
G01 X5.9802 Y8.5226 
G01 X6.0055 Y8.5479 
G01 X6.0386 Y8.5616 
G01 X6.5045 Y8.5616 
G01 X6.5045 Y9.3549 
G01 X5.7893 Y9.3549 
G01 X5.7562 Y9.3686 
G01 X5.7309 Y9.3939 
G01 X5.7172 Y9.4270 
G01 X5.7172 Y10.5628 
G01 X5.7309 Y10.5959 
G01 X5.7456 Y10.6106 
G01 X5.3265 Y10.9683 
G01 X5.3185 Y10.9728 
G01 X5.2976 Y10.9931 
G01 X5.2754 Y11.0120 
G01 X5.2702 Y11.0195 
G01 X5.2637 Y11.0259 
G01 X5.2487 Y11.0509 
G01 X5.2322 Y11.0749 
G01 X5.2291 Y11.0835 
G01 X5.2244 Y11.0914 
G01 X5.2164 Y11.1194 
G01 X5.2067 Y11.1469 
G01 X5.2059 Y11.1560 
G01 X4.6390 Y13.1402 
G01 X3.8501 Y13.1402 
G01 X3.7763 Y13.1600 
G01 X3.7672 Y13.1653 
G01 X3.1703 Y13.1653 
G01 X3.1373 Y13.1790 
G01 X3.1120 Y13.2043 
G01 X3.0983 Y13.2373 
G01 X3.0983 Y13.6232 
G01 X3.1120 Y13.6562 
G01 X3.1373 Y13.6815 
G01 X3.1703 Y13.6952 
G01 X3.7672 Y13.6952 
G01 X3.7763 Y13.7005 
G01 X3.8501 Y13.7202 
G01 X4.8553 Y13.7202 
G01 X4.8911 Y13.7208 
G01 X4.8935 Y13.7202 
G01 X4.8959 Y13.7202 
G01 X4.9305 Y13.7110 
G01 X4.9652 Y13.7023 
G01 X4.9673 Y13.7011 
G01 X4.9697 Y13.7005 
G01 X5.0007 Y13.6826 
G01 X5.0320 Y13.6652 
G01 X5.0337 Y13.6635 
G01 X5.0358 Y13.6623 
G01 X5.0612 Y13.6369 
G01 X5.0868 Y13.6121 
G01 X5.0881 Y13.6100 
G01 X5.0898 Y13.6083 
G01 X5.1077 Y13.5772 
G01 X5.1261 Y13.5466 
G01 X5.1268 Y13.5443 
G01 X5.1280 Y13.5422 
G01 X5.1372 Y13.5076 
G01 X5.7476 Y11.3715 
G01 X6.6105 Y10.6349 
G01 X7.8251 Y10.6349 
G01 X7.8582 Y10.6212 
G01 X7.8835 Y10.5959 
G01 X7.8972 Y10.5628 
G01 X7.8972 Y9.4270 
G01 X7.8835 Y9.3939 
G01 X7.8582 Y9.3686 
G01 X7.8251 Y9.3549 
G01 X7.0845 Y9.3549 
G01 X7.0845 Y8.5616 
G01 X7.3744 Y8.5616 
G01 X7.4075 Y8.5479 
G01 X7.4328 Y8.5226 
G01 X7.4465 Y8.4895 
G01 X7.4465 Y6.9537 
G01 X7.4328 Y6.9206 
G01 X7.4075 Y6.8953 
G01 X7.3744 Y6.8816 
G01 X6.0386 Y6.8816 
G01 X6.0055 Y6.8953 
G01 X5.9802 Y6.9206 
G01 X5.9665 Y6.9537 
G00 Z1.0000 
G00 X7.6665 Y6.9537 
G01 Z-0.0750 F50.80 
G01 X7.6665 Y8.4895 F101.60 
G01 X7.6802 Y8.5226 
G01 X7.7055 Y8.5479 
G01 X7.7386 Y8.5616 
G01 X9.0744 Y8.5616 
G01 X9.1075 Y8.5479 
G01 X9.1328 Y8.5226 
G01 X9.1465 Y8.4895 
G01 X9.1465 Y7.8497 
G01 X9.6685 Y7.8497 
G01 X9.7273 Y7.9377 
G01 X9.8105 Y8.0210 
G01 X9.9085 Y8.0864 
G01 X10.0173 Y8.1315 
G01 X10.1328 Y8.1545 
G01 X10.2506 Y8.1545 
G01 X10.3662 Y8.1315 
G01 X10.4750 Y8.0864 
G01 X10.5730 Y8.0210 
G01 X10.6562 Y7.9377 
G01 X10.7217 Y7.8398 
G01 X10.7668 Y7.7309 
G01 X10.7897 Y7.6154 
G01 X10.7897 Y7.4976 
G01 X10.7668 Y7.3821 
G01 X10.7217 Y7.2732 
G01 X10.6562 Y7.1753 
G01 X10.5730 Y7.0920 
G01 X10.4750 Y7.0266 
G01 X10.3662 Y6.9815 
G01 X10.2506 Y6.9585 
G01 X10.1328 Y6.9585 
G01 X10.0173 Y6.9815 
G01 X9.9085 Y7.0266 
G01 X9.8105 Y7.0920 
G01 X9.7273 Y7.1753 
G01 X9.6685 Y7.2633 
G01 X9.1465 Y7.2633 
G01 X9.1465 Y6.9537 
G01 X9.1328 Y6.9206 
G01 X9.1075 Y6.8953 
G01 X9.0744 Y6.8816 
G01 X7.7386 Y6.8816 
G01 X7.7055 Y6.8953 
G01 X7.6802 Y6.9206 
G01 X7.6665 Y6.9537 
G00 Z1.0000 
G00 X11.8226 Y6.0309 
G01 Z-0.0750 F50.80 
G01 X13.9517 Y8.1600 F101.60 
G01 X13.9755 Y8.2013 
G01 X14.0490 Y8.2748 
G01 X14.1340 Y8.3239 
G01 X14.4919 Y8.6818 
G01 X14.5250 Y8.6955 
G01 X14.5608 Y8.6955 
G01 X14.7721 Y8.9260 
G01 X14.8020 Y9.1356 
G01 X14.3547 Y9.5829 
G01 X14.3527 Y9.5843 
G01 X14.0325 Y9.5843 
G01 X13.8678 Y9.4078 
G01 X13.8830 Y9.3927 
G01 X13.8967 Y9.3596 
G01 X13.8967 Y9.3238 
G01 X13.8830 Y9.2907 
G01 X12.9596 Y8.3674 
G01 X12.9265 Y8.3537 
G01 X12.8907 Y8.3537 
G01 X12.8576 Y8.3674 
G01 X12.4372 Y8.7878 
G01 X12.4235 Y8.8209 
G01 X12.4235 Y8.8567 
G01 X12.4372 Y8.8898 
G01 X13.3605 Y9.8131 
G01 X13.3936 Y9.8268 
G01 X13.4294 Y9.8268 
G01 X13.4555 Y9.8160 
G01 X13.6719 Y10.0479 
G01 X13.6744 Y10.0523 
G01 X13.6979 Y10.0758 
G01 X13.7205 Y10.1000 
G01 X13.7248 Y10.1027 
G01 X13.7284 Y10.1063 
G01 X13.7572 Y10.1229 
G01 X13.7853 Y10.1405 
G01 X13.7902 Y10.1419 
G01 X13.7946 Y10.1445 
G01 X13.8266 Y10.1531 
G01 X13.8583 Y10.1628 
G01 X13.8634 Y10.1629 
G01 X13.8683 Y10.1642 
G01 X13.9015 Y10.1642 
G01 X13.9347 Y10.1654 
G01 X13.9396 Y10.1642 
G01 X14.4012 Y10.1642 
G01 X14.4266 Y10.1693 
G01 X14.5036 Y10.1644 
G01 X14.5768 Y10.1396 
G01 X14.6963 Y10.0599 
G01 X14.7215 Y10.0454 
G01 X14.7283 Y10.0386 
G01 X14.7363 Y10.0333 
G01 X14.7555 Y10.0114 
G01 X15.1171 Y9.6498 
G01 X18.5241 Y12.9971 
G01 X18.5451 Y13.0198 
G01 X18.5513 Y13.0237 
G01 X18.5565 Y13.0289 
G01 X18.5835 Y13.0441 
G01 X18.6096 Y13.0607 
G01 X18.6166 Y13.0629 
G01 X18.6230 Y13.0665 
G01 X18.6529 Y13.0742 
G01 X18.6825 Y13.0834 
G01 X18.6898 Y13.0837 
G01 X18.6969 Y13.0856 
G01 X18.7278 Y13.0853 
G01 X20.1633 Y13.1439 
G01 X20.1979 Y13.1785 
G01 X20.1912 Y13.1945 
G01 X20.1912 Y13.2303 
G01 X20.2049 Y13.2634 
G01 X21.1095 Y14.1680 
G01 X21.1095 Y17.7980 
G01 X10.9359 Y17.7980 
G01 X10.9310 Y17.7127 
G01 X11.0931 Y17.7127 
G01 X11.1262 Y17.6990 
G01 X11.1515 Y17.6737 
G01 X11.1652 Y17.6407 
G01 X11.1652 Y16.2048 
G01 X11.1515 Y16.1718 
G01 X11.1262 Y16.1465 
G01 X11.0931 Y16.1328 
G01 X9.9573 Y16.1328 
G01 X9.9243 Y16.1465 
G01 X9.8989 Y16.1718 
G01 X9.8852 Y16.2048 
G01 X9.8852 Y16.6328 
G01 X9.0195 Y16.6328 
G01 X9.0195 Y16.0977 
G01 X9.0058 Y16.0646 
G01 X8.9805 Y16.0393 
G01 X8.9474 Y16.0256 
G01 X7.6116 Y16.0256 
G01 X7.5785 Y16.0393 
G01 X7.5532 Y16.0646 
G01 X7.5395 Y16.0977 
G01 X7.5395 Y17.6335 
G01 X7.5532 Y17.6666 
G01 X7.5785 Y17.6919 
G01 X7.6116 Y17.7056 
G01 X8.9474 Y17.7056 
G01 X8.9805 Y17.6919 
G01 X9.0058 Y17.6666 
G01 X9.0195 Y17.6335 
G01 X9.0195 Y17.2127 
G01 X9.8852 Y17.2127 
G01 X9.8852 Y17.6407 
G01 X9.8989 Y17.6737 
G01 X9.9243 Y17.6990 
G01 X9.9573 Y17.7127 
G01 X10.3501 Y17.7127 
G01 X10.3550 Y17.7980 
G01 X4.6810 Y17.7980 
G01 X4.6810 Y17.1498 
G01 X4.8816 Y16.9492 
G01 X4.9801 Y16.9492 
G01 X5.0957 Y16.9263 
G01 X5.2045 Y16.8812 
G01 X5.3025 Y16.8157 
G01 X5.3857 Y16.7325 
G01 X5.4512 Y16.6345 
G01 X5.4963 Y16.5257 
G01 X5.5192 Y16.4101 
G01 X5.5192 Y16.2923 
G01 X5.4963 Y16.1768 
G01 X5.4512 Y16.0680 
G01 X5.3857 Y15.9700 
G01 X5.3025 Y15.8868 
G01 X5.2858 Y15.8757 
G01 X5.2372 Y15.7913 
G01 X4.6874 Y15.2415 
G01 X4.6937 Y15.2262 
G01 X4.6937 Y14.5553 
G01 X4.6800 Y14.5223 
G01 X4.6663 Y14.5085 
G01 X4.6645 Y14.5043 
G01 X4.6392 Y14.4789 
G01 X4.6062 Y14.4652 
G01 X4.0157 Y14.4652 
G01 X4.0014 Y14.4570 
G01 X3.9268 Y14.4370 
G01 X3.8496 Y14.4370 
G01 X3.7751 Y14.4570 
G01 X3.7608 Y14.4652 
G01 X3.1703 Y14.4652 
G01 X3.1373 Y14.4789 
G01 X3.1120 Y14.5043 
G01 X3.0983 Y14.5373 
G01 X3.0983 Y14.9231 
G01 X3.1120 Y14.9562 
G01 X3.1168 Y14.9610 
G01 X3.1168 Y15.2262 
G01 X3.1305 Y15.2592 
G01 X3.1558 Y15.2845 
G01 X3.1888 Y15.2982 
G01 X3.7344 Y15.2982 
G01 X3.7596 Y15.3924 
G01 X3.8116 Y15.4824 
G01 X4.3937 Y16.0645 
G01 X4.3913 Y16.0680 
G01 X4.3462 Y16.1768 
G01 X4.3232 Y16.2923 
G01 X4.3232 Y16.3909 
G01 X3.9703 Y16.7438 
G01 X3.9184 Y16.8339 
G01 X3.8914 Y16.9343 
G01 X3.8914 Y18.2447 
G01 X3.9184 Y18.3451 
G01 X3.9703 Y18.4352 
G01 X4.0438 Y18.5087 
G01 X4.1339 Y18.5606 
G01 X4.2343 Y18.5875 
G01 X21.4515 Y18.5875 
G01 X21.5519 Y18.5606 
G01 X21.6419 Y18.5087 
G01 X21.6646 Y18.4859 
G01 X24.1051 Y18.4859 
G01 X24.1797 Y18.4660 
G01 X24.2465 Y18.4274 
G01 X24.3011 Y18.3728 
G01 X24.3397 Y18.3059 
G01 X24.3597 Y18.2313 
G01 X24.3597 Y17.8690 
G01 X24.7035 Y17.8690 
G01 X24.7365 Y17.8553 
G01 X24.7618 Y17.8300 
G01 X24.7755 Y17.7969 
G01 X24.7755 Y16.5611 
G01 X24.7618 Y16.5280 
G01 X24.7365 Y16.5027 
G01 X24.7035 Y16.4890 
G01 X24.3597 Y16.4890 
G01 X24.3597 Y16.4546 
G01 X24.3586 Y16.4506 
G01 X24.3585 Y16.4465 
G01 X24.3486 Y16.4134 
G01 X24.3397 Y16.3800 
G01 X24.3377 Y16.3765 
G01 X24.3365 Y16.3725 
G01 X24.3184 Y16.3430 
G01 X24.3011 Y16.3132 
G01 X24.2982 Y16.3102 
G01 X24.2960 Y16.3067 
G01 X24.2709 Y16.2830 
G01 X24.2465 Y16.2586 
G01 X24.2430 Y16.2565 
G01 X24.2399 Y16.2537 
G01 X24.2095 Y16.2372 
G01 X24.1797 Y16.2200 
G01 X24.1757 Y16.2189 
G01 X24.1720 Y16.2169 
G01 X24.1384 Y16.2089 
G01 X24.1051 Y16.2000 
G01 X24.1010 Y16.2000 
G01 X24.0969 Y16.1990 
G01 X24.0624 Y16.2000 
G01 X24.0279 Y16.2000 
G01 X24.0239 Y16.2011 
G01 X24.0198 Y16.2012 
G01 X23.9867 Y16.2111 
G01 X23.9533 Y16.2200 
G01 X23.9498 Y16.2220 
G01 X23.9458 Y16.2232 
G01 X23.9163 Y16.2413 
G01 X23.8865 Y16.2586 
G01 X23.8835 Y16.2615 
G01 X23.8800 Y16.2637 
G01 X23.8563 Y16.2888 
G01 X23.8319 Y16.3132 
G01 X23.8298 Y16.3167 
G01 X23.8270 Y16.3198 
G01 X23.8105 Y16.3502 
G01 X23.7933 Y16.3800 
G01 X23.7922 Y16.3840 
G01 X23.7902 Y16.3877 
G01 X23.7822 Y16.4213 
G01 X23.7733 Y16.4546 
G01 X23.7733 Y16.4587 
G01 X23.7723 Y16.4628 
G01 X23.7731 Y16.4890 
G01 X23.4676 Y16.4890 
G01 X23.4346 Y16.5027 
G01 X23.4093 Y16.5280 
G01 X23.3956 Y16.5611 
G01 X23.3956 Y17.7969 
G01 X23.4093 Y17.8300 
G01 X23.4346 Y17.8553 
G01 X23.4676 Y17.8690 
G01 X23.7733 Y17.8690 
G01 X23.7733 Y17.8996 
G01 X21.6895 Y17.8996 
G01 X21.6895 Y13.8683 
G01 X21.6697 Y13.7946 
G01 X21.6518 Y13.7635 
G01 X21.6644 Y13.7332 
G01 X21.6644 Y13.6974 
G01 X21.6507 Y13.6643 
G01 X20.7273 Y12.7410 
G01 X20.6942 Y12.7273 
G01 X20.6584 Y12.7273 
G01 X20.6254 Y12.7410 
G01 X20.6030 Y12.7634 
G01 X20.4975 Y12.6579 
G01 X20.4756 Y12.6341 
G01 X20.4706 Y12.6309 
G01 X20.4663 Y12.6267 
G01 X20.4383 Y12.6105 
G01 X20.4111 Y12.5933 
G01 X20.4054 Y12.5915 
G01 X20.4002 Y12.5885 
G01 X20.3690 Y12.5802 
G01 X20.3382 Y12.5705 
G01 X20.3322 Y12.5703 
G01 X20.3264 Y12.5687 
G01 X20.2942 Y12.5687 
G01 X18.8560 Y12.5100 
G01 X15.3900 Y9.1048 
G01 X15.3436 Y8.7803 
G01 X15.3441 Y8.7689 
G01 X15.3382 Y8.7422 
G01 X15.3343 Y8.7151 
G01 X15.3298 Y8.7046 
G01 X15.3274 Y8.6936 
G01 X15.3147 Y8.6693 
G01 X15.3040 Y8.6441 
G01 X15.2970 Y8.6351 
G01 X15.2917 Y8.6251 
G01 X15.2732 Y8.6049 
G01 X15.2563 Y8.5833 
G01 X15.2472 Y8.5765 
G01 X14.9851 Y8.2906 
G01 X15.0143 Y8.2613 
G01 X15.0280 Y8.2282 
G01 X15.0280 Y8.1924 
G01 X15.0143 Y8.1594 
G01 X14.6649 Y7.8100 
G01 X14.6593 Y7.7891 
G01 X14.6074 Y7.6990 
G01 X12.4598 Y5.5515 
G01 X12.4598 Y5.0204 
G01 X12.5641 Y5.0204 
G01 X12.5972 Y5.0067 
G01 X12.6225 Y4.9814 
G01 X12.6362 Y4.9483 
G01 X12.6362 Y3.5225 
G01 X12.6225 Y3.4895 
G01 X12.5972 Y3.4642 
G01 X12.5641 Y3.4505 
G01 X12.4860 Y3.4505 
G01 X12.4860 Y2.9051 
G01 X12.5020 Y2.8985 
G01 X12.5273 Y2.8732 
G01 X12.5410 Y2.8401 
G01 X12.5410 Y1.4143 
G01 X12.5273 Y1.3813 
G01 X12.5020 Y1.3559 
G01 X12.4689 Y1.3422 
G01 X11.5231 Y1.3422 
G01 X11.4900 Y1.3559 
G01 X11.4647 Y1.3813 
G01 X11.4510 Y1.4143 
G01 X11.4510 Y2.8401 
G01 X11.4647 Y2.8732 
G01 X11.4900 Y2.8985 
G01 X11.5231 Y2.9122 
G01 X11.6965 Y2.9122 
G01 X11.6965 Y3.4505 
G01 X11.6183 Y3.4505 
G01 X11.5853 Y3.4642 
G01 X11.5600 Y3.4895 
G01 X11.5463 Y3.5225 
G01 X11.5463 Y4.9483 
G01 X11.5600 Y4.9814 
G01 X11.5853 Y5.0067 
G01 X11.6183 Y5.0204 
G01 X11.6702 Y5.0204 
G01 X11.6702 Y5.7670 
G01 X11.6971 Y5.8674 
G01 X11.7491 Y5.9574 
G01 X11.8226 Y6.0309 
G00 Z1.0000 
G00 X13.1722 Y6.0444 
G01 Z-0.0750 F50.80 
G01 X13.1726 Y6.0751 F101.60 
G01 X13.1747 Y6.0824 
G01 X13.1752 Y6.0899 
G01 X13.1851 Y6.1190 
G01 X13.1935 Y6.1486 
G01 X13.1974 Y6.1550 
G01 X13.1998 Y6.1622 
G01 X13.2169 Y6.1877 
G01 X13.2327 Y6.2141 
G01 X13.2381 Y6.2193 
G01 X13.2423 Y6.2256 
G01 X13.2655 Y6.2459 
G01 X14.1355 Y7.0895 
G01 X14.1343 Y7.0908 
G01 X14.1206 Y7.1239 
G01 X14.1206 Y7.1597 
G01 X14.1343 Y7.1927 
G01 X15.0576 Y8.1161 
G01 X15.0907 Y8.1298 
G01 X15.1265 Y8.1298 
G01 X15.1596 Y8.1161 
G01 X15.5800 Y7.6956 
G01 X15.5937 Y7.6626 
G01 X15.5937 Y7.6268 
G01 X15.5800 Y7.5937 
G01 X14.6567 Y6.6703 
G01 X14.6236 Y6.6566 
G01 X14.5878 Y6.6566 
G01 X14.5547 Y6.6703 
G01 X14.5457 Y6.6794 
G01 X13.7875 Y5.9441 
G01 X14.0749 Y5.7952 
G01 X15.0897 Y5.7952 
G01 X15.1227 Y5.7815 
G01 X15.1480 Y5.7562 
G01 X15.1617 Y5.7232 
G01 X15.1617 Y4.2873 
G01 X15.1480 Y4.2543 
G01 X15.1227 Y4.2290 
G01 X15.0897 Y4.2153 
G01 X13.8538 Y4.2153 
G01 X13.8208 Y4.2290 
G01 X13.7955 Y4.2543 
G01 X13.7818 Y4.2873 
G01 X13.7818 Y5.2939 
G01 X13.5852 Y5.3957 
G01 X13.5297 Y5.2720 
G01 X13.5297 Y1.7187 
G01 X18.1560 Y1.7187 
G01 X18.4972 Y1.8893 
G01 X18.5078 Y1.8999 
G01 X18.5078 Y3.2761 
G01 X18.5215 Y3.3092 
G01 X18.5468 Y3.3345 
G01 X18.5798 Y3.3482 
G01 X19.9156 Y3.3482 
G01 X19.9487 Y3.3345 
G01 X19.9740 Y3.3092 
G01 X19.9877 Y3.2761 
G01 X19.9877 Y1.7403 
G01 X19.9740 Y1.7073 
G01 X19.9487 Y1.6820 
G01 X19.9156 Y1.6683 
G01 X19.0964 Y1.6683 
G01 X19.0018 Y1.5737 
G01 X18.9955 Y1.5548 
G01 X18.9931 Y1.5511 
G01 X18.9915 Y1.5468 
G01 X18.9720 Y1.5192 
G01 X18.9535 Y1.4911 
G01 X18.9501 Y1.4881 
G01 X18.9475 Y1.4844 
G01 X18.9215 Y1.4628 
G01 X18.8963 Y1.4404 
G01 X18.8923 Y1.4384 
G01 X18.7378 Y1.3096 
G01 X18.7201 Y1.2919 
G01 X18.7085 Y1.2853 
G01 X18.6983 Y1.2768 
G01 X18.6756 Y1.2663 
G01 X18.6539 Y1.2538 
G01 X18.6411 Y1.2503 
G01 X18.6290 Y1.2447 
G01 X18.6043 Y1.2405 
G01 X18.5802 Y1.2340 
G01 X18.5669 Y1.2340 
G01 X18.5538 Y1.2317 
G01 X18.5288 Y1.2340 
G01 X18.5038 Y1.2340 
G01 X18.4910 Y1.2374 
G01 X18.3620 Y1.1732 
G01 X18.3364 Y1.1585 
G01 X18.3279 Y1.1562 
G01 X18.3200 Y1.1523 
G01 X18.2911 Y1.1464 
G01 X18.2627 Y1.1387 
G01 X18.2539 Y1.1387 
G01 X18.2452 Y1.1370 
G01 X18.2158 Y1.1387 
G01 X13.2016 Y1.1387 
G01 X13.1278 Y1.1585 
G01 X13.0617 Y1.1967 
G01 X13.0077 Y1.2507 
G01 X12.9695 Y1.3168 
G01 X12.9497 Y1.3906 
G01 X12.9497 Y5.3192 
G01 X12.9474 Y5.3424 
G01 X12.9497 Y5.3572 
G01 X12.9497 Y5.3722 
G01 X12.9558 Y5.3947 
G01 X12.9595 Y5.4178 
G01 X12.9656 Y5.4315 
G01 X12.9695 Y5.4459 
G01 X12.9812 Y5.4662 
G01 X13.1602 Y5.8655 
G01 X13.1722 Y6.0444 
G00 Z1.0000 
G00 X14.6999 Y6.5251 
G01 Z-0.0750 F50.80 
G01 X14.6862 Y6.5582 F101.60 
G01 X14.6862 Y6.5940 
G01 X14.6999 Y6.6271 
G01 X15.2535 Y7.1806 
G01 X15.2716 Y7.2250 
G01 X15.3177 Y7.2858 
G01 X15.3780 Y7.3327 
G01 X15.4257 Y7.3528 
G01 X15.6233 Y7.5504 
G01 X15.6564 Y7.5641 
G01 X15.6922 Y7.5641 
G01 X15.7252 Y7.5504 
G01 X16.1457 Y7.1299 
G01 X16.1594 Y7.0969 
G01 X16.1594 Y7.0611 
G01 X16.1457 Y7.0280 
G01 X16.0107 Y6.8930 
G01 X16.8709 Y6.5216 
G01 X16.8977 Y6.5121 
G01 X16.9062 Y6.5063 
G01 X16.9157 Y6.5022 
G01 X16.9380 Y6.4846 
G01 X17.5236 Y6.0839 
G01 X17.5473 Y6.0702 
G01 X17.5553 Y6.0622 
G01 X17.5647 Y6.0558 
G01 X17.5825 Y6.0350 
G01 X17.6019 Y6.0156 
G01 X17.6075 Y6.0058 
G01 X17.6149 Y5.9972 
G01 X17.6268 Y5.9725 
G01 X17.6405 Y5.9488 
G01 X17.6434 Y5.9378 
G01 X17.6483 Y5.9276 
G01 X17.6534 Y5.9006 
G01 X17.6604 Y5.8742 
G01 X17.6604 Y5.8682 
G01 X17.7289 Y5.7998 
G01 X17.7675 Y5.7329 
G01 X17.7874 Y5.6584 
G01 X17.7874 Y4.9604 
G01 X18.5078 Y4.9604 
G01 X18.5078 Y5.4352 
G01 X18.5215 Y5.4682 
G01 X18.5468 Y5.4935 
G01 X18.5798 Y5.5072 
G01 X19.9156 Y5.5072 
G01 X19.9487 Y5.4935 
G01 X19.9740 Y5.4682 
G01 X19.9877 Y5.4352 
G01 X19.9877 Y3.8993 
G01 X19.9740 Y3.8663 
G01 X19.9487 Y3.8409 
G01 X19.9156 Y3.8272 
G01 X18.5798 Y3.8272 
G01 X18.5468 Y3.8409 
G01 X18.5215 Y3.8663 
G01 X18.5078 Y3.8993 
G01 X18.5078 Y4.3741 
G01 X17.8697 Y4.3741 
G01 X17.7874 Y4.2918 
G01 X17.7874 Y3.6126 
G01 X17.7675 Y3.5381 
G01 X17.7289 Y3.4712 
G01 X17.6743 Y3.4166 
G01 X16.8283 Y2.5706 
G01 X16.7617 Y2.5322 
G01 X16.7617 Y2.0873 
G01 X16.7480 Y2.0543 
G01 X16.7227 Y2.0290 
G01 X16.6897 Y2.0152 
G01 X15.4538 Y2.0152 
G01 X15.4208 Y2.0290 
G01 X15.3955 Y2.0543 
G01 X15.3818 Y2.0873 
G01 X15.3818 Y3.5231 
G01 X15.3955 Y3.5562 
G01 X15.4208 Y3.5815 
G01 X15.4538 Y3.5952 
G01 X16.6897 Y3.5952 
G01 X16.7227 Y3.5815 
G01 X16.7480 Y3.5562 
G01 X16.7617 Y3.5231 
G01 X16.7617 Y3.3334 
G01 X17.2010 Y3.7727 
G01 X17.2010 Y5.4983 
G01 X17.1872 Y5.5121 
G01 X17.1326 Y5.5667 
G01 X17.0940 Y5.6336 
G01 X17.0830 Y5.6748 
G01 X16.6218 Y5.9904 
G01 X15.5646 Y6.4469 
G01 X15.2224 Y6.1046 
G01 X15.1893 Y6.0909 
G01 X15.1535 Y6.0909 
G01 X15.1204 Y6.1046 
G01 X14.6999 Y6.5251 
G00 Z1.0000 
G00 X15.4208 Y5.7815 
G01 Z-0.0750 F50.80 
G01 X15.4538 Y5.7952 F101.60 
G01 X16.6897 Y5.7952 
G01 X16.7227 Y5.7815 
G01 X16.7480 Y5.7562 
G01 X16.7617 Y5.7232 
G01 X16.7617 Y4.2873 
G01 X16.7480 Y4.2543 
G01 X16.7227 Y4.2290 
G01 X16.6897 Y4.2153 
G01 X15.4538 Y4.2153 
G01 X15.4208 Y4.2290 
G01 X15.3955 Y4.2543 
G01 X15.3818 Y4.2873 
G01 X15.3818 Y5.7232 
G01 X15.3955 Y5.7562 
G01 X15.4208 Y5.7815 
G00 Z1.0000 
G00 X15.1480 Y3.5562 
G01 Z-0.0750 F50.80 
G01 X15.1617 Y3.5231 F101.60 
G01 X15.1617 Y2.0873 
G01 X15.1480 Y2.0543 
G01 X15.1227 Y2.0290 
G01 X15.0897 Y2.0152 
G01 X13.8538 Y2.0152 
G01 X13.8208 Y2.0290 
G01 X13.7955 Y2.0543 
G01 X13.7818 Y2.0873 
G01 X13.7818 Y3.5231 
G01 X13.7955 Y3.5562 
G01 X13.8208 Y3.5815 
G01 X13.8538 Y3.5952 
G01 X15.0897 Y3.5952 
G01 X15.1227 Y3.5815 
G01 X15.1480 Y3.5562 
G00 Z1.0000 
G00 X16.8108 Y7.0280 
G01 Z-0.0750 F50.80 
G01 X16.7971 Y7.0611 F101.60 
G01 X16.7971 Y7.0969 
G01 X16.8108 Y7.1299 
G01 X17.2312 Y7.5504 
G01 X17.2643 Y7.5641 
G01 X17.3001 Y7.5641 
G01 X17.3332 Y7.5504 
G01 X18.2566 Y6.6271 
G01 X18.2703 Y6.5940 
G01 X18.2703 Y6.5582 
G01 X18.2566 Y6.5251 
G01 X17.8361 Y6.1046 
G01 X17.8030 Y6.0909 
G01 X17.7672 Y6.0909 
G01 X17.7341 Y6.1046 
G01 X16.8108 Y7.0280 
G00 Z1.0000 
G00 X17.3765 Y7.5937 
G01 Z-0.0750 F50.80 
G01 X17.3628 Y7.6268 F101.60 
G01 X17.3628 Y7.6626 
G01 X17.3765 Y7.6956 
G01 X17.7969 Y8.1161 
G01 X17.8300 Y8.1298 
G01 X17.8658 Y8.1298 
G01 X17.8989 Y8.1161 
G01 X18.8222 Y7.1927 
G01 X18.8359 Y7.1597 
G01 X18.8359 Y7.1239 
G01 X18.8222 Y7.0908 
G01 X18.4018 Y6.6703 
G01 X18.3687 Y6.6566 
G01 X18.3329 Y6.6566 
G01 X18.2998 Y6.6703 
G01 X17.3765 Y7.5937 
G00 Z1.0000 
G00 X18.5079 Y8.7250 
G01 Z-0.0750 F50.80 
G01 X18.4942 Y8.7581 F101.60 
G01 X18.4942 Y8.7939 
G01 X18.5079 Y8.8270 
G01 X18.9283 Y9.2475 
G01 X18.9614 Y9.2612 
G01 X18.9972 Y9.2612 
G01 X19.0303 Y9.2475 
G01 X19.9536 Y8.3241 
G01 X19.9673 Y8.2910 
G01 X19.9673 Y8.2552 
G01 X19.9536 Y8.2221 
G01 X19.9478 Y8.2163 
G01 X21.4962 Y6.6679 
G01 X21.9161 Y6.6432 
G01 X21.9461 Y6.6432 
G01 X21.9545 Y6.6409 
G01 X21.9632 Y6.6404 
G01 X21.9917 Y6.6310 
G01 X22.0207 Y6.6232 
G01 X22.0282 Y6.6189 
G01 X22.0365 Y6.6161 
G01 X22.0616 Y6.5996 
G01 X22.0875 Y6.5846 
G01 X22.0937 Y6.5784 
G01 X22.1010 Y6.5736 
G01 X22.1209 Y6.5512 
G01 X22.4050 Y6.2671 
G01 X22.4596 Y6.2125 
G01 X22.4982 Y6.1457 
G01 X22.5182 Y6.0711 
G01 X22.5182 Y4.4689 
G01 X24.2674 Y2.7197 
G01 X25.1607 Y2.7197 
G01 X25.1937 Y2.7060 
G01 X25.2190 Y2.6807 
G01 X25.2327 Y2.6477 
G01 X25.2327 Y1.4118 
G01 X25.2190 Y1.3788 
G01 X25.1937 Y1.3535 
G01 X25.1607 Y1.3397 
G01 X23.9248 Y1.3397 
G01 X23.8918 Y1.3535 
G01 X23.8665 Y1.3788 
G01 X23.8528 Y1.4118 
G01 X23.8528 Y2.3051 
G01 X21.9904 Y4.1675 
G01 X21.9518 Y4.2343 
G01 X21.9318 Y4.3089 
G01 X21.9318 Y5.9111 
G01 X21.7790 Y6.0639 
G01 X21.3591 Y6.0885 
G01 X21.3291 Y6.0885 
G01 X21.3207 Y6.0908 
G01 X21.3120 Y6.0913 
G01 X21.2835 Y6.1008 
G01 X21.2546 Y6.1085 
G01 X21.2470 Y6.1129 
G01 X21.2387 Y6.1156 
G01 X21.2137 Y6.1322 
G01 X21.1877 Y6.1471 
G01 X21.1815 Y6.1533 
G01 X21.1743 Y6.1581 
G01 X21.1543 Y6.1805 
G01 X19.5332 Y7.8017 
G01 X19.5001 Y7.7880 
G01 X19.4643 Y7.7880 
G01 X19.4312 Y7.8017 
G01 X18.5079 Y8.7250 
G00 Z1.0000 
G00 X19.0735 Y9.2907 
G01 Z-0.0750 F50.80 
G01 X19.0598 Y9.3238 F101.60 
G01 X19.0598 Y9.3596 
G01 X19.0735 Y9.3927 
G01 X19.4940 Y9.8131 
G01 X19.5271 Y9.8268 
G01 X19.5629 Y9.8268 
G01 X19.5959 Y9.8131 
G01 X20.5193 Y8.8898 
G01 X20.5330 Y8.8567 
G01 X20.5330 Y8.8209 
G01 X20.5193 Y8.7878 
G01 X21.7114 Y7.5957 
G01 X22.2636 Y7.5957 
G01 X22.3382 Y7.5757 
G01 X22.4050 Y7.5371 
G01 X23.8528 Y6.0894 
G01 X23.8528 Y6.5846 
G01 X23.8665 Y6.6177 
G01 X23.8918 Y6.6430 
G01 X23.9248 Y6.6567 
G01 X25.1607 Y6.6567 
G01 X25.1937 Y6.6430 
G01 X25.2190 Y6.6177 
G01 X25.2327 Y6.5846 
G01 X25.2327 Y5.3488 
G01 X25.2190 Y5.3158 
G01 X25.1937 Y5.2904 
G01 X25.1607 Y5.2767 
G01 X23.9248 Y5.2767 
G01 X23.8918 Y5.2904 
G01 X23.8665 Y5.3158 
G01 X23.8528 Y5.3488 
G01 X23.8528 Y5.4218 
G01 X23.7739 Y5.4218 
G01 X23.6993 Y5.4418 
G01 X23.6325 Y5.4804 
G01 X23.5779 Y5.5350 
G01 X22.1035 Y7.0093 
G01 X21.5514 Y7.0093 
G01 X21.4768 Y7.0293 
G01 X21.4100 Y7.0679 
G01 X21.3554 Y7.1225 
G01 X20.1047 Y8.3732 
G01 X20.0988 Y8.3674 
G01 X20.0658 Y8.3537 
G01 X20.0300 Y8.3537 
G01 X19.9969 Y8.3674 
G01 X19.0735 Y9.2907 
G00 Z1.0000 
G00 X19.6392 Y9.8564 
G01 Z-0.0750 F50.80 
G01 X19.6255 Y9.8895 F101.60 
G01 X19.6255 Y9.9253 
G01 X19.6392 Y9.9584 
G01 X20.0597 Y10.3788 
G01 X20.0928 Y10.3925 
G01 X20.1286 Y10.3925 
G01 X20.1616 Y10.3788 
G01 X21.0850 Y9.4555 
G01 X21.0987 Y9.4224 
G01 X21.0987 Y9.3866 
G01 X21.0977 Y9.3842 
G01 X22.2791 Y8.2028 
G01 X22.9574 Y8.2240 
G01 X23.2770 Y9.2874 
G01 X23.2869 Y9.3221 
G01 X23.2881 Y9.3242 
G01 X23.2888 Y9.3266 
G01 X23.3079 Y9.3575 
G01 X23.7575 Y10.1122 
G01 X23.7575 Y11.3154 
G01 X23.7712 Y11.3485 
G01 X23.7965 Y11.3738 
G01 X23.8296 Y11.3875 
G01 X25.0654 Y11.3875 
G01 X25.0985 Y11.3738 
G01 X25.1238 Y11.3485 
G01 X25.1375 Y11.3154 
G01 X25.1375 Y10.0796 
G01 X25.1238 Y10.0465 
G01 X25.0985 Y10.0212 
G01 X25.0654 Y10.0075 
G01 X24.3777 Y10.0075 
G01 X23.8289 Y9.0862 
G01 X23.4609 Y7.8617 
G01 X23.4541 Y7.8329 
G01 X23.4498 Y7.8249 
G01 X23.4472 Y7.8161 
G01 X23.4316 Y7.7910 
G01 X23.4176 Y7.7649 
G01 X23.4114 Y7.7582 
G01 X23.4066 Y7.7505 
G01 X23.3850 Y7.7302 
G01 X23.3648 Y7.7086 
G01 X23.3570 Y7.7038 
G01 X23.3504 Y7.6976 
G01 X23.3243 Y7.6835 
G01 X23.2991 Y7.6680 
G01 X23.2904 Y7.6653 
G01 X23.2824 Y7.6610 
G01 X23.2536 Y7.6542 
G01 X23.2252 Y7.6456 
G01 X23.2161 Y7.6454 
G01 X23.2072 Y7.6433 
G01 X23.1776 Y7.6442 
G01 X22.2046 Y7.6138 
G01 X22.2001 Y7.6125 
G01 X22.1661 Y7.6125 
G01 X22.1321 Y7.6115 
G01 X22.1275 Y7.6125 
G01 X22.1229 Y7.6125 
G01 X22.0901 Y7.6213 
G01 X22.0569 Y7.6291 
G01 X22.0528 Y7.6313 
G01 X22.0483 Y7.6325 
G01 X22.0189 Y7.6495 
G01 X21.9889 Y7.6656 
G01 X21.9855 Y7.6688 
G01 X21.9815 Y7.6711 
G01 X21.9574 Y7.6952 
G01 X21.9326 Y7.7185 
G01 X21.9302 Y7.7224 
G01 X20.6920 Y8.9606 
G01 X20.6645 Y8.9331 
G01 X20.6315 Y8.9194 
G01 X20.5956 Y8.9194 
G01 X20.5626 Y8.9331 
G01 X19.6392 Y9.8564 
G00 Z1.0000 
G00 X20.2049 Y10.4221 
G01 Z-0.0750 F50.80 
G01 X20.1912 Y10.4552 F101.60 
G01 X20.1912 Y10.4910 
G01 X20.2049 Y10.5241 
G01 X20.6254 Y10.9445 
G01 X20.6584 Y10.9582 
G01 X20.6942 Y10.9582 
G01 X20.7273 Y10.9445 
G01 X21.6507 Y10.0212 
G01 X21.6644 Y9.9881 
G01 X21.6644 Y9.9523 
G01 X21.6507 Y9.9192 
G01 X21.6425 Y9.9110 
G01 X21.6731 Y9.8823 
G01 X22.1584 Y9.5749 
G01 X22.1640 Y9.5787 
G01 X22.2728 Y9.6238 
G01 X22.3883 Y9.6467 
G01 X22.5061 Y9.6467 
G01 X22.6217 Y9.6238 
G01 X22.7305 Y9.5787 
G01 X22.8285 Y9.5132 
G01 X22.9117 Y9.4299 
G01 X22.9772 Y9.3320 
G01 X23.0223 Y9.2232 
G01 X23.0452 Y9.1076 
G01 X23.0452 Y8.9899 
G01 X23.0223 Y8.8743 
G01 X22.9772 Y8.7655 
G01 X22.9117 Y8.6675 
G01 X22.8285 Y8.5843 
G01 X22.7305 Y8.5188 
G01 X22.6217 Y8.4737 
G01 X22.5061 Y8.4507 
G01 X22.3883 Y8.4507 
G01 X22.2728 Y8.4737 
G01 X22.1640 Y8.5188 
G01 X22.0660 Y8.5843 
G01 X21.9828 Y8.6675 
G01 X21.9173 Y8.7655 
G01 X21.8722 Y8.8743 
G01 X21.8493 Y8.9899 
G01 X21.8493 Y9.0842 
G01 X21.3485 Y9.4013 
G01 X21.3243 Y9.4143 
G01 X21.3164 Y9.4217 
G01 X21.3073 Y9.4274 
G01 X21.2886 Y9.4477 
G01 X21.2321 Y9.5007 
G01 X21.2302 Y9.4988 
G01 X21.1971 Y9.4851 
G01 X21.1613 Y9.4851 
G01 X21.1283 Y9.4988 
G01 X20.2049 Y10.4221 
G00 Z1.0000 
G00 X20.7706 Y10.9878 
G01 Z-0.0750 F50.80 
G01 X20.7569 Y11.0209 F101.60 
G01 X20.7569 Y11.0567 
G01 X20.7706 Y11.0897 
G01 X21.1910 Y11.5102 
G01 X21.2241 Y11.5239 
G01 X21.2599 Y11.5239 
G01 X21.2930 Y11.5102 
G01 X21.5850 Y11.2182 
G01 X22.2666 Y11.7288 
G01 X22.2620 Y11.7521 
G01 X22.2620 Y11.8699 
G01 X22.2850 Y11.9854 
G01 X22.3301 Y12.0943 
G01 X22.3955 Y12.1922 
G01 X22.4788 Y12.2755 
G01 X22.5767 Y12.3409 
G01 X22.6856 Y12.3860 
G01 X22.8011 Y12.4090 
G01 X22.9189 Y12.4090 
G01 X23.0344 Y12.3860 
G01 X23.1433 Y12.3409 
G01 X23.2412 Y12.2755 
G01 X23.3245 Y12.1922 
G01 X23.3899 Y12.0943 
G01 X23.4350 Y11.9854 
G01 X23.4580 Y11.8699 
G01 X23.4580 Y11.7521 
G01 X23.4350 Y11.6366 
G01 X23.3899 Y11.5277 
G01 X23.3245 Y11.4298 
G01 X23.2412 Y11.3465 
G01 X23.1433 Y11.2811 
G01 X23.0344 Y11.2360 
G01 X22.9189 Y11.2130 
G01 X22.8011 Y11.2130 
G01 X22.6856 Y11.2360 
G01 X22.6151 Y11.2652 
G01 X21.9993 Y10.8039 
G01 X22.2163 Y10.5869 
G01 X22.2300 Y10.5538 
G01 X22.2300 Y10.5180 
G01 X22.2163 Y10.4849 
G01 X21.7959 Y10.0644 
G01 X21.7628 Y10.0507 
G01 X21.7270 Y10.0507 
G01 X21.6939 Y10.0644 
G01 X20.7706 Y10.9878 
G00 Z1.0000 
G00 X20.7706 Y12.5957 
G01 Z-0.0750 F50.80 
G01 X20.7569 Y12.6288 F101.60 
G01 X20.7569 Y12.6646 
G01 X20.7706 Y12.6977 
G01 X21.2845 Y13.2116 
G01 X21.2880 Y13.2247 
G01 X21.2903 Y13.2287 
G01 X21.2917 Y13.2331 
G01 X21.3094 Y13.2617 
G01 X21.3262 Y13.2908 
G01 X21.3295 Y13.2941 
G01 X21.3319 Y13.2980 
G01 X21.3564 Y13.3210 
G01 X21.3802 Y13.3448 
G01 X21.3842 Y13.3471 
G01 X21.3876 Y13.3503 
G01 X21.4172 Y13.3662 
G01 X21.4463 Y13.3830 
G01 X21.4508 Y13.3842 
G01 X21.4548 Y13.3864 
G01 X21.4606 Y13.3877 
G01 X21.6939 Y13.6211 
G01 X21.7270 Y13.6348 
G01 X21.7628 Y13.6348 
G01 X21.7959 Y13.6211 
G01 X22.0142 Y13.4027 
G01 X22.2319 Y13.4027 
G01 X22.4422 Y13.6130 
G01 X22.4208 Y13.7206 
G01 X22.4208 Y13.8384 
G01 X22.4437 Y13.9539 
G01 X22.4888 Y14.0628 
G01 X22.5543 Y14.1607 
G01 X22.6375 Y14.2440 
G01 X22.7355 Y14.3094 
G01 X22.8443 Y14.3545 
G01 X22.9598 Y14.3775 
G01 X23.0776 Y14.3775 
G01 X23.1932 Y14.3545 
G01 X23.3020 Y14.3094 
G01 X23.4000 Y14.2440 
G01 X23.4832 Y14.1607 
G01 X23.5487 Y14.0628 
G01 X23.5938 Y13.9539 
G01 X23.6167 Y13.8384 
G01 X23.6167 Y13.7206 
G01 X23.5938 Y13.6051 
G01 X23.5487 Y13.4962 
G01 X23.4832 Y13.3983 
G01 X23.4000 Y13.3150 
G01 X23.3020 Y13.2496 
G01 X23.1932 Y13.2045 
G01 X23.0776 Y13.1815 
G01 X22.9598 Y13.1815 
G01 X22.8523 Y13.2029 
G01 X22.5301 Y12.8807 
G01 X22.4639 Y12.8425 
G01 X22.3902 Y12.8227 
G01 X21.9405 Y12.8227 
G01 X21.2930 Y12.1753 
G01 X21.2599 Y12.1616 
G01 X21.2241 Y12.1616 
G01 X21.1910 Y12.1753 
G01 X20.7706 Y12.5957 
G00 Z1.0000 
G00 X20.1616 Y13.3067 
G01 Z-0.0750 F50.80 
G01 X20.1286 Y13.2930 F101.60 
G01 X20.0928 Y13.2930 
G01 X20.0597 Y13.3067 
G01 X19.6392 Y13.7271 
G01 X19.6255 Y13.7602 
G01 X19.6255 Y13.7960 
G01 X19.6392 Y13.8291 
G01 X20.5626 Y14.7524 
G01 X20.5956 Y14.7661 
G01 X20.6315 Y14.7661 
G01 X20.6645 Y14.7524 
G01 X21.0850 Y14.3320 
G01 X21.0987 Y14.2989 
G01 X21.0987 Y14.2631 
G01 X21.0850 Y14.2300 
G01 X20.1616 Y13.3067 
G00 Z1.0000 
G00 X19.5959 Y13.8724 
G01 Z-0.0750 F50.80 
G01 X19.5629 Y13.8587 F101.60 
G01 X19.5271 Y13.8587 
G01 X19.4940 Y13.8724 
G01 X19.0735 Y14.2928 
G01 X19.0598 Y14.3259 
G01 X19.0598 Y14.3617 
G01 X19.0735 Y14.3948 
G01 X19.9969 Y15.3181 
G01 X20.0300 Y15.3318 
G01 X20.0658 Y15.3318 
G01 X20.0988 Y15.3181 
G01 X20.5193 Y14.8977 
G01 X20.5330 Y14.8646 
G01 X20.5330 Y14.8288 
G01 X20.5193 Y14.7957 
G01 X19.5959 Y13.8724 
G00 Z1.0000 
G00 X18.4646 Y15.0037 
G01 Z-0.0750 F50.80 
G01 X18.4315 Y14.9900 F101.60 
G01 X18.3957 Y14.9900 
G01 X18.3626 Y15.0037 
G01 X17.9422 Y15.4242 
G01 X17.9285 Y15.4573 
G01 X17.9285 Y15.4931 
G01 X17.9422 Y15.5261 
G01 X18.8655 Y16.4495 
G01 X18.8986 Y16.4632 
G01 X18.9344 Y16.4632 
G01 X18.9675 Y16.4495 
G01 X19.3879 Y16.0290 
G01 X19.4016 Y15.9960 
G01 X19.4016 Y15.9601 
G01 X19.3879 Y15.9271 
G01 X18.4646 Y15.0037 
G00 Z1.0000 
G00 X17.8989 Y15.5694 
G01 Z-0.0750 F50.80 
G01 X17.8658 Y15.5557 F101.60 
G01 X17.8300 Y15.5557 
G01 X17.7969 Y15.5694 
G01 X17.3765 Y15.9899 
G01 X17.3628 Y16.0229 
G01 X17.3628 Y16.0587 
G01 X17.3765 Y16.0918 
G01 X18.2998 Y17.0152 
G01 X18.3329 Y17.0289 
G01 X18.3687 Y17.0289 
G01 X18.4018 Y17.0152 
G01 X18.8222 Y16.5947 
G01 X18.8359 Y16.5616 
G01 X18.8359 Y16.5258 
G01 X18.8222 Y16.4928 
G01 X17.8989 Y15.5694 
G00 Z1.0000 
G00 X17.3332 Y16.1351 
G01 Z-0.0750 F50.80 
G01 X17.3001 Y16.1214 F101.60 
G01 X17.2643 Y16.1214 
G01 X17.2312 Y16.1351 
G01 X16.8108 Y16.5555 
G01 X16.7971 Y16.5886 
G01 X16.7971 Y16.6244 
G01 X16.8108 Y16.6575 
G01 X17.7341 Y17.5809 
G01 X17.7672 Y17.5946 
G01 X17.8030 Y17.5946 
G01 X17.8361 Y17.5809 
G01 X18.2566 Y17.1604 
G01 X18.2703 Y17.1273 
G01 X18.2703 Y17.0915 
G01 X18.2566 Y17.0584 
G01 X17.3332 Y16.1351 
G00 Z1.0000 
G00 X15.7252 Y16.1351 
G01 Z-0.0750 F50.80 
G01 X15.6922 Y16.1214 F101.60 
G01 X15.6564 Y16.1214 
G01 X15.6233 Y16.1351 
G01 X14.6999 Y17.0584 
G01 X14.6862 Y17.0915 
G01 X14.6862 Y17.1273 
G01 X14.6999 Y17.1604 
G01 X15.1204 Y17.5809 
G01 X15.1535 Y17.5946 
G01 X15.1893 Y17.5946 
G01 X15.2224 Y17.5809 
G01 X16.1457 Y16.6575 
G01 X16.1594 Y16.6244 
G01 X16.1594 Y16.5886 
G01 X16.1457 Y16.5555 
G01 X15.7252 Y16.1351 
G00 Z1.0000 
G00 X15.5800 Y16.0918 
G01 Z-0.0750 F50.80 
G01 X15.5937 Y16.0587 F101.60 
G01 X15.5937 Y16.0229 
G01 X15.5800 Y15.9899 
G01 X15.1596 Y15.5694 
G01 X15.1265 Y15.5557 
G01 X15.0907 Y15.5557 
G01 X15.0576 Y15.5694 
G01 X14.1343 Y16.4928 
G01 X14.1206 Y16.5258 
G01 X14.1206 Y16.5616 
G01 X14.1343 Y16.5947 
G01 X14.5547 Y17.0152 
G01 X14.5878 Y17.0289 
G01 X14.6236 Y17.0289 
G01 X14.6567 Y17.0152 
G01 X15.5800 Y16.0918 
G00 Z1.0000 
G00 X15.0143 Y15.5261 
G01 Z-0.0750 F50.80 
G01 X15.0280 Y15.4931 F101.60 
G01 X15.0280 Y15.4573 
G01 X15.0143 Y15.4242 
G01 X14.5939 Y15.0037 
G01 X14.5608 Y14.9900 
G01 X14.5250 Y14.9900 
G01 X14.4919 Y15.0037 
G01 X13.5686 Y15.9271 
G01 X13.5549 Y15.9601 
G01 X13.5549 Y15.9960 
G01 X13.5686 Y16.0290 
G01 X13.9890 Y16.4495 
G01 X14.0221 Y16.4632 
G01 X14.0579 Y16.4632 
G01 X14.0910 Y16.4495 
G01 X15.0143 Y15.5261 
G00 Z1.0000 
G00 X14.4486 Y14.9604 
G01 Z-0.0750 F50.80 
G01 X14.4623 Y14.9274 F101.60 
G01 X14.4623 Y14.8916 
G01 X14.4486 Y14.8585 
G01 X14.0282 Y14.4380 
G01 X13.9951 Y14.4243 
G01 X13.9593 Y14.4243 
G01 X13.9262 Y14.4380 
G01 X13.0029 Y15.3614 
G01 X12.9892 Y15.3945 
G01 X12.9892 Y15.4303 
G01 X13.0029 Y15.4633 
G01 X13.4233 Y15.8838 
G01 X13.4564 Y15.8975 
G01 X13.4922 Y15.8975 
G01 X13.5253 Y15.8838 
G01 X14.4486 Y14.9604 
G00 Z1.0000 
G00 X13.8830 Y14.3948 
G01 Z-0.0750 F50.80 
G01 X13.8967 Y14.3617 F101.60 
G01 X13.8967 Y14.3259 
G01 X13.8830 Y14.2928 
G01 X13.4625 Y13.8724 
G01 X13.4294 Y13.8587 
G01 X13.3936 Y13.8587 
G01 X13.3605 Y13.8724 
G01 X12.4372 Y14.7957 
G01 X12.4235 Y14.8288 
G01 X12.4235 Y14.8646 
G01 X12.4372 Y14.8977 
G01 X12.4611 Y14.9215 
G01 X12.1759 Y15.1533 
G01 X11.2355 Y14.9840 
G01 X11.1979 Y14.8932 
G01 X11.1325 Y14.7953 
G01 X11.0492 Y14.7120 
G01 X10.9513 Y14.6466 
G01 X10.8424 Y14.6015 
G01 X10.7269 Y14.5785 
G01 X10.6091 Y14.5785 
G01 X10.4936 Y14.6015 
G01 X10.3847 Y14.6466 
G01 X10.2868 Y14.7120 
G01 X10.2035 Y14.7953 
G01 X10.1381 Y14.8932 
G01 X10.0930 Y15.0021 
G01 X10.0700 Y15.1176 
G01 X10.0700 Y15.2354 
G01 X10.0930 Y15.3509 
G01 X10.1381 Y15.4598 
G01 X10.2035 Y15.5577 
G01 X10.2868 Y15.6410 
G01 X10.3847 Y15.7064 
G01 X10.4936 Y15.7515 
G01 X10.6091 Y15.7745 
G01 X10.7269 Y15.7745 
G01 X10.8424 Y15.7515 
G01 X10.9513 Y15.7064 
G01 X11.0492 Y15.6410 
G01 X11.1325 Y15.5577 
G01 X11.1342 Y15.5551 
G01 X12.0257 Y15.7156 
G01 X12.1436 Y16.1328 
G01 X11.9573 Y16.1328 
G01 X11.9243 Y16.1465 
G01 X11.8989 Y16.1718 
G01 X11.8852 Y16.2048 
G01 X11.8852 Y17.6407 
G01 X11.8989 Y17.6737 
G01 X11.9243 Y17.6990 
G01 X11.9573 Y17.7127 
G01 X13.0931 Y17.7127 
G01 X13.1262 Y17.6990 
G01 X13.1515 Y17.6737 
G01 X13.1652 Y17.6407 
G01 X13.1652 Y16.2048 
G01 X13.1515 Y16.1718 
G01 X13.1262 Y16.1465 
G01 X13.0931 Y16.1328 
G01 X12.7463 Y16.1328 
G01 X12.5865 Y15.5670 
G01 X12.8809 Y15.3277 
G01 X12.8907 Y15.3318 
G01 X12.9265 Y15.3318 
G01 X12.9596 Y15.3181 
G01 X13.8830 Y14.3948 
G00 Z1.0000 
G00 X13.3173 Y13.8291 
G01 Z-0.0750 F50.80 
G01 X13.3310 Y13.7960 F101.60 
G01 X13.3310 Y13.7602 
G01 X13.3173 Y13.7271 
G01 X12.8968 Y13.3067 
G01 X12.8637 Y13.2930 
G01 X12.8279 Y13.2930 
G01 X12.7949 Y13.3067 
G01 X11.8715 Y14.2300 
G01 X11.8578 Y14.2631 
G01 X11.8578 Y14.2989 
G01 X11.8715 Y14.3320 
G01 X12.2920 Y14.7524 
G01 X12.3250 Y14.7661 
G01 X12.3608 Y14.7661 
G01 X12.3939 Y14.7524 
G01 X13.3173 Y13.8291 
G00 Z1.0000 
G00 X12.7516 Y13.2634 
G01 Z-0.0750 F50.80 
G01 X12.7653 Y13.2303 F101.60 
G01 X12.7653 Y13.1945 
G01 X12.7516 Y13.1614 
G01 X12.3311 Y12.7410 
G01 X12.2981 Y12.7273 
G01 X12.2623 Y12.7273 
G01 X12.2292 Y12.7410 
G01 X11.3058 Y13.6643 
G01 X11.2921 Y13.6974 
G01 X11.2921 Y13.7332 
G01 X11.3058 Y13.7663 
G01 X11.7263 Y14.1867 
G01 X11.7594 Y14.2004 
G01 X11.7952 Y14.2004 
G01 X11.8282 Y14.1867 
G01 X12.7516 Y13.2634 
G00 Z1.0000 
G00 X12.1859 Y12.6977 
G01 Z-0.0750 F50.80 
G01 X12.1996 Y12.6646 F101.60 
G01 X12.1996 Y12.6288 
G01 X12.1859 Y12.5957 
G01 X11.7654 Y12.1753 
G01 X11.7324 Y12.1616 
G01 X11.6966 Y12.1616 
G01 X11.6635 Y12.1753 
G01 X10.7401 Y13.0986 
G01 X10.7360 Y13.1087 
G01 X10.5634 Y13.2708 
G01 X10.5567 Y13.2680 
G01 X10.4411 Y13.2450 
G01 X10.3233 Y13.2450 
G01 X10.2078 Y13.2680 
G01 X10.0990 Y13.3131 
G01 X10.0010 Y13.3785 
G01 X9.9178 Y13.4618 
G01 X9.8523 Y13.5597 
G01 X9.8072 Y13.6686 
G01 X9.7843 Y13.7841 
G01 X9.7843 Y13.9019 
G01 X9.8072 Y14.0174 
G01 X9.8523 Y14.1263 
G01 X9.9178 Y14.2242 
G01 X10.0010 Y14.3075 
G01 X10.0990 Y14.3729 
G01 X10.2078 Y14.4180 
G01 X10.3233 Y14.4410 
G01 X10.4411 Y14.4410 
G01 X10.5567 Y14.4180 
G01 X10.6655 Y14.3729 
G01 X10.7635 Y14.3075 
G01 X10.8467 Y14.2242 
G01 X10.9122 Y14.1263 
G01 X10.9573 Y14.0174 
G01 X10.9802 Y13.9019 
G01 X10.9802 Y13.7841 
G01 X10.9634 Y13.6995 
G01 X11.1056 Y13.5660 
G01 X11.1606 Y13.6211 
G01 X11.1937 Y13.6348 
G01 X11.2295 Y13.6348 
G01 X11.2626 Y13.6211 
G01 X12.1859 Y12.6977 
G00 Z1.0000 
G00 X12.1859 Y11.0897 
G01 Z-0.0750 F50.80 
G01 X12.1996 Y11.0567 F101.60 
G01 X12.1996 Y11.0209 
G01 X12.1859 Y10.9878 
G01 X11.2626 Y10.0644 
G01 X11.2295 Y10.0507 
G01 X11.1937 Y10.0507 
G01 X11.1606 Y10.0644 
G01 X10.7401 Y10.4849 
G01 X10.7264 Y10.5180 
G01 X10.7264 Y10.5538 
G01 X10.7401 Y10.5869 
G01 X11.6635 Y11.5102 
G01 X11.6966 Y11.5239 
G01 X11.7324 Y11.5239 
G01 X11.7654 Y11.5102 
G01 X12.1859 Y11.0897 
G00 Z1.0000 
G00 X12.2292 Y10.9445 
G01 Z-0.0750 F50.80 
G01 X12.2623 Y10.9582 F101.60 
G01 X12.2981 Y10.9582 
G01 X12.3311 Y10.9445 
G01 X12.7516 Y10.5241 
G01 X12.7653 Y10.4910 
G01 X12.7653 Y10.4552 
G01 X12.7516 Y10.4221 
G01 X11.8282 Y9.4988 
G01 X11.7952 Y9.4851 
G01 X11.7594 Y9.4851 
G01 X11.7263 Y9.4988 
G01 X11.6930 Y9.5321 
G01 X11.5465 Y9.3856 
G01 X11.4797 Y9.3470 
G01 X11.4051 Y9.3270 
G01 X10.8834 Y9.3270 
G01 X10.8088 Y9.3470 
G01 X10.7612 Y9.3745 
G01 X10.7453 Y9.3788 
G01 X10.6785 Y9.4174 
G01 X9.7260 Y10.3699 
G01 X9.6714 Y10.4245 
G01 X9.6328 Y10.4913 
G01 X9.6128 Y10.5659 
G01 X9.6128 Y12.8961 
G01 X9.4174 Y13.0915 
G01 X9.4112 Y13.1022 
G01 X8.7928 Y13.7205 
G01 X7.7132 Y13.7205 
G01 X7.6801 Y13.7342 
G01 X7.6548 Y13.7596 
G01 X7.6411 Y13.7926 
G01 X7.6411 Y15.3285 
G01 X7.6548 Y15.3615 
G01 X7.6801 Y15.3868 
G01 X7.7132 Y15.4005 
G01 X9.0490 Y15.4005 
G01 X9.0821 Y15.3868 
G01 X9.1074 Y15.3615 
G01 X9.1211 Y15.3285 
G01 X9.1211 Y14.2125 
G01 X9.8213 Y13.5123 
G01 X9.8320 Y13.5061 
G01 X10.1406 Y13.1975 
G01 X10.1792 Y13.1307 
G01 X10.1992 Y13.0561 
G01 X10.1992 Y10.7259 
G01 X10.9986 Y9.9265 
G01 X11.0034 Y9.9252 
G01 X11.0238 Y9.9134 
G01 X11.2451 Y9.9134 
G01 X11.2921 Y9.9605 
G01 X11.2921 Y9.9881 
G01 X11.3058 Y10.0212 
G01 X12.2292 Y10.9445 
G00 Z1.0000 
G00 X8.0995 Y11.7752 
G01 Z-0.0750 F50.80 
G01 X8.0664 Y11.7615 F101.60 
G01 X6.0306 Y11.7615 
G01 X5.9975 Y11.7752 
G01 X5.9722 Y11.8006 
G01 X5.9585 Y11.8336 
G01 X5.9585 Y12.6616 
G01 X5.0664 Y13.7768 
G01 X3.8468 Y13.7907 
G01 X3.7732 Y13.8113 
G01 X3.7666 Y13.8153 
G01 X3.1703 Y13.8153 
G01 X3.1373 Y13.8290 
G01 X3.1120 Y13.8543 
G01 X3.0983 Y13.8873 
G01 X3.0983 Y14.2731 
G01 X3.1120 Y14.3062 
G01 X3.1373 Y14.3315 
G01 X3.1703 Y14.3452 
G01 X3.7678 Y14.3452 
G01 X3.7794 Y14.3517 
G01 X3.8534 Y14.3707 
G01 X5.1867 Y14.3555 
G01 X5.2011 Y14.3577 
G01 X5.2247 Y14.3551 
G01 X5.2485 Y14.3548 
G01 X5.2625 Y14.3509 
G01 X5.2770 Y14.3493 
G01 X5.2991 Y14.3406 
G01 X5.3220 Y14.3342 
G01 X5.3345 Y14.3268 
G01 X5.3481 Y14.3215 
G01 X5.3672 Y14.3074 
G01 X5.3877 Y14.2953 
G01 X5.3979 Y14.2848 
G01 X5.4096 Y14.2762 
G01 X5.4244 Y14.2577 
G01 X5.4411 Y14.2407 
G01 X5.4482 Y14.2280 
G01 X6.2908 Y13.1747 
G01 X6.3748 Y13.7205 
G01 X6.0132 Y13.7205 
G01 X5.9801 Y13.7342 
G01 X5.9548 Y13.7596 
G01 X5.9411 Y13.7926 
G01 X5.9411 Y15.3285 
G01 X5.9548 Y15.3615 
G01 X5.9801 Y15.3868 
G01 X6.0132 Y15.4005 
G01 X6.3457 Y15.4005 
G01 X6.3457 Y16.0256 
G01 X5.9116 Y16.0256 
G01 X5.8785 Y16.0393 
G01 X5.8532 Y16.0646 
G01 X5.8395 Y16.0977 
G01 X5.8395 Y17.6335 
G01 X5.8532 Y17.6666 
G01 X5.8785 Y17.6919 
G01 X5.9116 Y17.7056 
G01 X7.2474 Y17.7056 
G01 X7.2805 Y17.6919 
G01 X7.3058 Y17.6666 
G01 X7.3195 Y17.6335 
G01 X7.3195 Y16.0977 
G01 X7.3058 Y16.0646 
G01 X7.2805 Y16.0393 
G01 X7.2474 Y16.0256 
G01 X6.9257 Y16.0256 
G01 X6.9257 Y15.4005 
G01 X7.3490 Y15.4005 
G01 X7.3821 Y15.3868 
G01 X7.4074 Y15.3615 
G01 X7.4211 Y15.3285 
G01 X7.4211 Y13.7926 
G01 X7.4074 Y13.7596 
G01 X7.3821 Y13.7342 
G01 X7.3490 Y13.7205 
G01 X6.9616 Y13.7205 
G01 X6.8617 Y13.0709 
G01 X6.8692 Y13.0730 
G01 X6.8965 Y13.0822 
G01 X6.9059 Y13.0828 
G01 X6.9151 Y13.0852 
G01 X6.9439 Y13.0852 
G01 X6.9727 Y13.0871 
G01 X6.9820 Y13.0852 
G01 X6.9914 Y13.0852 
G01 X7.0193 Y13.0778 
G01 X7.0476 Y13.0721 
G01 X7.0560 Y13.0679 
G01 X7.0652 Y13.0655 
G01 X7.0902 Y13.0511 
G01 X7.1094 Y13.0415 
G01 X8.0664 Y13.0415 
G01 X8.0995 Y13.0278 
G01 X8.1248 Y13.0025 
G01 X8.1385 Y12.9695 
G01 X8.1385 Y11.8336 
G01 X8.1248 Y11.8006 
G01 X8.0995 Y11.7752 
G00 Z1.0000 
G00 X4.6392 Y12.5290 
G01 Z-0.0750 F50.80 
G01 X4.6062 Y12.5152 F101.60 
G01 X3.1703 Y12.5152 
G01 X3.1373 Y12.5290 
G01 X3.1120 Y12.5543 
G01 X3.0983 Y12.5873 
G01 X3.0983 Y12.9732 
G01 X3.1120 Y13.0062 
G01 X3.1373 Y13.0315 
G01 X3.1703 Y13.0452 
G01 X4.6062 Y13.0452 
G01 X4.6392 Y13.0315 
G01 X4.6645 Y13.0062 
G01 X4.6782 Y12.9732 
G01 X4.6782 Y12.5873 
G01 X4.6645 Y12.5543 
G01 X4.6392 Y12.5290 
G00 Z1.0000 
G00 X23.7575 Y12.1796 
G01 Z-0.0750 F50.80 
G01 X23.7575 Y13.4154 F101.60 
G01 X23.7712 Y13.4485 
G01 X23.7965 Y13.4738 
G01 X23.8296 Y13.4875 
G01 X25.0654 Y13.4875 
G01 X25.0985 Y13.4738 
G01 X25.1238 Y13.4485 
G01 X25.1375 Y13.4154 
G01 X25.1375 Y13.0907 
G01 X25.5625 Y13.0907 
G01 X25.5625 Y13.3154 
G01 X25.5762 Y13.3485 
G01 X25.6015 Y13.3738 
G01 X25.6346 Y13.3875 
G01 X27.0704 Y13.3875 
G01 X27.1035 Y13.3738 
G01 X27.1288 Y13.3485 
G01 X27.1425 Y13.3154 
G01 X27.1425 Y12.1796 
G01 X27.1288 Y12.1465 
G01 X27.1035 Y12.1212 
G01 X27.0704 Y12.1075 
G01 X25.6346 Y12.1075 
G01 X25.6015 Y12.1212 
G01 X25.5762 Y12.1465 
G01 X25.5625 Y12.1796 
G01 X25.5625 Y12.5043 
G01 X25.1375 Y12.5043 
G01 X25.1375 Y12.1796 
G01 X25.1238 Y12.1465 
G01 X25.0985 Y12.1212 
G01 X25.0654 Y12.1075 
G01 X23.8296 Y12.1075 
G01 X23.7965 Y12.1212 
G01 X23.7712 Y12.1465 
G01 X23.7575 Y12.1796 
G00 Z1.0000 
G00 X23.4676 Y14.3890 
G01 Z-0.0750 F50.80 
G01 X23.4346 Y14.4027 F101.60 
G01 X23.4093 Y14.4280 
G01 X23.3956 Y14.4611 
G01 X23.3956 Y15.6969 
G01 X23.4093 Y15.7300 
G01 X23.4346 Y15.7553 
G01 X23.4676 Y15.7690 
G01 X24.7035 Y15.7690 
G01 X24.7365 Y15.7553 
G01 X24.7618 Y15.7300 
G01 X24.7755 Y15.6969 
G01 X24.7755 Y15.3827 
G01 X25.3720 Y15.3918 
G01 X25.3720 Y15.6969 
G01 X25.3857 Y15.7300 
G01 X25.4110 Y15.7553 
G01 X25.4441 Y15.7690 
G01 X26.8799 Y15.7690 
G01 X26.9130 Y15.7553 
G01 X26.9383 Y15.7300 
G01 X26.9520 Y15.6969 
G01 X26.9520 Y14.5611 
G01 X26.9383 Y14.5280 
G01 X26.9130 Y14.5027 
G01 X26.8799 Y14.4890 
G01 X25.4441 Y14.4890 
G01 X25.4110 Y14.5027 
G01 X25.3857 Y14.5280 
G01 X25.3720 Y14.5611 
G01 X25.3720 Y14.8053 
G01 X24.7755 Y14.7962 
G01 X24.7755 Y14.4611 
G01 X24.7618 Y14.4280 
G01 X24.7365 Y14.4027 
G01 X24.7035 Y14.3890 
G01 X23.4676 Y14.3890 
G00 Z1.0000 
G00 X23.8918 Y8.7430 
G01 Z-0.0750 F50.80 
G01 X23.9248 Y8.7567 F101.60 
G01 X25.1607 Y8.7567 
G01 X25.1937 Y8.7430 
G01 X25.2190 Y8.7177 
G01 X25.2327 Y8.6846 
G01 X25.2327 Y8.3599 
G01 X25.7213 Y8.3599 
G01 X25.7213 Y8.7752 
G01 X25.7350 Y8.8082 
G01 X25.7603 Y8.8335 
G01 X25.7933 Y8.8472 
G01 X27.2292 Y8.8472 
G01 X27.2622 Y8.8335 
G01 X27.2875 Y8.8082 
G01 X27.3012 Y8.7752 
G01 X27.3012 Y7.6393 
G01 X27.2875 Y7.6063 
G01 X27.2622 Y7.5809 
G01 X27.2292 Y7.5672 
G01 X25.7933 Y7.5672 
G01 X25.7603 Y7.5809 
G01 X25.7350 Y7.6063 
G01 X25.7213 Y7.6393 
G01 X25.7213 Y7.7736 
G01 X25.2327 Y7.7736 
G01 X25.2327 Y7.4488 
G01 X25.2190 Y7.4158 
G01 X25.1937 Y7.3905 
G01 X25.1607 Y7.3768 
G01 X23.9248 Y7.3768 
G01 X23.8918 Y7.3905 
G01 X23.8665 Y7.4158 
G01 X23.8528 Y7.4488 
G01 X23.8528 Y8.6846 
G01 X23.8665 Y8.7177 
G01 X23.8918 Y8.7430 
G00 Z1.0000 
G00 X23.8918 Y4.8060 
G01 Z-0.0750 F50.80 
G01 X23.9248 Y4.8197 F101.60 
G01 X25.1607 Y4.8197 
G01 X25.1937 Y4.8060 
G01 X25.2190 Y4.7807 
G01 X25.2327 Y4.7477 
G01 X25.2327 Y4.4229 
G01 X25.9118 Y4.4229 
G01 X25.9118 Y4.5206 
G01 X25.9255 Y4.5537 
G01 X25.9508 Y4.5790 
G01 X25.9838 Y4.5927 
G01 X27.4197 Y4.5927 
G01 X27.4527 Y4.5790 
G01 X27.4780 Y4.5537 
G01 X27.4917 Y4.5206 
G01 X27.4917 Y3.3848 
G01 X27.4780 Y3.3518 
G01 X27.4527 Y3.3264 
G01 X27.4197 Y3.3127 
G01 X25.9838 Y3.3127 
G01 X25.9508 Y3.3264 
G01 X25.9255 Y3.3518 
G01 X25.9118 Y3.3848 
G01 X25.9118 Y3.8365 
G01 X25.2327 Y3.8365 
G01 X25.2327 Y3.5118 
G01 X25.2190 Y3.4788 
G01 X25.1937 Y3.4535 
G01 X25.1607 Y3.4398 
G01 X23.9248 Y3.4398 
G01 X23.8918 Y3.4535 
G01 X23.8665 Y3.4788 
G01 X23.8528 Y3.5118 
G01 X23.8528 Y4.7477 
G01 X23.8665 Y4.7807 
G01 X23.8918 Y4.8060 
G00 Z1.0000 
G00 X-1.1925 Y-0.0604 
G01 Z-0.0750 F50.80 
G01 X-1.1925 Y1.9654 F101.60 
G01 X-1.1560 Y2.0536 
G01 X-1.0884 Y2.1212 
G01 X-1.0002 Y2.1577 
G01 X2.9052 Y2.1577 
G01 X2.9934 Y2.1212 
G01 X3.0610 Y2.0536 
G01 X3.0975 Y1.9654 
G01 X3.0975 Y1.3957 
G01 X7.4364 Y1.3957 
G01 X7.8504 Y1.8096 
G01 X8.3274 Y3.9565 
G01 X8.3127 Y3.9712 
G01 X8.2314 Y4.0930 
G01 X8.1754 Y4.2282 
G01 X8.1468 Y4.3718 
G01 X8.1468 Y4.5182 
G01 X8.1754 Y4.6618 
G01 X8.2314 Y4.7970 
G01 X8.3127 Y4.9188 
G01 X8.4162 Y5.0223 
G01 X8.5380 Y5.1036 
G01 X8.6732 Y5.1596 
G01 X8.8168 Y5.1882 
G01 X8.9632 Y5.1882 
G01 X9.1068 Y5.1596 
G01 X9.2420 Y5.1036 
G01 X9.3638 Y5.0223 
G01 X9.4673 Y4.9188 
G01 X9.5486 Y4.7970 
G01 X9.5834 Y4.7129 
G01 X9.5834 Y5.7735 
G01 X6.7924 Y5.7735 
G01 X6.8238 Y5.7525 
G01 X6.9273 Y5.6490 
G01 X7.0086 Y5.5273 
G01 X7.0646 Y5.3920 
G01 X7.0932 Y5.2485 
G01 X7.0932 Y5.1020 
G01 X7.0646 Y4.9585 
G01 X7.0086 Y4.8232 
G01 X6.9273 Y4.7015 
G01 X6.8238 Y4.5980 
G01 X6.7020 Y4.5166 
G01 X6.5668 Y4.4606 
G01 X6.4232 Y4.4321 
G01 X6.2768 Y4.4321 
G01 X6.1332 Y4.4606 
G01 X5.9980 Y4.5166 
G01 X5.8762 Y4.5980 
G01 X5.7727 Y4.7015 
G01 X5.7671 Y4.7099 
G01 X3.8765 Y4.6390 
G01 X3.8683 Y4.6368 
G01 X3.8183 Y4.6368 
G01 X3.7683 Y4.6349 
G01 X3.7601 Y4.6368 
G01 X3.7517 Y4.6368 
G01 X3.7033 Y4.6497 
G01 X3.6545 Y4.6609 
G01 X3.6471 Y4.6648 
G01 X3.6389 Y4.6670 
G01 X3.5956 Y4.6920 
G01 X3.5513 Y4.7154 
G01 X3.5452 Y4.7211 
G01 X3.5379 Y4.7253 
G01 X3.5025 Y4.7607 
G01 X3.4658 Y4.7948 
G01 X3.4613 Y4.8019 
G01 X3.0975 Y5.1657 
G01 X3.0975 Y5.0196 
G01 X3.0610 Y4.9314 
G01 X2.9934 Y4.8638 
G01 X2.9052 Y4.8273 
G01 X-1.0002 Y4.8273 
G01 X-1.0884 Y4.8638 
G01 X-1.1560 Y4.9314 
G01 X-1.1925 Y5.0196 
G01 X-1.1925 Y7.0454 
G01 X-1.1560 Y7.1336 
G01 X-1.0884 Y7.2012 
G01 X-1.0002 Y7.2377 
G01 X0.7890 Y7.2377 
G01 X0.7040 Y7.2546 
G01 X0.5687 Y7.3106 
G01 X0.4470 Y7.3920 
G01 X0.3435 Y7.4955 
G01 X0.2621 Y7.6172 
G01 X0.2061 Y7.7525 
G01 X0.1776 Y7.8960 
G01 X0.1776 Y8.0425 
G01 X0.2061 Y8.1860 
G01 X0.2405 Y8.2690 
G01 X-0.1112 Y8.2690 
G01 X-0.1994 Y8.3055 
G01 X-0.2670 Y8.3730 
G01 X-0.3035 Y8.4613 
G01 X-0.3035 Y18.3992 
G01 X-0.2670 Y18.4874 
G01 X-0.1994 Y18.5550 
G01 X-0.1112 Y18.5915 
G01 X2.9052 Y18.5915 
G01 X2.9934 Y18.5550 
G01 X3.0610 Y18.4874 
G01 X3.0975 Y18.3992 
G01 X3.0975 Y15.4228 
G01 X3.1590 Y15.4482 
G01 X3.6193 Y15.4482 
G01 X3.6198 Y15.4503 
G01 X3.6915 Y15.5745 
G01 X4.2161 Y16.0990 
G01 X4.2020 Y16.1331 
G01 X4.1733 Y16.2776 
G01 X4.1733 Y16.3288 
G01 X3.8503 Y16.6517 
G01 X3.7786 Y16.7760 
G01 X3.7414 Y16.9145 
G01 X3.7414 Y18.2645 
G01 X3.7786 Y18.4030 
G01 X3.8503 Y18.5273 
G01 X3.9517 Y18.6287 
G01 X4.0760 Y18.7004 
G01 X4.2145 Y18.7375 
G01 X21.4712 Y18.7375 
G01 X21.6098 Y18.7004 
G01 X21.7215 Y18.6359 
G01 X24.1248 Y18.6359 
G01 X24.2376 Y18.6057 
G01 X24.3386 Y18.5474 
G01 X24.4211 Y18.4649 
G01 X24.4795 Y18.3638 
G01 X24.5097 Y18.2511 
G01 X24.5097 Y18.0190 
G01 X24.7333 Y18.0190 
G01 X24.8215 Y17.9825 
G01 X24.8890 Y17.9149 
G01 X24.9255 Y17.8267 
G01 X24.9255 Y16.5313 
G01 X24.8890 Y16.4430 
G01 X24.8215 Y16.3755 
G01 X24.7333 Y16.3390 
G01 X24.4840 Y16.3390 
G01 X24.4795 Y16.3221 
G01 X24.4764 Y16.3167 
G01 X24.4746 Y16.3107 
G01 X24.4473 Y16.2663 
G01 X24.4211 Y16.2211 
G01 X24.4167 Y16.2167 
G01 X24.4135 Y16.2113 
G01 X24.3755 Y16.1754 
G01 X24.3386 Y16.1385 
G01 X24.3332 Y16.1354 
G01 X24.3287 Y16.1311 
G01 X24.2828 Y16.1063 
G01 X24.2376 Y16.0802 
G01 X24.2315 Y16.0786 
G01 X24.2260 Y16.0756 
G01 X24.1753 Y16.0635 
G01 X24.1248 Y16.0500 
G01 X24.1186 Y16.0500 
G01 X24.1125 Y16.0485 
G01 X24.0603 Y16.0500 
G01 X24.0082 Y16.0500 
G01 X24.0021 Y16.0516 
G01 X23.9959 Y16.0518 
G01 X23.9458 Y16.0667 
G01 X23.8954 Y16.0802 
G01 X23.8900 Y16.0833 
G01 X23.8840 Y16.0851 
G01 X23.8396 Y16.1124 
G01 X23.7944 Y16.1385 
G01 X23.7900 Y16.1430 
G01 X23.7846 Y16.1462 
G01 X23.7487 Y16.1842 
G01 X23.7118 Y16.2211 
G01 X23.7087 Y16.2265 
G01 X23.7044 Y16.2310 
G01 X23.6796 Y16.2769 
G01 X23.6535 Y16.3221 
G01 X23.6519 Y16.3282 
G01 X23.6489 Y16.3337 
G01 X23.6476 Y16.3390 
G01 X23.4378 Y16.3390 
G01 X23.3496 Y16.3755 
G01 X23.2821 Y16.4430 
G01 X23.2456 Y16.5313 
G01 X23.2456 Y17.7495 
G01 X21.8395 Y17.7495 
G01 X21.8395 Y13.8486 
G01 X21.8194 Y13.7737 
G01 X21.8809 Y13.7482 
G01 X22.0763 Y13.5527 
G01 X22.1697 Y13.5527 
G01 X22.2794 Y13.6624 
G01 X22.2707 Y13.7058 
G01 X22.2707 Y13.8532 
G01 X22.2995 Y13.9977 
G01 X22.3559 Y14.1338 
G01 X22.4377 Y14.2563 
G01 X22.5419 Y14.3605 
G01 X22.6644 Y14.4424 
G01 X22.8006 Y14.4988 
G01 X22.9451 Y14.5275 
G01 X23.0924 Y14.5275 
G01 X23.2369 Y14.4988 
G01 X23.2456 Y14.4952 
G01 X23.2456 Y15.7267 
G01 X23.2821 Y15.8149 
G01 X23.3496 Y15.8825 
G01 X23.4378 Y15.9190 
G01 X24.7333 Y15.9190 
G01 X24.8215 Y15.8825 
G01 X24.8890 Y15.8149 
G01 X24.9255 Y15.7267 
G01 X24.9255 Y15.5350 
G01 X25.2220 Y15.5395 
G01 X25.2220 Y15.7267 
G01 X25.2585 Y15.8149 
G01 X25.3260 Y15.8825 
G01 X25.4143 Y15.9190 
G01 X26.9097 Y15.9190 
G01 X26.9979 Y15.8825 
G01 X27.0655 Y15.8149 
G01 X27.1020 Y15.7267 
G01 X27.1020 Y14.5313 
G01 X27.0655 Y14.4430 
G01 X26.9979 Y14.3755 
G01 X26.9097 Y14.3390 
G01 X25.4143 Y14.3390 
G01 X25.3260 Y14.3755 
G01 X25.2585 Y14.4430 
G01 X25.2220 Y14.5313 
G01 X25.2220 Y14.6530 
G01 X24.9255 Y14.6485 
G01 X24.9255 Y14.4313 
G01 X24.8890 Y14.3430 
G01 X24.8215 Y14.2755 
G01 X24.7333 Y14.2390 
G01 X23.6113 Y14.2390 
G01 X23.6816 Y14.1338 
G01 X23.7380 Y13.9977 
G01 X23.7667 Y13.8532 
G01 X23.7667 Y13.7058 
G01 X23.7490 Y13.6165 
G01 X23.7998 Y13.6375 
G01 X25.0952 Y13.6375 
G01 X25.1834 Y13.6010 
G01 X25.2510 Y13.5334 
G01 X25.2875 Y13.4452 
G01 X25.2875 Y13.2407 
G01 X25.4125 Y13.2407 
G01 X25.4125 Y13.3452 
G01 X25.4490 Y13.4334 
G01 X25.5165 Y13.5010 
G01 X25.6048 Y13.5375 
G01 X27.1002 Y13.5375 
G01 X27.1884 Y13.5010 
G01 X27.2560 Y13.4334 
G01 X27.2925 Y13.3452 
G01 X27.2925 Y12.1498 
G01 X27.2560 Y12.0616 
G01 X27.1884 Y11.9940 
G01 X27.1002 Y11.9575 
G01 X25.6048 Y11.9575 
G01 X25.5165 Y11.9940 
G01 X25.4490 Y12.0616 
G01 X25.4125 Y12.1498 
G01 X25.4125 Y12.3543 
G01 X25.2875 Y12.3543 
G01 X25.2875 Y12.1498 
G01 X25.2510 Y12.0616 
G01 X25.1834 Y11.9940 
G01 X25.0952 Y11.9575 
G01 X23.7998 Y11.9575 
G01 X23.7115 Y11.9940 
G01 X23.6440 Y12.0616 
G01 X23.6075 Y12.1498 
G01 X23.6075 Y13.3143 
G01 X23.5998 Y13.3027 
G01 X23.4956 Y13.1985 
G01 X23.3731 Y13.1166 
G01 X23.2369 Y13.0602 
G01 X23.0924 Y13.0315 
G01 X22.9451 Y13.0315 
G01 X22.9016 Y13.0401 
G01 X22.6222 Y12.7607 
G01 X22.5218 Y12.7027 
G01 X22.4099 Y12.6728 
G01 X22.0026 Y12.6728 
G01 X21.3780 Y12.0481 
G01 X21.2898 Y12.0116 
G01 X21.1943 Y12.0116 
G01 X21.1061 Y12.0481 
G01 X20.6434 Y12.5108 
G01 X20.6197 Y12.5680 
G01 X20.6057 Y12.5540 
G01 X20.5725 Y12.5180 
G01 X20.5648 Y12.5131 
G01 X20.5584 Y12.5067 
G01 X20.5160 Y12.4822 
G01 X20.4747 Y12.4560 
G01 X20.4660 Y12.4533 
G01 X20.4581 Y12.4487 
G01 X20.4108 Y12.4361 
G01 X20.3641 Y12.4215 
G01 X20.3550 Y12.4211 
G01 X20.3462 Y12.4187 
G01 X20.2972 Y12.4187 
G01 X18.9199 Y12.3625 
G01 X15.5313 Y9.0334 
G01 X15.4941 Y8.7728 
G01 X15.4948 Y8.7557 
G01 X15.4858 Y8.7153 
G01 X15.4800 Y8.6743 
G01 X15.4733 Y8.6585 
G01 X15.4695 Y8.6418 
G01 X15.4504 Y8.6051 
G01 X15.4342 Y8.5670 
G01 X15.4236 Y8.5535 
G01 X15.4156 Y8.5383 
G01 X15.3877 Y8.5078 
G01 X15.3621 Y8.4752 
G01 X15.3484 Y8.4649 
G01 X15.1725 Y8.2731 
G01 X15.2445 Y8.2432 
G01 X15.7072 Y7.7806 
G01 X15.7374 Y7.7077 
G01 X15.8102 Y7.6776 
G01 X16.2729 Y7.2149 
G01 X16.3094 Y7.1267 
G01 X16.3094 Y7.0312 
G01 X16.2729 Y6.9432 
G01 X16.9256 Y6.6613 
G01 X16.9661 Y6.6471 
G01 X16.9790 Y6.6383 
G01 X16.9933 Y6.6321 
G01 X16.9995 Y6.6272 
G01 X16.6836 Y6.9430 
G01 X16.6471 Y7.0312 
G01 X16.6471 Y7.1267 
G01 X16.6836 Y7.2149 
G01 X17.1463 Y7.6776 
G01 X17.2191 Y7.7077 
G01 X17.2493 Y7.7806 
G01 X17.7120 Y8.2432 
G01 X17.7848 Y8.2734 
G01 X17.8150 Y8.3463 
G01 X18.2777 Y8.8089 
G01 X18.3505 Y8.8391 
G01 X18.3807 Y8.9120 
G01 X18.8433 Y9.3746 
G01 X18.9162 Y9.4048 
G01 X18.9464 Y9.4777 
G01 X19.4090 Y9.9403 
G01 X19.4819 Y9.9705 
G01 X19.5121 Y10.0433 
G01 X19.9747 Y10.5060 
G01 X20.0476 Y10.5362 
G01 X20.0777 Y10.6090 
G01 X20.5404 Y11.0717 
G01 X20.6133 Y11.1019 
G01 X20.6434 Y11.1747 
G01 X21.1061 Y11.6374 
G01 X21.1943 Y11.6739 
G01 X21.2898 Y11.6739 
G01 X21.3780 Y11.6374 
G01 X21.5991 Y11.4162 
G01 X22.1120 Y11.8004 
G01 X22.1120 Y11.8847 
G01 X22.1407 Y12.0292 
G01 X22.1971 Y12.1653 
G01 X22.2790 Y12.2878 
G01 X22.3832 Y12.3920 
G01 X22.5057 Y12.4739 
G01 X22.6418 Y12.5303 
G01 X22.7863 Y12.5590 
G01 X22.9337 Y12.5590 
G01 X23.0782 Y12.5303 
G01 X23.2143 Y12.4739 
G01 X23.3368 Y12.3920 
G01 X23.4410 Y12.2878 
G01 X23.5229 Y12.1653 
G01 X23.5793 Y12.0292 
G01 X23.6080 Y11.8847 
G01 X23.6080 Y11.7373 
G01 X23.5793 Y11.5928 
G01 X23.5229 Y11.4567 
G01 X23.4410 Y11.3342 
G01 X23.3368 Y11.2300 
G01 X23.2143 Y11.1481 
G01 X23.0782 Y11.0917 
G01 X22.9337 Y11.0630 
G01 X22.7863 Y11.0630 
G01 X22.6418 Y11.0917 
G01 X22.6366 Y11.0939 
G01 X22.2277 Y10.7876 
G01 X22.3435 Y10.6718 
G01 X22.3801 Y10.5836 
G01 X22.3801 Y10.4881 
G01 X22.3435 Y10.3999 
G01 X21.8809 Y9.9373 
G01 X21.8723 Y9.9337 
G01 X22.1715 Y9.7442 
G01 X22.2291 Y9.7680 
G01 X22.3736 Y9.7967 
G01 X22.5209 Y9.7967 
G01 X22.6654 Y9.7680 
G01 X22.8016 Y9.7116 
G01 X22.9241 Y9.6298 
G01 X23.0283 Y9.5256 
G01 X23.1101 Y9.4031 
G01 X23.1361 Y9.3403 
G01 X23.1479 Y9.3820 
G01 X23.1498 Y9.3851 
G01 X23.1508 Y9.3887 
G01 X23.1796 Y9.4352 
G01 X23.6075 Y10.1534 
G01 X23.6075 Y11.3452 
G01 X23.6440 Y11.4334 
G01 X23.7115 Y11.5010 
G01 X23.7998 Y11.5375 
G01 X25.0952 Y11.5375 
G01 X25.1834 Y11.5010 
G01 X25.2510 Y11.4334 
G01 X25.2875 Y11.3452 
G01 X25.2875 Y10.0498 
G01 X25.2510 Y9.9616 
G01 X25.1834 Y9.8940 
G01 X25.0952 Y9.8575 
G01 X24.4630 Y9.8575 
G01 X23.9672 Y9.0254 
G01 X23.9316 Y8.9067 
G01 X25.1905 Y8.9067 
G01 X25.2787 Y8.8702 
G01 X25.3462 Y8.8027 
G01 X25.3827 Y8.7145 
G01 X25.3827 Y8.5099 
G01 X25.5712 Y8.5099 
G01 X25.5712 Y8.8050 
G01 X25.6078 Y8.8932 
G01 X25.6753 Y8.9607 
G01 X25.7635 Y8.9972 
G01 X27.2590 Y8.9972 
G01 X27.3472 Y8.9607 
G01 X27.4147 Y8.8932 
G01 X27.4512 Y8.8050 
G01 X27.4512 Y7.6095 
G01 X27.4147 Y7.5213 
G01 X27.3472 Y7.4538 
G01 X27.2590 Y7.4173 
G01 X25.7635 Y7.4173 
G01 X25.6753 Y7.4538 
G01 X25.6078 Y7.5213 
G01 X25.5712 Y7.6095 
G01 X25.5712 Y7.6235 
G01 X25.3827 Y7.6235 
G01 X25.3827 Y7.4190 
G01 X25.3462 Y7.3308 
G01 X25.2787 Y7.2633 
G01 X25.1905 Y7.2268 
G01 X23.8950 Y7.2268 
G01 X23.8068 Y7.2633 
G01 X23.7393 Y7.3308 
G01 X23.7028 Y7.4190 
G01 X23.7028 Y8.1454 
G01 X23.6059 Y7.8230 
G01 X23.5956 Y7.7794 
G01 X23.5891 Y7.7673 
G01 X23.5851 Y7.7541 
G01 X23.5616 Y7.7160 
G01 X23.5405 Y7.6766 
G01 X23.5310 Y7.6665 
G01 X23.5238 Y7.6548 
G01 X23.4912 Y7.6241 
G01 X23.4606 Y7.5915 
G01 X23.4489 Y7.5843 
G01 X23.4388 Y7.5748 
G01 X23.3994 Y7.5536 
G01 X23.3614 Y7.5300 
G01 X23.3482 Y7.5261 
G01 X23.3360 Y7.5195 
G01 X23.2925 Y7.5093 
G01 X23.2497 Y7.4963 
G01 X23.2359 Y7.4959 
G01 X23.2225 Y7.4927 
G01 X23.1778 Y7.4941 
G01 X22.6759 Y7.4784 
G01 X23.7028 Y6.4515 
G01 X23.7028 Y6.6145 
G01 X23.7393 Y6.7027 
G01 X23.8068 Y6.7702 
G01 X23.8950 Y6.8067 
G01 X25.1905 Y6.8067 
G01 X25.2787 Y6.7702 
G01 X25.3462 Y6.7027 
G01 X25.3827 Y6.6145 
G01 X25.3827 Y5.3190 
G01 X25.3462 Y5.2308 
G01 X25.2787 Y5.1633 
G01 X25.1905 Y5.1268 
G01 X23.8950 Y5.1268 
G01 X23.8068 Y5.1633 
G01 X23.7393 Y5.2308 
G01 X23.7183 Y5.2814 
G01 X23.6414 Y5.3020 
G01 X23.5404 Y5.3604 
G01 X23.4579 Y5.4429 
G01 X22.0414 Y6.8593 
G01 X21.5316 Y6.8593 
G01 X21.5116 Y6.8647 
G01 X21.5620 Y6.8143 
G01 X21.9205 Y6.7932 
G01 X21.9658 Y6.7932 
G01 X21.9786 Y6.7898 
G01 X21.9918 Y6.7890 
G01 X22.0348 Y6.7747 
G01 X22.0786 Y6.7630 
G01 X22.0900 Y6.7564 
G01 X22.1025 Y6.7522 
G01 X22.1404 Y6.7273 
G01 X22.1796 Y6.7046 
G01 X22.1890 Y6.6953 
G01 X22.2000 Y6.6881 
G01 X22.2301 Y6.6542 
G01 X22.4971 Y6.3871 
G01 X22.5796 Y6.3046 
G01 X22.6380 Y6.2036 
G01 X22.6682 Y6.0908 
G01 X22.6682 Y4.5311 
G01 X23.7028 Y3.4965 
G01 X23.7028 Y4.7775 
G01 X23.7393 Y4.8657 
G01 X23.8068 Y4.9332 
G01 X23.8950 Y4.9697 
G01 X25.1905 Y4.9697 
G01 X25.2787 Y4.9332 
G01 X25.3462 Y4.8657 
G01 X25.3827 Y4.7775 
G01 X25.3827 Y4.5729 
G01 X25.7711 Y4.5729 
G01 X25.7983 Y4.6387 
G01 X25.8658 Y4.7062 
G01 X25.9540 Y4.7427 
G01 X27.4495 Y4.7427 
G01 X27.5377 Y4.7062 
G01 X27.6052 Y4.6387 
G01 X27.6417 Y4.5505 
G01 X27.6417 Y3.3550 
G01 X27.6052 Y3.2668 
G01 X27.5377 Y3.1993 
G01 X27.4495 Y3.1627 
G01 X25.9540 Y3.1627 
G01 X25.8658 Y3.1993 
G01 X25.7983 Y3.2668 
G01 X25.7617 Y3.3550 
G01 X25.7617 Y3.6865 
G01 X25.3827 Y3.6865 
G01 X25.3827 Y3.4820 
G01 X25.3462 Y3.3938 
G01 X25.2787 Y3.3263 
G01 X25.1905 Y3.2898 
G01 X23.9095 Y3.2898 
G01 X24.3295 Y2.8697 
G01 X25.1905 Y2.8697 
G01 X25.2787 Y2.8332 
G01 X25.3462 Y2.7657 
G01 X25.3827 Y2.6775 
G01 X25.3827 Y1.3820 
G01 X25.3462 Y1.2938 
G01 X25.2787 Y1.2263 
G01 X25.1905 Y1.1898 
G01 X23.8950 Y1.1898 
G01 X23.8068 Y1.2263 
G01 X23.7393 Y1.2938 
G01 X23.7028 Y1.3820 
G01 X23.7028 Y2.2430 
G01 X21.8703 Y4.0754 
G01 X21.8395 Y4.1288 
G01 X21.8395 Y2.6380 
G01 X21.8402 Y2.5827 
G01 X21.8395 Y2.5801 
G01 X21.8395 Y2.5773 
G01 X21.8377 Y2.5708 
G01 X21.8377 Y2.5410 
G01 X21.8395 Y2.5344 
G01 X21.8395 Y2.5188 
G01 X21.8425 Y2.5034 
G01 X21.8395 Y2.4611 
G01 X21.8395 Y1.9423 
G01 X21.8377 Y1.9358 
G01 X21.8377 Y1.7105 
G01 X21.8012 Y1.6223 
G01 X21.7337 Y1.5548 
G01 X21.7157 Y1.5473 
G01 X21.7157 Y1.0210 
G01 X26.3487 Y1.0210 
G01 X26.3176 Y1.1627 
G01 X25.9540 Y1.1627 
G01 X25.8658 Y1.1993 
G01 X25.7983 Y1.2668 
G01 X25.7617 Y1.3550 
G01 X25.7617 Y2.5505 
G01 X25.7983 Y2.6387 
G01 X25.8658 Y2.7062 
G01 X25.9540 Y2.7427 
G01 X27.4495 Y2.7427 
G01 X27.5377 Y2.7062 
G01 X27.6052 Y2.6387 
G01 X27.6417 Y2.5505 
G01 X27.6417 Y1.3550 
G01 X27.6052 Y1.2668 
G01 X27.5377 Y1.1993 
G01 X27.4495 Y1.1627 
G01 X27.4332 Y1.1627 
G01 X27.4643 Y1.0210 
G01 X27.7127 Y1.0210 
G01 X27.7127 Y5.4140 
G01 X27.3744 Y5.4810 
G01 X27.3472 Y5.4538 
G01 X27.2590 Y5.4173 
G01 X25.7635 Y5.4173 
G01 X25.6753 Y5.4538 
G01 X25.6078 Y5.5213 
G01 X25.5712 Y5.6095 
G01 X25.5712 Y6.8050 
G01 X25.6078 Y6.8932 
G01 X25.6753 Y6.9607 
G01 X25.7635 Y6.9972 
G01 X27.2590 Y6.9972 
G01 X27.3472 Y6.9607 
G01 X27.4147 Y6.8932 
G01 X27.4512 Y6.8050 
G01 X27.4512 Y6.5765 
G01 X27.7127 Y6.5247 
G01 X27.7127 Y9.9623 
G01 X27.2379 Y10.0435 
G01 X27.1884 Y9.9940 
G01 X27.1002 Y9.9575 
G01 X25.6048 Y9.9575 
G01 X25.5165 Y9.9940 
G01 X25.4490 Y10.0616 
G01 X25.4125 Y10.1498 
G01 X25.4125 Y11.3452 
G01 X25.4490 Y11.4334 
G01 X25.5165 Y11.5010 
G01 X25.6048 Y11.5375 
G01 X27.1002 Y11.5375 
G01 X27.1884 Y11.5010 
G01 X27.2560 Y11.4334 
G01 X27.2925 Y11.3452 
G01 X27.2925 Y11.1395 
G01 X27.7127 Y11.0677 
G01 X27.7127 Y16.4454 
G01 X27.7110 Y16.4524 
G01 X27.7127 Y16.5171 
G01 X27.7127 Y16.5842 
G01 X27.1020 Y16.5842 
G01 X27.1020 Y16.5313 
G01 X27.0655 Y16.4430 
G01 X26.9979 Y16.3755 
G01 X26.9097 Y16.3390 
G01 X25.4143 Y16.3390 
G01 X25.3260 Y16.3755 
G01 X25.2585 Y16.4430 
G01 X25.2220 Y16.5313 
G01 X25.2220 Y17.7267 
G01 X25.2585 Y17.8149 
G01 X25.3260 Y17.8825 
G01 X25.4143 Y17.9190 
G01 X26.9097 Y17.9190 
G01 X26.9979 Y17.8825 
G01 X27.0655 Y17.8149 
G01 X27.1020 Y17.7267 
G01 X27.1020 Y17.6738 
G01 X27.7127 Y17.6738 
G01 X27.7127 Y18.1692 
G01 X27.7498 Y18.3078 
G01 X27.8215 Y18.4320 
G01 X27.9230 Y18.5334 
G01 X28.0472 Y18.6052 
G01 X28.1858 Y18.6423 
G01 X28.3292 Y18.6423 
G01 X28.4678 Y18.6052 
G01 X28.5920 Y18.5334 
G01 X28.6934 Y18.4320 
G01 X28.7652 Y18.3078 
G01 X28.8023 Y18.1692 
G01 X28.8023 Y17.2604 
G01 X28.8183 Y17.2007 
G01 X28.8183 Y17.1936 
G01 X28.8200 Y17.1866 
G01 X28.8183 Y17.1219 
G01 X28.8183 Y17.0573 
G01 X28.8164 Y17.0504 
G01 X28.8023 Y16.5029 
G01 X28.8023 Y0.5633 
G01 X28.7652 Y0.4247 
G01 X28.6934 Y0.3005 
G01 X28.5920 Y0.1991 
G01 X28.5347 Y0.1417 
G01 X28.4333 Y0.0403 
G01 X28.3090 Y-0.0314 
G01 X28.1705 Y-0.0685 
G01 X10.0883 Y-0.0685 
G01 X9.9497 Y-0.0314 
G01 X9.8255 Y0.0403 
G01 X9.7241 Y0.1417 
G01 X9.6523 Y0.2660 
G01 X9.6152 Y0.4045 
G01 X9.6152 Y4.2813 
G01 X9.6046 Y4.2282 
G01 X9.5486 Y4.0930 
G01 X9.4673 Y3.9712 
G01 X9.3638 Y3.8677 
G01 X9.2420 Y3.7864 
G01 X9.1931 Y3.7661 
G01 X8.6982 Y1.5389 
G01 X8.6982 Y1.5292 
G01 X8.6856 Y1.4820 
G01 X8.6750 Y1.4344 
G01 X8.6705 Y1.4258 
G01 X8.6680 Y1.4164 
G01 X8.6436 Y1.3742 
G01 X8.6211 Y1.3309 
G01 X8.6145 Y1.3238 
G01 X8.6096 Y1.3154 
G01 X8.5751 Y1.2809 
G01 X8.5422 Y1.2449 
G01 X8.5340 Y1.2397 
G01 X7.9746 Y0.6804 
G01 X7.8921 Y0.5978 
G01 X7.7911 Y0.5395 
G01 X7.6783 Y0.5093 
G01 X3.0975 Y0.5093 
G01 X3.0975 Y-0.0604 
G01 X3.0610 Y-0.1486 
G01 X2.9934 Y-0.2162 
G01 X2.9052 Y-0.2527 
G01 X-1.0002 Y-0.2527 
G01 X-1.0884 Y-0.2162 
G01 X-1.1560 Y-0.1486 
G01 X-1.1925 Y-0.0604 
G00 Z1.0000 
G00 X-1.1560 Y2.3914 
G01 Z-0.0750 F50.80 
G01 X-1.1925 Y2.4796 F101.60 
G01 X-1.1925 Y4.5054 
G01 X-1.1560 Y4.5936 
G01 X-1.0884 Y4.6612 
G01 X-1.0002 Y4.6977 
G01 X2.9052 Y4.6977 
G01 X2.9934 Y4.6612 
G01 X3.0610 Y4.5936 
G01 X3.0975 Y4.5054 
G01 X3.0975 Y3.9357 
G01 X5.3354 Y3.9357 
G01 X6.7019 Y4.3261 
G01 X6.7391 Y4.4160 
G01 X6.8205 Y4.5378 
G01 X6.9240 Y4.6413 
G01 X7.0457 Y4.7226 
G01 X7.1810 Y4.7786 
G01 X7.3245 Y4.8072 
G01 X7.4710 Y4.8072 
G01 X7.6145 Y4.7786 
G01 X7.7498 Y4.7226 
G01 X7.8715 Y4.6413 
G01 X7.9750 Y4.5378 
G01 X8.0564 Y4.4160 
G01 X8.1124 Y4.2808 
G01 X8.1409 Y4.1372 
G01 X8.1409 Y3.9908 
G01 X8.1124 Y3.8472 
G01 X8.0564 Y3.7120 
G01 X7.9750 Y3.5902 
G01 X7.8715 Y3.4867 
G01 X7.7498 Y3.4054 
G01 X7.6145 Y3.3494 
G01 X7.4710 Y3.3208 
G01 X7.3245 Y3.3208 
G01 X7.1810 Y3.3494 
G01 X7.0457 Y3.4054 
G01 X6.9439 Y3.4734 
G01 X5.5718 Y3.0814 
G01 X5.5686 Y3.0795 
G01 X5.5158 Y3.0654 
G01 X5.4632 Y3.0503 
G01 X5.4594 Y3.0503 
G01 X5.4558 Y3.0493 
G01 X5.4012 Y3.0493 
G01 X5.3465 Y3.0484 
G01 X5.3429 Y3.0493 
G01 X3.0975 Y3.0493 
G01 X3.0975 Y2.4796 
G01 X3.0610 Y2.3914 
G01 X2.9934 Y2.3238 
G01 X2.9052 Y2.2873 
G01 X-1.0002 Y2.2873 
G01 X-1.0884 Y2.3238 
G01 X-1.1560 Y2.3914 
G00 Z1.0000 
G00 X1.0525 Y7.2377 
G01 Z-0.0750 F50.80 
G01 X2.9052 Y7.2377 F101.60 
G01 X2.9934 Y7.2012 
G01 X3.0610 Y7.1336 
G01 X3.0975 Y7.0454 
G01 X3.0975 Y6.4057 
G01 X3.1296 Y6.3871 
G01 X3.2121 Y6.3046 
G01 X3.9866 Y5.5301 
G01 X5.7371 Y5.5958 
G01 X5.7727 Y5.6490 
G01 X5.8762 Y5.7525 
G01 X5.9076 Y5.7735 
G01 X5.4907 Y5.7735 
G01 X5.4808 Y5.7712 
G01 X5.4192 Y5.7735 
G01 X5.3575 Y5.7735 
G01 X5.3476 Y5.7761 
G01 X5.3374 Y5.7765 
G01 X5.2785 Y5.7946 
G01 X5.2190 Y5.8106 
G01 X5.2101 Y5.8157 
G01 X5.2003 Y5.8187 
G01 X5.1481 Y5.8515 
G01 X5.0947 Y5.8823 
G01 X5.0875 Y5.8895 
G01 X5.0788 Y5.8950 
G01 X5.0369 Y5.9401 
G01 X4.9933 Y5.9837 
G01 X4.9882 Y5.9926 
G01 X4.9812 Y6.0001 
G01 X4.9524 Y6.0545 
G01 X4.9216 Y6.1080 
G01 X4.9189 Y6.1178 
G01 X4.9141 Y6.1269 
G01 X4.9004 Y6.1870 
G01 X4.8845 Y6.2465 
G01 X4.8845 Y6.2568 
G01 X3.7838 Y11.0704 
G01 X3.0975 Y10.9886 
G01 X3.0975 Y8.4613 
G01 X3.0610 Y8.3730 
G01 X2.9934 Y8.3055 
G01 X2.9052 Y8.2690 
G01 X1.6010 Y8.2690 
G01 X1.6354 Y8.1860 
G01 X1.6639 Y8.0425 
G01 X1.6639 Y7.8960 
G01 X1.6354 Y7.7525 
G01 X1.5794 Y7.6172 
G01 X1.4980 Y7.4955 
G01 X1.3945 Y7.3920 
G01 X1.2728 Y7.3106 
G01 X1.1375 Y7.2546 
G01 X1.0525 Y7.2377 
G00 Z1.0000 
G00 X5.8165 Y7.0688 
G01 Z-0.0750 F50.80 
G01 X5.8165 Y8.5193 F101.60 
G01 X5.8530 Y8.6075 
G01 X5.9206 Y8.6751 
G01 X6.0088 Y8.7116 
G01 X6.3545 Y8.7116 
G01 X6.3545 Y9.2049 
G01 X5.7595 Y9.2049 
G01 X5.6712 Y9.2414 
G01 X5.6037 Y9.3089 
G01 X5.5672 Y9.3972 
G01 X5.5672 Y10.5657 
G01 X5.2406 Y10.8445 
G01 X5.2284 Y10.8513 
G01 X5.1967 Y10.8820 
G01 X5.1630 Y10.9107 
G01 X5.1551 Y10.9222 
G01 X5.1452 Y10.9318 
G01 X5.1224 Y10.9697 
G01 X5.0974 Y11.0062 
G01 X5.0927 Y11.0193 
G01 X5.0856 Y11.0312 
G01 X5.0734 Y11.0737 
G01 X5.0587 Y11.1154 
G01 X5.0576 Y11.1292 
G01 X4.8282 Y11.9319 
G01 X4.8282 Y11.9075 
G01 X4.7917 Y11.8193 
G01 X4.7802 Y11.8078 
G01 X4.7802 Y11.6008 
G01 X5.8165 Y7.0688 
G00 Z1.0000 
G00 X7.2345 Y8.7116 
G01 Z-0.0750 F50.80 
G01 X7.4042 Y8.7116 F101.60 
G01 X7.4924 Y8.6751 
G01 X7.5565 Y8.6110 
G01 X7.6205 Y8.6751 
G01 X7.7088 Y8.7116 
G01 X9.1042 Y8.7116 
G01 X9.1924 Y8.6751 
G01 X9.2600 Y8.6075 
G01 X9.2965 Y8.5193 
G01 X9.2965 Y7.9997 
G01 X9.5883 Y7.9997 
G01 X9.6107 Y8.0333 
G01 X9.7149 Y8.1375 
G01 X9.8374 Y8.2194 
G01 X9.9736 Y8.2758 
G01 X10.1181 Y8.3045 
G01 X10.2654 Y8.3045 
G01 X10.4099 Y8.2758 
G01 X10.5461 Y8.2194 
G01 X10.6686 Y8.1375 
G01 X10.7349 Y8.0712 
G01 X10.7318 Y8.0765 
G01 X10.7278 Y8.0915 
G01 X10.7208 Y8.1055 
G01 X10.7093 Y8.1606 
G01 X10.6985 Y8.2010 
G01 X9.3472 Y9.5523 
G01 X9.3472 Y9.3972 
G01 X9.3107 Y9.3089 
G01 X9.2431 Y9.2414 
G01 X9.1549 Y9.2049 
G01 X8.2595 Y9.2049 
G01 X8.1713 Y9.2414 
G01 X8.1037 Y9.3089 
G01 X8.0672 Y9.3972 
G01 X8.0672 Y10.5926 
G01 X8.1037 Y10.6808 
G01 X8.1713 Y10.7484 
G01 X8.2595 Y10.7849 
G01 X8.4183 Y10.7849 
G01 X8.4183 Y11.6457 
G01 X8.4125 Y11.6481 
G01 X8.3450 Y11.7156 
G01 X8.3085 Y11.8038 
G01 X8.3085 Y12.9993 
G01 X8.3450 Y13.0875 
G01 X8.4125 Y13.1550 
G01 X8.5008 Y13.1915 
G01 X9.1097 Y13.1915 
G01 X8.7307 Y13.5706 
G01 X7.6834 Y13.5706 
G01 X7.5952 Y13.6071 
G01 X7.5311 Y13.6711 
G01 X7.4670 Y13.6071 
G01 X7.3788 Y13.5706 
G01 X7.0903 Y13.5706 
G01 X7.0376 Y13.2282 
G01 X7.0535 Y13.2239 
G01 X7.0963 Y13.2153 
G01 X7.1092 Y13.2090 
G01 X7.1231 Y13.2053 
G01 X7.1468 Y13.1915 
G01 X8.0962 Y13.1915 
G01 X8.1844 Y13.1550 
G01 X8.2520 Y13.0875 
G01 X8.2885 Y12.9993 
G01 X8.2885 Y11.8038 
G01 X8.2520 Y11.7156 
G01 X8.1844 Y11.6481 
G01 X8.0962 Y11.6115 
G01 X6.0008 Y11.6115 
G01 X5.9126 Y11.6481 
G01 X5.8450 Y11.7156 
G01 X5.8085 Y11.8038 
G01 X5.8085 Y12.6090 
G01 X5.4064 Y13.1117 
G01 X5.8794 Y11.4562 
G01 X6.6658 Y10.7849 
G01 X7.8549 Y10.7849 
G01 X7.9431 Y10.7484 
G01 X8.0107 Y10.6808 
G01 X8.0472 Y10.5926 
G01 X8.0472 Y9.3972 
G01 X8.0107 Y9.3089 
G01 X7.9431 Y9.2414 
G01 X7.8549 Y9.2049 
G01 X7.2345 Y9.2049 
G01 X7.2345 Y8.7116 
G00 Z1.0000 
G00 X9.2965 Y7.1133 
G01 Z-0.0750 F50.80 
G01 X9.2965 Y6.9239 F101.60 
G01 X9.2713 Y6.8630 
G01 X9.9113 Y6.8630 
G01 X9.8374 Y6.8936 
G01 X9.7149 Y6.9755 
G01 X9.6107 Y7.0797 
G01 X9.5883 Y7.1133 
G01 X9.2965 Y7.1133 
G00 Z1.0000 
G00 X10.5478 Y6.8948 
G01 Z-0.0750 F50.80 
G01 X10.8868 Y6.8948 F101.60 
G01 X11.3439 Y7.3518 
G01 X10.8631 Y7.8903 
G01 X10.9110 Y7.7747 
G01 X10.9397 Y7.6302 
G01 X10.9397 Y7.4828 
G01 X10.9110 Y7.3383 
G01 X10.8546 Y7.2022 
G01 X10.7728 Y7.0797 
G01 X10.6686 Y6.9755 
G01 X10.5478 Y6.8948 
G00 Z1.0000 
G00 X10.7048 Y5.8052 
G01 Z-0.0750 F50.80 
G01 X10.7048 Y5.1704 F101.60 
G01 X10.9540 Y5.1704 
G01 X11.0422 Y5.1339 
G01 X11.1097 Y5.0664 
G01 X11.1462 Y4.9782 
G01 X11.1462 Y3.4927 
G01 X11.1097 Y3.4045 
G01 X11.0422 Y3.3370 
G01 X10.9540 Y3.3005 
G01 X10.7048 Y3.3005 
G01 X10.7048 Y3.0622 
G01 X10.8587 Y3.0622 
G01 X10.9469 Y3.0257 
G01 X11.0145 Y2.9582 
G01 X11.0510 Y2.8700 
G01 X11.0510 Y1.3845 
G01 X11.0145 Y1.2963 
G01 X10.9469 Y1.2288 
G01 X10.8587 Y1.1923 
G01 X10.7048 Y1.1923 
G01 X10.7048 Y1.0210 
G01 X13.0659 Y1.0210 
G01 X12.9696 Y1.0767 
G01 X12.8877 Y1.1586 
G01 X12.8297 Y1.2589 
G01 X12.7997 Y1.3708 
G01 X12.7997 Y5.3115 
G01 X12.7961 Y5.3467 
G01 X12.7997 Y5.3692 
G01 X12.7997 Y5.3919 
G01 X12.8089 Y5.4261 
G01 X12.8146 Y5.4611 
G01 X12.8239 Y5.4819 
G01 X12.8297 Y5.5038 
G01 X12.8474 Y5.5345 
G01 X13.0038 Y5.8834 
G01 X12.6098 Y5.4893 
G01 X12.6098 Y5.1639 
G01 X12.6822 Y5.1339 
G01 X12.7497 Y5.0664 
G01 X12.7862 Y4.9782 
G01 X12.7862 Y3.4927 
G01 X12.7497 Y3.4045 
G01 X12.6822 Y3.3370 
G01 X12.6360 Y3.3179 
G01 X12.6360 Y2.9766 
G01 X12.6545 Y2.9582 
G01 X12.6910 Y2.8700 
G01 X12.6910 Y1.3845 
G01 X12.6545 Y1.2963 
G01 X12.5869 Y1.2288 
G01 X12.4987 Y1.1923 
G01 X11.4933 Y1.1923 
G01 X11.4050 Y1.2288 
G01 X11.3375 Y1.2963 
G01 X11.3010 Y1.3845 
G01 X11.3010 Y2.8700 
G01 X11.3375 Y2.9582 
G01 X11.4050 Y3.0257 
G01 X11.4933 Y3.0622 
G01 X11.5465 Y3.0622 
G01 X11.5465 Y3.3179 
G01 X11.5003 Y3.3370 
G01 X11.4328 Y3.4045 
G01 X11.3963 Y3.4927 
G01 X11.3963 Y4.9782 
G01 X11.4328 Y5.0664 
G01 X11.5003 Y5.1339 
G01 X11.5202 Y5.1421 
G01 X11.5202 Y5.7867 
G01 X11.5573 Y5.9253 
G01 X11.6290 Y6.0495 
G01 X11.7305 Y6.1509 
G01 X12.7149 Y7.1354 
G01 X12.5291 Y7.0399 
G01 X12.4692 Y6.9362 
G01 X11.5484 Y6.0155 
G01 X11.4470 Y5.9140 
G01 X11.3228 Y5.8423 
G01 X11.1842 Y5.8052 
G01 X10.7048 Y5.8052 
G00 Z1.0000 
G00 X14.0414 Y5.9815 
G01 Z-0.0750 F50.80 
G01 X14.1114 Y5.9452 F101.60 
G01 X15.1133 Y5.9452 
G01 X15.0354 Y5.9775 
G01 X14.5728 Y6.4401 
G01 X14.5561 Y6.4805 
G01 X14.0414 Y5.9815 
G00 Z1.0000 
G00 X15.1299 Y5.9409 
G01 Z-0.0750 F50.80 
G01 X15.2077 Y5.9087 F101.60 
G01 X15.2718 Y5.8447 
G01 X15.3358 Y5.9087 
G01 X15.4240 Y5.9452 
G01 X16.3480 Y5.9452 
G01 X15.5987 Y6.2688 
G01 X15.3073 Y5.9775 
G01 X15.2191 Y5.9409 
G01 X15.1299 Y5.9409 
G00 Z1.0000 
G00 X15.1195 Y4.0652 
G01 Z-0.0750 F50.80 
G01 X13.8240 Y4.0652 F101.60 
G01 X13.7358 Y4.1018 
G01 X13.6797 Y4.1578 
G01 X13.6797 Y3.6527 
G01 X13.7358 Y3.7087 
G01 X13.8240 Y3.7452 
G01 X15.1195 Y3.7452 
G01 X15.2077 Y3.7087 
G01 X15.2717 Y3.6447 
G01 X15.3358 Y3.7087 
G01 X15.4240 Y3.7452 
G01 X16.7195 Y3.7452 
G01 X16.8077 Y3.7087 
G01 X16.8663 Y3.6501 
G01 X17.0511 Y3.8348 
G01 X17.0511 Y4.3549 
G01 X17.0511 Y5.4362 
G01 X17.0126 Y5.4746 
G01 X16.9543 Y5.5757 
G01 X16.9525 Y5.5824 
G01 X16.9117 Y5.6102 
G01 X16.9117 Y4.2575 
G01 X16.8752 Y4.1693 
G01 X16.8077 Y4.1018 
G01 X16.7195 Y4.0652 
G01 X15.4240 Y4.0652 
G01 X15.3358 Y4.1018 
G01 X15.2718 Y4.1658 
G01 X15.2077 Y4.1018 
G01 X15.1195 Y4.0652 
G00 Z1.0000 
G00 X15.1279 Y1.8687 
G01 Z-0.0750 F50.80 
G01 X15.4156 Y1.8687 F101.60 
G01 X15.3358 Y1.9018 
G01 X15.2717 Y1.9658 
G01 X15.2077 Y1.9018 
G01 X15.1279 Y1.8687 
G00 Z1.0000 
G00 X13.8156 Y1.8687 
G01 Z-0.0750 F50.80 
G01 X13.7358 Y1.9018 F101.60 
G01 X13.6797 Y1.9578 
G01 X13.6797 Y1.8687 
G01 X13.8156 Y1.8687 
G00 Z1.0000 
G00 X16.7279 Y1.8687 
G01 Z-0.0750 F50.80 
G01 X18.1206 Y1.8687 F101.60 
G01 X18.3577 Y1.9873 
G01 X18.3577 Y3.3060 
G01 X18.3943 Y3.3942 
G01 X18.4618 Y3.4617 
G01 X18.5500 Y3.4982 
G01 X19.9455 Y3.4982 
G01 X20.0337 Y3.4617 
G01 X20.0977 Y3.3977 
G01 X20.1618 Y3.4617 
G01 X20.2500 Y3.4982 
G01 X20.8293 Y3.4982 
G01 X20.8293 Y3.6772 
G01 X20.2500 Y3.6772 
G01 X20.1618 Y3.7138 
G01 X20.0977 Y3.7778 
G01 X20.0337 Y3.7138 
G01 X19.9455 Y3.6772 
G01 X18.5500 Y3.6772 
G01 X18.4618 Y3.7138 
G01 X18.3943 Y3.7813 
G01 X18.3577 Y3.8695 
G01 X18.3577 Y4.2241 
G01 X17.9374 Y4.2241 
G01 X17.9374 Y3.5929 
G01 X17.9072 Y3.4802 
G01 X17.8489 Y3.3791 
G01 X17.7664 Y3.2966 
G01 X16.9204 Y2.4506 
G01 X16.9117 Y2.4456 
G01 X16.9117 Y2.0575 
G01 X16.8752 Y1.9693 
G01 X16.8077 Y1.9018 
G01 X16.7279 Y1.8687 
G00 Z1.0000 
G00 X18.3983 Y1.0210 
G01 Z-0.0750 F50.80 
G01 X20.8293 Y1.0210 F101.60 
G01 X20.8293 Y1.5183 
G01 X20.2500 Y1.5183 
G01 X20.1618 Y1.5548 
G01 X20.0977 Y1.6188 
G01 X20.0337 Y1.5548 
G01 X19.9455 Y1.5183 
G01 X19.1585 Y1.5183 
G01 X19.1329 Y1.4927 
G01 X19.1316 Y1.4887 
G01 X19.1278 Y1.4829 
G01 X19.1255 Y1.4765 
G01 X19.0960 Y1.4347 
G01 X19.0678 Y1.3920 
G01 X19.0626 Y1.3874 
G01 X19.0587 Y1.3818 
G01 X19.0194 Y1.3491 
G01 X18.9811 Y1.3151 
G01 X18.9749 Y1.3120 
G01 X18.8390 Y1.1988 
G01 X18.8122 Y1.1719 
G01 X18.7947 Y1.1618 
G01 X18.7792 Y1.1489 
G01 X18.7447 Y1.1330 
G01 X18.7118 Y1.1140 
G01 X18.6923 Y1.1088 
G01 X18.6740 Y1.1003 
G01 X18.6366 Y1.0938 
G01 X18.5999 Y1.0840 
G01 X18.5797 Y1.0840 
G01 X18.5599 Y1.0806 
G01 X18.5220 Y1.0840 
G01 X18.5189 Y1.0840 
G01 X18.4331 Y1.0411 
G01 X18.3983 Y1.0210 
G00 Z1.0000 
G00 X18.3577 Y5.1104 
G01 Z-0.0750 F50.80 
G01 X18.3577 Y5.4650 F101.60 
G01 X18.3943 Y5.5532 
G01 X18.4618 Y5.6207 
G01 X18.5500 Y5.6572 
G01 X19.7510 Y5.6572 
G01 X19.6478 Y5.7604 
G01 X19.5895 Y5.8614 
G01 X19.5593 Y5.9741 
G01 X19.5593 Y6.4839 
G01 X18.9752 Y7.0680 
G01 X18.9494 Y7.0058 
G01 X18.4868 Y6.5432 
G01 X18.4139 Y6.5130 
G01 X18.3837 Y6.4401 
G01 X17.9211 Y5.9775 
G01 X17.8329 Y5.9409 
G01 X17.7998 Y5.9409 
G01 X17.8489 Y5.8919 
G01 X17.9072 Y5.7908 
G01 X17.9374 Y5.6781 
G01 X17.9374 Y5.1104 
G01 X18.3577 Y5.1104 
G00 Z1.0000 
G00 X20.9993 Y5.6572 
G01 Z-0.0750 F50.80 
G01 X21.6455 Y5.6572 F101.60 
G01 X21.7337 Y5.6207 
G01 X21.7818 Y5.5726 
G01 X21.7818 Y5.8489 
G01 X21.7133 Y5.9175 
G01 X21.3547 Y5.9386 
G01 X21.3094 Y5.9386 
G01 X21.2967 Y5.9420 
G01 X21.2835 Y5.9427 
G01 X21.2405 Y5.9570 
G01 X21.1967 Y5.9688 
G01 X21.1852 Y5.9754 
G01 X21.1727 Y5.9795 
G01 X21.1349 Y6.0044 
G01 X21.0956 Y6.0271 
G01 X21.0863 Y6.0364 
G01 X21.0753 Y6.0437 
G01 X21.0452 Y6.0776 
G01 X20.4457 Y6.6770 
G01 X20.4457 Y6.2161 
G01 X20.9096 Y5.7521 
G01 X20.9921 Y5.6696 
G01 X20.9993 Y5.6572 
G00 Z1.0000 
G00 X21.6992 Y8.9948 
G01 Z-0.0750 F50.80 
G01 X21.6992 Y9.0017 F101.60 
G01 X21.6805 Y9.0136 
G01 X21.6992 Y8.9948 
G00 Z1.0000 
G00 X22.7579 Y8.3678 
G01 Z-0.0750 F50.80 
G01 X22.8449 Y8.3705 F101.60 
G01 X22.8615 Y8.4259 
G01 X22.8016 Y8.3859 
G01 X22.7579 Y8.3678 
G00 Z1.0000 
G00 X19.8721 Y13.2821 
G01 Z-0.0750 F50.80 
G01 X19.5121 Y13.6422 F101.60 
G01 X19.4819 Y13.7150 
G01 X19.4090 Y13.7452 
G01 X18.9464 Y14.2078 
G01 X18.9385 Y14.2267 
G01 X15.0102 Y10.4811 
G01 X15.0073 Y10.4766 
G01 X14.9683 Y10.4411 
G01 X14.9302 Y10.4048 
G01 X14.9255 Y10.4023 
G01 X14.9216 Y10.3987 
G01 X14.8747 Y10.3745 
G01 X14.8285 Y10.3493 
G01 X14.8234 Y10.3481 
G01 X14.8186 Y10.3456 
G01 X14.7672 Y10.3344 
G01 X14.7159 Y10.3220 
G01 X14.7106 Y10.3221 
G01 X14.7054 Y10.3210 
G01 X14.6528 Y10.3235 
G01 X14.6001 Y10.3248 
G01 X14.5950 Y10.3263 
G01 X13.6242 Y10.3725 
G01 X13.5285 Y10.1141 
G01 X13.5506 Y10.1377 
G01 X13.5544 Y10.1444 
G01 X13.5900 Y10.1800 
G01 X13.6244 Y10.2168 
G01 X13.6309 Y10.2209 
G01 X13.6363 Y10.2263 
G01 X13.6799 Y10.2515 
G01 X13.7226 Y10.2782 
G01 X13.7300 Y10.2804 
G01 X13.7367 Y10.2843 
G01 X13.7853 Y10.2973 
G01 X13.8334 Y10.3120 
G01 X13.8411 Y10.3123 
G01 X13.8486 Y10.3142 
G01 X13.8989 Y10.3142 
G01 X13.9492 Y10.3160 
G01 X13.9567 Y10.3142 
G01 X14.3864 Y10.3142 
G01 X14.4165 Y10.3203 
G01 X14.5330 Y10.3128 
G01 X14.6435 Y10.2754 
G01 X14.7755 Y10.1874 
G01 X14.8136 Y10.1654 
G01 X14.8239 Y10.1552 
G01 X14.8359 Y10.1471 
G01 X14.8650 Y10.1140 
G01 X15.1180 Y9.8610 
G01 X18.4163 Y13.1014 
G01 X18.4482 Y13.1360 
G01 X18.4576 Y13.1420 
G01 X18.4655 Y13.1497 
G01 X18.5064 Y13.1729 
G01 X18.5461 Y13.1980 
G01 X18.5567 Y13.2013 
G01 X18.5663 Y13.2067 
G01 X18.6118 Y13.2185 
G01 X18.6567 Y13.2325 
G01 X18.6677 Y13.2330 
G01 X18.6785 Y13.2357 
G01 X18.7255 Y13.2353 
G01 X19.8721 Y13.2821 
G00 Z1.0000 
G00 X20.1109 Y15.4754 
G01 Z-0.0750 F50.80 
G01 X20.1838 Y15.4453 F101.60 
G01 X20.6465 Y14.9826 
G01 X20.6766 Y14.9098 
G01 X20.7495 Y14.8796 
G01 X20.9595 Y14.6696 
G01 X20.9595 Y17.6480 
G01 X17.9811 Y17.6480 
G01 X18.3837 Y17.2454 
G01 X18.4139 Y17.1725 
G01 X18.4868 Y17.1423 
G01 X18.9494 Y16.6797 
G01 X18.9796 Y16.6068 
G01 X19.0524 Y16.5766 
G01 X19.5151 Y16.1140 
G01 X19.5453 Y16.0411 
G01 X19.6181 Y16.0110 
G01 X20.0808 Y15.5483 
G01 X20.1109 Y15.4754 
G00 Z1.0000 
G00 X17.7848 Y15.4121 
G01 Z-0.0750 F50.80 
G01 X17.7120 Y15.4422 F101.60 
G01 X17.2493 Y15.9049 
G01 X17.2191 Y15.9778 
G01 X17.1463 Y16.0079 
G01 X16.6836 Y16.4706 
G01 X16.6471 Y16.5588 
G01 X16.6471 Y16.6543 
G01 X16.6836 Y16.7425 
G01 X17.5891 Y17.6480 
G01 X15.3674 Y17.6480 
G01 X16.2729 Y16.7425 
G01 X16.3094 Y16.6543 
G01 X16.3094 Y16.5588 
G01 X16.2729 Y16.4706 
G01 X15.8102 Y16.0079 
G01 X15.7373 Y15.9778 
G01 X15.7072 Y15.9049 
G01 X15.2445 Y15.4422 
G01 X15.1717 Y15.4121 
G01 X15.1415 Y15.3392 
G01 X14.6788 Y14.8766 
G01 X14.6060 Y14.8464 
G01 X14.5758 Y14.7735 
G01 X14.1132 Y14.3109 
G01 X14.0403 Y14.2807 
G01 X14.0101 Y14.2078 
G01 X13.5475 Y13.7452 
G01 X13.4746 Y13.7150 
G01 X13.4444 Y13.6422 
G01 X12.9818 Y13.1795 
G01 X12.9089 Y13.1493 
G01 X12.8787 Y13.0765 
G01 X12.4161 Y12.6138 
G01 X12.3432 Y12.5836 
G01 X12.3131 Y12.5108 
G01 X11.8504 Y12.0481 
G01 X11.7622 Y12.0116 
G01 X11.6667 Y12.0116 
G01 X11.5785 Y12.0481 
G01 X10.6130 Y13.0137 
G01 X10.6098 Y13.0215 
G01 X10.5182 Y13.1074 
G01 X10.4559 Y13.0950 
G01 X10.3441 Y13.0950 
G01 X10.3492 Y13.0758 
G01 X10.3492 Y10.7881 
G01 X10.5764 Y10.5608 
G01 X10.5764 Y10.5836 
G01 X10.6130 Y10.6718 
G01 X11.5785 Y11.6374 
G01 X11.6667 Y11.6739 
G01 X11.7622 Y11.6739 
G01 X11.8504 Y11.6374 
G01 X12.3131 Y11.1747 
G01 X12.3432 Y11.1019 
G01 X12.4161 Y11.0717 
G01 X12.8019 Y10.6859 
G01 X12.9026 Y10.9578 
G01 X12.9227 Y11.0121 
G01 X12.9425 Y11.0656 
G01 X12.9433 Y11.0671 
G01 X12.9766 Y11.1138 
G01 X13.0095 Y11.1602 
G01 X13.0106 Y11.1614 
G01 X13.0549 Y11.1979 
G01 X13.0987 Y11.2341 
G01 X13.1001 Y11.2350 
G01 X13.1520 Y11.2587 
G01 X13.2039 Y11.2825 
G01 X13.2055 Y11.2830 
G01 X13.2621 Y11.2924 
G01 X13.3181 Y11.3020 
G01 X13.4191 Y11.3186 
G01 X13.4413 Y11.3260 
G01 X13.4760 Y11.3281 
G01 X13.5103 Y11.3338 
G01 X13.5336 Y11.3315 
G01 X13.5570 Y11.3329 
G01 X13.5910 Y11.3260 
G01 X13.6256 Y11.3226 
G01 X13.6475 Y11.3144 
G01 X13.6705 Y11.3097 
G01 X13.7016 Y11.2942 
G01 X13.7341 Y11.2820 
G01 X13.7531 Y11.2684 
G01 X13.7741 Y11.2579 
G01 X13.7879 Y11.2457 
G01 X14.5012 Y11.2117 
G01 X18.3245 Y14.8572 
G01 X18.2777 Y14.8766 
G01 X17.8150 Y15.3392 
G01 X17.7848 Y15.4121 
G00 Z1.0000 
G00 X14.5426 Y17.1725 
G01 Z-0.0750 F50.80 
G01 X14.5728 Y17.2454 F101.60 
G01 X14.9754 Y17.6480 
G01 X13.3152 Y17.6480 
G01 X13.3152 Y16.1750 
G01 X13.2787 Y16.0868 
G01 X13.2112 Y16.0193 
G01 X13.1230 Y15.9827 
G01 X12.8598 Y15.9827 
G01 X12.7576 Y15.6212 
G01 X12.8686 Y15.5310 
G01 X12.8757 Y15.5483 
G01 X13.3384 Y16.0110 
G01 X13.4112 Y16.0411 
G01 X13.4414 Y16.1140 
G01 X13.9041 Y16.5766 
G01 X13.9769 Y16.6068 
G01 X14.0071 Y16.6797 
G01 X14.4697 Y17.1423 
G01 X14.5426 Y17.1725 
G00 Z1.0000 
G00 X11.7353 Y17.6480 
G01 Z-0.0750 F50.80 
G01 X11.3152 Y17.6480 F101.60 
G01 X11.3152 Y16.1750 
G01 X11.2787 Y16.0868 
G01 X11.2112 Y16.0193 
G01 X11.1230 Y15.9827 
G01 X9.9275 Y15.9827 
G01 X9.8393 Y16.0193 
G01 X9.7718 Y16.0868 
G01 X9.7353 Y16.1750 
G01 X9.7353 Y16.4827 
G01 X9.1695 Y16.4827 
G01 X9.1695 Y16.0679 
G01 X9.1330 Y15.9796 
G01 X9.0654 Y15.9121 
G01 X8.9772 Y15.8756 
G01 X7.5818 Y15.8756 
G01 X7.4935 Y15.9121 
G01 X7.4295 Y15.9762 
G01 X7.3654 Y15.9121 
G01 X7.2772 Y15.8756 
G01 X7.0757 Y15.8756 
G01 X7.0757 Y15.5505 
G01 X7.3788 Y15.5505 
G01 X7.4670 Y15.5140 
G01 X7.5311 Y15.4500 
G01 X7.5952 Y15.5140 
G01 X7.6834 Y15.5505 
G01 X9.0788 Y15.5505 
G01 X9.1670 Y15.5140 
G01 X9.2346 Y15.4465 
G01 X9.2711 Y15.3583 
G01 X9.2711 Y14.2747 
G01 X9.6342 Y13.9115 
G01 X9.6342 Y13.9167 
G01 X9.6630 Y14.0612 
G01 X9.7194 Y14.1973 
G01 X9.8012 Y14.3198 
G01 X9.9054 Y14.4240 
G01 X10.0279 Y14.5059 
G01 X10.1641 Y14.5623 
G01 X10.2233 Y14.5740 
G01 X10.1912 Y14.5955 
G01 X10.0870 Y14.6997 
G01 X10.0051 Y14.8222 
G01 X9.9487 Y14.9583 
G01 X9.9200 Y15.1028 
G01 X9.9200 Y15.2502 
G01 X9.9487 Y15.3947 
G01 X10.0051 Y15.5308 
G01 X10.0870 Y15.6533 
G01 X10.1912 Y15.7575 
G01 X10.3137 Y15.8394 
G01 X10.4498 Y15.8958 
G01 X10.5943 Y15.9245 
G01 X10.7417 Y15.9245 
G01 X10.8862 Y15.8958 
G01 X11.0223 Y15.8394 
G01 X11.1448 Y15.7575 
G01 X11.1856 Y15.7167 
G01 X11.9069 Y15.8466 
G01 X11.9454 Y15.9827 
G01 X11.9275 Y15.9827 
G01 X11.8393 Y16.0193 
G01 X11.7718 Y16.0868 
G01 X11.7353 Y16.1750 
G01 X11.7353 Y17.6480 
G00 Z1.0000 
G00 X9.7353 Y17.6480 
G01 Z-0.0750 F50.80 
G01 X9.1695 Y17.6480 F101.60 
G01 X9.1695 Y17.3627 
G01 X9.7353 Y17.3627 
G01 X9.7353 Y17.6480 
G00 Z1.0000 
G00 X5.6895 Y17.6480 
G01 Z-0.0750 F50.80 
G01 X4.8310 Y17.6480 F101.60 
G01 X4.8310 Y17.2119 
G01 X4.9437 Y17.0992 
G01 X4.9949 Y17.0992 
G01 X5.1394 Y17.0705 
G01 X5.2756 Y17.0141 
G01 X5.3981 Y16.9323 
G01 X5.5023 Y16.8281 
G01 X5.5841 Y16.7056 
G01 X5.6405 Y16.5694 
G01 X5.6692 Y16.4249 
G01 X5.6692 Y16.2776 
G01 X5.6405 Y16.1331 
G01 X5.5841 Y15.9969 
G01 X5.5023 Y15.8744 
G01 X5.3984 Y15.7705 
G01 X5.3572 Y15.6992 
G01 X4.8437 Y15.1858 
G01 X4.8437 Y14.5255 
G01 X4.8371 Y14.5095 
G01 X5.1762 Y14.5056 
G01 X5.1980 Y14.5090 
G01 X5.2339 Y14.5050 
G01 X5.2699 Y14.5046 
G01 X5.2912 Y14.4986 
G01 X5.3132 Y14.4962 
G01 X5.3468 Y14.4830 
G01 X5.3815 Y14.4733 
G01 X5.4005 Y14.4620 
G01 X5.4211 Y14.4540 
G01 X5.4501 Y14.4326 
G01 X5.4812 Y14.4142 
G01 X5.4966 Y14.3984 
G01 X5.5144 Y14.3853 
G01 X5.5369 Y14.3572 
G01 X5.5621 Y14.3314 
G01 X5.5730 Y14.3121 
G01 X5.7911 Y14.0395 
G01 X5.7911 Y15.3583 
G01 X5.8276 Y15.4465 
G01 X5.8952 Y15.5140 
G01 X5.9834 Y15.5505 
G01 X6.1958 Y15.5505 
G01 X6.1958 Y15.8756 
G01 X5.8818 Y15.8756 
G01 X5.7935 Y15.9121 
G01 X5.7260 Y15.9796 
G01 X5.6895 Y16.0679 
G01 X5.6895 Y17.6480 
G00 Z1.0000 
G00 X6.1662 Y13.5706 
G01 Z-0.0750 F50.80 
G01 X6.1945 Y13.5352 F101.60 
G01 X6.2000 Y13.5706 
G01 X6.1662 Y13.5706 
G00 Z1.0000 
G00 X9.3649 Y11.6115 
G01 Z-0.0750 F50.80 
G01 X9.3649 Y10.7881 F101.60 
G01 X9.4628 Y10.6902 
G01 X9.4628 Y11.6391 
G01 X9.3962 Y11.6115 
G01 X9.3649 Y11.6115 
G00 Z1.0000 
G00 X11.1302 Y13.7708 
G01 Z-0.0750 F50.80 
G01 X11.1485 Y13.7784 F101.60 
G01 X11.1787 Y13.8513 
G01 X11.6413 Y14.3139 
G01 X11.7142 Y14.3441 
G01 X11.7444 Y14.4169 
G01 X12.2070 Y14.8796 
G01 X12.2520 Y14.8982 
G01 X12.1347 Y14.9934 
G01 X11.3428 Y14.8509 
G01 X11.3309 Y14.8222 
G01 X11.2490 Y14.6997 
G01 X11.1448 Y14.5955 
G01 X11.0223 Y14.5136 
G01 X10.8862 Y14.4572 
G01 X10.8270 Y14.4455 
G01 X10.8591 Y14.4240 
G01 X10.9633 Y14.3198 
G01 X11.0451 Y14.1973 
G01 X11.1015 Y14.0612 
G01 X11.1302 Y13.9167 
G01 X11.1302 Y13.7708 
G00 Z1.0000 
G00 X10.9760 Y9.1770 
G01 Z-0.0750 F50.80 
G01 X11.1677 Y8.9854 F101.60 
G01 X11.3593 Y9.1770 
G01 X11.3081 Y9.1770 
G01 X10.9760 Y9.1770 
G00 Z1.0000 
G00 X11.9888 Y8.2656 
G01 Z-0.0750 F50.80 
G01 X12.1591 Y8.0748 F101.60 
G01 X12.6738 Y8.3391 
G01 X12.3681 Y8.6448 
G01 X11.9888 Y8.2656 
G00 Z1.0000 
G00 X14.0619 Y9.3959 
G01 Z-0.0750 F50.80 
G01 X14.1132 Y9.3746 F101.60 
G01 X14.5653 Y8.9224 
G01 X14.6301 Y8.9932 
G01 X14.6429 Y9.0826 
G01 X14.2912 Y9.4343 
G01 X14.0977 Y9.4343 
G01 X14.0619 Y9.3959 
G00 Z1.0000 
G00 Z5.0000 
M05
M02
