(.../EAGLE-7.2.0/ulp/pcb-gcode/pcb-gcode.ulp)
(Copyright 2005 - 2012 by John Johnson)
(See readme.txt for licensing terms.)
(This file generated from the board:)
(.../projects/digispark/DIGISPARK.brd)
(Current profile is .../pcb-gcode/profiles/generic.pp  )
(This file generated 2018/10/31 12:50:30)
(Settings from pcb-machine.h)
(spindle on time = 3.0000)
(spindle speed = 1000.0000)
(milling depth = -1.7000)
(tool change at 0.0000 0.0000 5.0000 )
(feed rate xy = F50.80 )
(feed rate z  = F50.80 )
(Z Axis Settings)
(  High     Up        Down     Drill)
(5.0000 	1.0000 	-0.0700 	-1.7000 )
(Settings from pcb-defaults.h)
(isolate min = 0.0200)
(isolate max = 0.2000)
(isolate step = 0.1500)
(Generated top outlines, bottom outlines, bottom drill, )
(Unit of measure: mm)
(Metric Mode)
G21
(Absolute Coordinates)
G90
S1000
G00 Z5.0000 
G00 X0.0000 Y0.0000 
M03
G04 P3.000000
G00 Z1.0000 
G00 X-1.2700 Y-1.2700 
G01 Z-1.7000 F50.80 
G01 X21.5900 Y-1.2700 F50.80 
G01 X21.5900 Y16.8275 
G01 X-1.2700 Y16.8275 
G01 X-1.2700 Y-1.2700 
G00 Z5.0000 
M05
M02
