(.../EAGLE-7.2.0/ulp/pcb-gcode/pcb-gcode.ulp)
(Copyright 2005 - 2012 by John Johnson)
(See readme.txt for licensing terms.)
(This file generated from the board:)
(.../projects/digispark/DIGISPARK.brd)
(Current profile is .../pcb-gcode/profiles/generic.pp  )
(This file generated 2018/10/31 12:50:26)
(Settings from pcb-machine.h)
(spindle on time = 3.0000)
(  Tool Size)
(0.1000 )
(spindle speed = 1000.0000)
(tool change at 0.0000 0.0000 5.0000 )
(feed rate xy = F101.60 )
(feed rate z  = F50.80 )
(Z Axis Settings)
(  High     Up        Down     Drill)
(5.0000 	1.0000 	-0.0700 	-1.7000 )
(Settings from pcb-defaults.h)
(isolate min = 0.0200)
(isolate max = 0.2000)
(isolate step = 0.1500)
(Generated top outlines, bottom outlines, bottom drill, )
(Unit of measure: mm)
(Metric Mode)
G21
(Absolute Coordinates)
G90
S1000
G00 Z5.0000 
G00 X0.0000 Y0.0000 
M03
G04 P3.000000
G00 Z1.0000 
G00 X0.2849 Y1.1703 
G01 Z-0.0700 F50.80 
G01 X0.2742 Y1.1961 F101.60 
G01 X0.2742 Y2.6139 
G01 X0.2849 Y2.6397 
G01 X0.3046 Y2.6593 
G01 X0.3303 Y2.6700 
G01 X0.5238 Y2.6700 
G01 X0.5238 Y3.6038 
G01 X0.3621 Y3.6038 
G01 X0.3363 Y3.6145 
G01 X0.3167 Y3.6341 
G01 X0.3060 Y3.6599 
G01 X0.3060 Y5.0777 
G01 X0.3167 Y5.1034 
G01 X0.3363 Y5.1231 
G01 X0.3621 Y5.1338 
G01 X1.2999 Y5.1338 
G01 X1.3256 Y5.1231 
G01 X1.3453 Y5.1034 
G01 X1.3560 Y5.0777 
G01 X1.3560 Y3.6599 
G01 X1.3453 Y3.6341 
G01 X1.3256 Y3.6145 
G01 X1.2999 Y3.6038 
G01 X1.0637 Y3.6038 
G01 X1.0637 Y2.6700 
G01 X1.2682 Y2.6700 
G01 X1.2939 Y2.6593 
G01 X1.3136 Y2.6397 
G01 X1.3242 Y2.6139 
G01 X1.3242 Y1.5314 
G01 X1.8727 Y0.8732 
G01 X12.4122 Y0.8732 
G01 X11.7659 Y1.7937 
G01 X11.5307 Y1.7937 
G01 X11.5307 Y1.4625 
G01 X11.5201 Y1.4368 
G01 X11.5004 Y1.4171 
G01 X11.4747 Y1.4064 
G01 X10.2468 Y1.4064 
G01 X10.2211 Y1.4171 
G01 X10.2014 Y1.4368 
G01 X10.1907 Y1.4625 
G01 X10.1907 Y2.6904 
G01 X10.2014 Y2.7161 
G01 X10.2211 Y2.7358 
G01 X10.2468 Y2.7464 
G01 X11.4747 Y2.7464 
G01 X11.5004 Y2.7358 
G01 X11.5201 Y2.7161 
G01 X11.5307 Y2.6904 
G01 X11.5307 Y2.3337 
G01 X11.8943 Y2.3337 
G01 X11.9178 Y2.3358 
G01 X11.9297 Y2.3337 
G01 X11.9418 Y2.3337 
G01 X11.9646 Y2.3276 
G01 X11.9878 Y2.3236 
G01 X11.9988 Y2.3185 
G01 X12.0105 Y2.3153 
G01 X12.0309 Y2.3036 
G01 X12.0523 Y2.2936 
G01 X12.0616 Y2.2858 
G01 X12.0720 Y2.2798 
G01 X12.0887 Y2.2631 
G01 X12.1068 Y2.2480 
G01 X12.1138 Y2.2381 
G01 X12.1223 Y2.2295 
G01 X12.1341 Y2.2091 
G01 X13.0753 Y0.8686 
G01 X13.0952 Y0.8620 
G01 X13.1217 Y0.8548 
G01 X13.1288 Y0.8507 
G01 X13.1366 Y0.8481 
G01 X13.1467 Y0.8415 
G01 X17.1113 Y0.8415 
G01 X17.8204 Y1.7195 
G01 X17.7614 Y1.8077 
G01 X17.6853 Y1.9914 
G01 X17.6465 Y2.1865 
G01 X17.6465 Y2.3855 
G01 X17.6853 Y2.5805 
G01 X17.7614 Y2.7643 
G01 X17.8719 Y2.9297 
G01 X18.0126 Y3.0704 
G01 X18.1780 Y3.1809 
G01 X18.3618 Y3.2570 
G01 X18.5568 Y3.2958 
G01 X18.7558 Y3.2958 
G01 X18.9508 Y3.2570 
G01 X19.1346 Y3.1809 
G01 X19.2631 Y3.0950 
G01 X20.0500 Y3.8032 
G01 X20.0500 Y13.5166 
G01 X19.6304 Y13.6457 
G01 X19.6304 Y13.6018 
G01 X19.6198 Y13.5760 
G01 X19.6001 Y13.5564 
G01 X19.5744 Y13.5457 
G01 X17.3367 Y13.5457 
G01 X17.3110 Y13.5564 
G01 X17.2913 Y13.5760 
G01 X17.2807 Y13.6018 
G01 X17.2807 Y14.0109 
G01 X16.9642 Y14.7795 
G01 X9.7932 Y14.7795 
G01 X9.7932 Y13.7839 
G01 X9.7826 Y13.7582 
G01 X9.7629 Y13.7385 
G01 X9.7372 Y13.7279 
G01 X8.4093 Y13.7279 
G01 X8.3836 Y13.7385 
G01 X8.3639 Y13.7582 
G01 X8.3532 Y13.7839 
G01 X8.3532 Y15.1265 
G01 X8.0304 Y15.4733 
G01 X6.1531 Y15.4733 
G01 X4.6547 Y12.8222 
G01 X4.6547 Y12.5370 
G01 X4.6361 Y12.4675 
G01 X4.6001 Y12.4053 
G01 X4.5920 Y12.3971 
G01 X4.5920 Y12.3596 
G01 X4.5813 Y12.3338 
G01 X4.5617 Y12.3142 
G01 X4.5359 Y12.3035 
G01 X4.4313 Y12.3035 
G01 X4.4175 Y12.2998 
G01 X4.3455 Y12.2998 
G01 X4.3317 Y12.3035 
G01 X3.8474 Y12.3035 
G01 X3.8375 Y12.3016 
G01 X3.8120 Y12.3035 
G01 X3.1081 Y12.3035 
G01 X3.0823 Y12.3142 
G01 X3.0627 Y12.3338 
G01 X3.0520 Y12.3596 
G01 X3.0520 Y12.5231 
G01 X3.0474 Y12.5310 
G01 X3.0288 Y12.6005 
G01 X3.0288 Y12.9900 
G01 X3.0474 Y13.0595 
G01 X3.0834 Y13.1217 
G01 X3.1343 Y13.1726 
G01 X3.1965 Y13.2086 
G01 X3.2660 Y13.2272 
G01 X4.0336 Y13.2272 
G01 X5.5920 Y15.9844 
G01 X5.5925 Y15.9861 
G01 X5.6159 Y16.0267 
G01 X5.6391 Y16.0677 
G01 X5.6403 Y16.0689 
G01 X5.6412 Y16.0704 
G01 X5.6745 Y16.1038 
G01 X5.7074 Y16.1372 
G01 X5.7088 Y16.1381 
G01 X5.7101 Y16.1393 
G01 X5.7507 Y16.1628 
G01 X5.7913 Y16.1867 
G01 X5.7930 Y16.1872 
G01 X5.7944 Y16.1880 
G01 X5.8398 Y16.2002 
G01 X5.8852 Y16.2128 
G01 X5.8869 Y16.2128 
G01 X5.8885 Y16.2132 
G01 X5.9356 Y16.2132 
G01 X5.9826 Y16.2137 
G01 X5.9842 Y16.2132 
G01 X8.1495 Y16.2132 
G01 X8.1560 Y16.2147 
G01 X8.1981 Y16.2132 
G01 X8.2402 Y16.2132 
G01 X8.2467 Y16.2115 
G01 X8.2534 Y16.2113 
G01 X8.2936 Y16.1989 
G01 X8.3343 Y16.1880 
G01 X8.3401 Y16.1847 
G01 X8.3465 Y16.1827 
G01 X8.3822 Y16.1604 
G01 X8.4187 Y16.1393 
G01 X8.4234 Y16.1346 
G01 X8.4291 Y16.1310 
G01 X8.4578 Y16.1002 
G01 X8.4876 Y16.0704 
G01 X8.4909 Y16.0646 
G01 X9.1396 Y15.3678 
G01 X9.7372 Y15.3678 
G01 X9.7629 Y15.3572 
G01 X9.7826 Y15.3375 
G01 X9.7900 Y15.3195 
G01 X17.1276 Y15.3195 
G01 X17.1456 Y15.3218 
G01 X17.1630 Y15.3195 
G01 X17.1805 Y15.3195 
G01 X17.1981 Y15.3148 
G01 X17.2160 Y15.3124 
G01 X17.2323 Y15.3056 
G01 X17.2492 Y15.3011 
G01 X17.2649 Y15.2920 
G01 X17.2817 Y15.2851 
G01 X17.2956 Y15.2743 
G01 X17.3108 Y15.2655 
G01 X17.3236 Y15.2527 
G01 X17.3380 Y15.2417 
G01 X17.3486 Y15.2277 
G01 X17.3610 Y15.2153 
G01 X17.3701 Y15.1996 
G01 X17.3811 Y15.1852 
G01 X17.3878 Y15.1689 
G01 X17.3966 Y15.1537 
G01 X17.4013 Y15.1362 
G01 X17.7475 Y14.2953 
G01 X19.5744 Y14.2953 
G01 X19.6001 Y14.2846 
G01 X19.6198 Y14.2650 
G01 X19.6304 Y14.2392 
G01 X19.6304 Y14.2107 
G01 X20.3946 Y13.9755 
G01 X20.4242 Y13.9676 
G01 X20.4286 Y13.9651 
G01 X20.4334 Y13.9636 
G01 X20.4593 Y13.9474 
G01 X20.4858 Y13.9321 
G01 X20.4893 Y13.9285 
G01 X20.4936 Y13.9258 
G01 X20.5144 Y13.9034 
G01 X20.5360 Y13.8818 
G01 X20.5386 Y13.8774 
G01 X20.5420 Y13.8737 
G01 X20.5563 Y13.8467 
G01 X20.5716 Y13.8202 
G01 X20.5729 Y13.8154 
G01 X20.5753 Y13.8109 
G01 X20.5821 Y13.7811 
G01 X20.5900 Y13.7515 
G01 X20.5900 Y13.7465 
G01 X20.5911 Y13.7416 
G01 X20.5900 Y13.7111 
G01 X20.5900 Y3.7113 
G01 X20.5915 Y3.7043 
G01 X20.5900 Y3.6759 
G01 X20.5900 Y3.6475 
G01 X20.5881 Y3.6405 
G01 X20.5878 Y3.6333 
G01 X20.5790 Y3.6063 
G01 X20.5716 Y3.5788 
G01 X20.5680 Y3.5726 
G01 X20.5658 Y3.5657 
G01 X20.5503 Y3.5418 
G01 X20.5360 Y3.5172 
G01 X20.5310 Y3.5121 
G01 X20.5270 Y3.5061 
G01 X20.5059 Y3.4870 
G01 X20.4858 Y3.4669 
G01 X20.4796 Y3.4634 
G01 X19.5924 Y2.6649 
G01 X19.6273 Y2.5805 
G01 X19.6661 Y2.3855 
G01 X19.6661 Y2.1865 
G01 X19.6273 Y1.9914 
G01 X19.5512 Y1.8077 
G01 X19.4407 Y1.6423 
G01 X19.3000 Y1.5016 
G01 X19.1346 Y1.3911 
G01 X18.9508 Y1.3150 
G01 X18.7558 Y1.2762 
G01 X18.5568 Y1.2762 
G01 X18.3618 Y1.3150 
G01 X18.2314 Y1.3690 
G01 X17.4635 Y0.4182 
G01 X17.4563 Y0.4057 
G01 X17.4413 Y0.3907 
G01 X17.4280 Y0.3742 
G01 X17.4163 Y0.3657 
G01 X17.4060 Y0.3554 
G01 X17.3877 Y0.3448 
G01 X17.3705 Y0.3323 
G01 X17.3570 Y0.3271 
G01 X17.3445 Y0.3199 
G01 X17.3240 Y0.3144 
G01 X17.3042 Y0.3068 
G01 X17.2898 Y0.3052 
G01 X17.2758 Y0.3015 
G01 X17.2546 Y0.3015 
G01 X17.2335 Y0.2993 
G01 X17.2192 Y0.3015 
G01 X12.9813 Y0.3015 
G01 X12.9733 Y0.2999 
G01 X12.9579 Y0.3008 
G01 X12.9425 Y0.2994 
G01 X12.9306 Y0.3015 
G01 X12.9184 Y0.3015 
G01 X12.9105 Y0.3036 
G01 X12.9023 Y0.3041 
G01 X12.8877 Y0.3090 
G01 X12.8724 Y0.3117 
G01 X12.8615 Y0.3168 
G01 X12.8498 Y0.3199 
G01 X12.8427 Y0.3240 
G01 X12.8349 Y0.3266 
G01 X12.8248 Y0.3332 
G01 X1.7694 Y0.3332 
G01 X1.7572 Y0.3311 
G01 X1.7340 Y0.3332 
G01 X1.7107 Y0.3332 
G01 X1.6987 Y0.3365 
G01 X1.6864 Y0.3376 
G01 X1.6645 Y0.3456 
G01 X1.6420 Y0.3517 
G01 X1.6313 Y0.3578 
G01 X1.6197 Y0.3621 
G01 X1.6006 Y0.3756 
G01 X1.5805 Y0.3872 
G01 X1.5717 Y0.3959 
G01 X1.5616 Y0.4031 
G01 X1.5467 Y0.4210 
G01 X1.5302 Y0.4375 
G01 X1.5240 Y0.4482 
G01 X0.9475 Y1.1400 
G01 X0.3303 Y1.1400 
G01 X0.3046 Y1.1507 
G01 X0.2849 Y1.1703 
G00 Z1.0000 
G00 X1.9249 Y1.1703 
G01 Z-0.0700 F50.80 
G01 X1.9143 Y1.1961 F101.60 
G01 X1.9143 Y2.6139 
G01 X1.9249 Y2.6397 
G01 X1.9446 Y2.6593 
G01 X1.9703 Y2.6700 
G01 X2.2700 Y2.6700 
G01 X2.2700 Y3.6038 
G01 X2.0021 Y3.6038 
G01 X1.9763 Y3.6145 
G01 X1.9567 Y3.6341 
G01 X1.9460 Y3.6599 
G01 X1.9460 Y5.0777 
G01 X1.9567 Y5.1034 
G01 X1.9763 Y5.1231 
G01 X2.0021 Y5.1338 
G01 X2.9399 Y5.1338 
G01 X2.9657 Y5.1231 
G01 X2.9853 Y5.1034 
G01 X2.9960 Y5.0777 
G01 X2.9960 Y4.7150 
G01 X3.7323 Y4.7150 
G01 X3.7323 Y5.1645 
G01 X3.7429 Y5.1902 
G01 X3.7626 Y5.2099 
G01 X3.7883 Y5.2205 
G01 X4.1948 Y5.2205 
G01 X4.2068 Y5.5923 
G01 X4.2068 Y7.7514 
G01 X4.2051 Y7.7594 
G01 X4.2068 Y7.7868 
G01 X4.2068 Y7.8143 
G01 X4.2089 Y7.8222 
G01 X4.2094 Y7.8304 
G01 X4.2180 Y7.8565 
G01 X4.2252 Y7.8830 
G01 X4.2293 Y7.8901 
G01 X4.2318 Y7.8978 
G01 X4.2470 Y7.9208 
G01 X4.2607 Y7.9445 
G01 X4.2665 Y7.9503 
G01 X4.2710 Y7.9572 
G01 X4.2916 Y7.9754 
G01 X4.3110 Y7.9948 
G01 X4.3181 Y7.9989 
G01 X4.3242 Y8.0043 
G01 X4.3488 Y8.0166 
G01 X4.3725 Y8.0303 
G01 X4.3805 Y8.0325 
G01 X4.3878 Y8.0361 
G01 X4.4147 Y8.0416 
G01 X4.4412 Y8.0487 
G01 X4.4494 Y8.0487 
G01 X4.9560 Y8.1524 
G01 X3.7931 Y9.3153 
G01 X2.3687 Y9.3153 
G01 X2.3687 Y8.9175 
G01 X2.3501 Y8.8480 
G01 X2.3141 Y8.7858 
G01 X2.2632 Y8.7349 
G01 X2.2010 Y8.6989 
G01 X2.1315 Y8.6803 
G01 X2.0595 Y8.6803 
G01 X1.9900 Y8.6989 
G01 X1.9877 Y8.7003 
G01 X1.9877 Y8.6978 
G01 X1.9920 Y8.6874 
G01 X1.9920 Y6.3596 
G01 X1.9813 Y6.3338 
G01 X1.9616 Y6.3142 
G01 X1.9359 Y6.3035 
G01 X0.0081 Y6.3035 
G01 X-0.0176 Y6.3142 
G01 X-0.0373 Y6.3338 
G01 X-0.0480 Y6.3596 
G01 X-0.0480 Y7.4127 
G01 X-0.0572 Y7.4411 
G01 X-0.0827 Y7.6020 
G01 X-0.0827 Y14.8770 
G01 X-0.0572 Y15.0379 
G01 X-0.0480 Y15.0663 
G01 X-0.0480 Y16.1874 
G01 X-0.0373 Y16.2131 
G01 X-0.0176 Y16.2328 
G01 X0.0081 Y16.2435 
G01 X1.9359 Y16.2435 
G01 X1.9616 Y16.2328 
G01 X1.9813 Y16.2131 
G01 X1.9920 Y16.1874 
G01 X1.9920 Y13.9711 
G01 X2.0595 Y13.9892 
G01 X2.1315 Y13.9892 
G01 X2.2010 Y13.9706 
G01 X2.2632 Y13.9346 
G01 X2.3141 Y13.8837 
G01 X2.3501 Y13.8215 
G01 X2.3687 Y13.7520 
G01 X2.3687 Y10.2427 
G01 X3.1061 Y10.2427 
G01 X3.1081 Y10.2435 
G01 X3.8144 Y10.2435 
G01 X3.8422 Y10.2451 
G01 X3.8498 Y10.2435 
G01 X4.5359 Y10.2435 
G01 X4.5617 Y10.2328 
G01 X4.5813 Y10.2132 
G01 X4.5920 Y10.1874 
G01 X4.5920 Y9.7644 
G01 X4.6001 Y9.7562 
G01 X4.6361 Y9.6939 
G01 X4.6547 Y9.6245 
G01 X4.6547 Y9.5525 
G01 X4.6465 Y9.5220 
G01 X5.5348 Y8.6337 
G01 X6.0387 Y8.6337 
G01 X6.0644 Y8.6230 
G01 X6.0841 Y8.6034 
G01 X6.0947 Y8.5776 
G01 X6.0947 Y7.4498 
G01 X6.0841 Y7.4240 
G01 X6.0644 Y7.4044 
G01 X6.0387 Y7.3937 
G01 X5.2108 Y7.3937 
G01 X5.1851 Y7.4044 
G01 X5.1654 Y7.4240 
G01 X5.1547 Y7.4498 
G01 X5.1547 Y7.6419 
G01 X4.7467 Y7.5584 
G01 X4.7467 Y7.0962 
G01 X11.8902 Y7.0962 
G01 X11.8902 Y7.3746 
G01 X11.5000 Y7.3746 
G01 X11.4743 Y7.3853 
G01 X11.4546 Y7.4050 
G01 X11.4439 Y7.4307 
G01 X11.4439 Y8.5586 
G01 X11.4546 Y8.5843 
G01 X11.4743 Y8.6040 
G01 X11.5000 Y8.6146 
G01 X11.8585 Y8.6146 
G01 X11.8585 Y9.2578 
G01 X11.1794 Y9.7357 
G01 X10.6057 Y9.7357 
G01 X10.5800 Y9.7464 
G01 X10.5603 Y9.7660 
G01 X10.5496 Y9.7918 
G01 X10.5496 Y10.4292 
G01 X10.5603 Y10.4550 
G01 X10.5800 Y10.4746 
G01 X10.6057 Y10.4853 
G01 X12.8434 Y10.4853 
G01 X12.8691 Y10.4746 
G01 X12.8888 Y10.4550 
G01 X12.8994 Y10.4292 
G01 X12.8994 Y9.7918 
G01 X12.8888 Y9.7660 
G01 X12.8691 Y9.7464 
G01 X12.8434 Y9.7357 
G01 X12.1178 Y9.7357 
G01 X12.2740 Y9.6258 
G01 X12.2943 Y9.6141 
G01 X12.3029 Y9.6054 
G01 X12.3130 Y9.5983 
G01 X12.3280 Y9.5803 
G01 X12.3445 Y9.5638 
G01 X12.3507 Y9.5532 
G01 X12.3585 Y9.5438 
G01 X12.3684 Y9.5225 
G01 X12.3801 Y9.5022 
G01 X12.3833 Y9.4904 
G01 X12.3884 Y9.4793 
G01 X12.3924 Y9.4562 
G01 X12.3985 Y9.4335 
G01 X12.3985 Y9.4213 
G01 X12.4006 Y9.4092 
G01 X12.3985 Y9.3859 
G01 X12.3985 Y7.8208 
G01 X12.4004 Y7.7956 
G01 X12.3985 Y7.7854 
G01 X12.3985 Y7.7749 
G01 X12.3920 Y7.7505 
G01 X12.3873 Y7.7257 
G01 X12.3839 Y7.7187 
G01 X12.3839 Y7.7096 
G01 X12.3949 Y7.6900 
G01 X12.4118 Y7.6607 
G01 X12.4123 Y7.6592 
G01 X12.4130 Y7.6578 
G01 X12.4215 Y7.6248 
G01 X12.4302 Y7.5920 
G01 X12.4302 Y7.5905 
G01 X12.4306 Y7.5889 
G01 X12.4302 Y7.5549 
G01 X12.4302 Y4.0671 
G01 X13.1549 Y3.2044 
G01 X13.2818 Y3.2570 
G01 X13.4768 Y3.2958 
G01 X13.6758 Y3.2958 
G01 X13.8708 Y3.2570 
G01 X14.0546 Y3.1809 
G01 X14.2200 Y3.0704 
G01 X14.3607 Y2.9297 
G01 X14.4712 Y2.7643 
G01 X14.5473 Y2.5805 
G01 X14.5861 Y2.3855 
G01 X14.5861 Y2.1865 
G01 X14.5473 Y1.9914 
G01 X14.4712 Y1.8077 
G01 X14.3607 Y1.6423 
G01 X14.2200 Y1.5016 
G01 X14.0546 Y1.3911 
G01 X13.8708 Y1.3150 
G01 X13.6758 Y1.2762 
G01 X13.4768 Y1.2762 
G01 X13.2818 Y1.3150 
G01 X13.0980 Y1.3911 
G01 X12.9326 Y1.5016 
G01 X12.7919 Y1.6423 
G01 X12.6814 Y1.8077 
G01 X12.6053 Y1.9914 
G01 X12.5665 Y2.1865 
G01 X12.5665 Y2.3855 
G01 X12.6053 Y2.5805 
G01 X12.6814 Y2.7643 
G01 X12.7425 Y2.8558 
G01 X11.9610 Y3.7861 
G01 X11.9442 Y3.8030 
G01 X11.9383 Y3.8132 
G01 X11.9306 Y3.8223 
G01 X11.9206 Y3.8439 
G01 X11.9086 Y3.8645 
G01 X11.9056 Y3.8760 
G01 X11.9006 Y3.8867 
G01 X11.8964 Y3.9102 
G01 X11.8902 Y3.9332 
G01 X11.8902 Y3.9451 
G01 X11.8882 Y3.9567 
G01 X11.8902 Y3.9805 
G01 X11.8902 Y6.5563 
G01 X4.7467 Y6.5563 
G01 X4.7467 Y5.6191 
G01 X4.7478 Y5.6148 
G01 X4.7467 Y5.5836 
G01 X4.7467 Y5.5525 
G01 X4.7456 Y5.5482 
G01 X4.7350 Y5.2205 
G01 X5.1162 Y5.2205 
G01 X5.1419 Y5.2099 
G01 X5.1616 Y5.1902 
G01 X5.1722 Y5.1645 
G01 X5.1722 Y3.6366 
G01 X5.1616 Y3.6109 
G01 X5.1419 Y3.5912 
G01 X5.1162 Y3.5806 
G01 X3.7883 Y3.5806 
G01 X3.7626 Y3.5912 
G01 X3.7429 Y3.6109 
G01 X3.7323 Y3.6366 
G01 X3.7323 Y4.1750 
G01 X2.9960 Y4.1750 
G01 X2.9960 Y3.6599 
G01 X2.9853 Y3.6341 
G01 X2.9657 Y3.6145 
G01 X2.9399 Y3.6038 
G01 X2.8100 Y3.6038 
G01 X2.8100 Y2.6700 
G01 X2.9082 Y2.6700 
G01 X2.9339 Y2.6593 
G01 X2.9536 Y2.6397 
G01 X2.9642 Y2.6139 
G01 X2.9642 Y2.1750 
G01 X3.8656 Y2.1750 
G01 X3.8656 Y2.7705 
G01 X3.8763 Y2.7963 
G01 X3.8959 Y2.8159 
G01 X3.9217 Y2.8266 
G01 X5.2495 Y2.8266 
G01 X5.2752 Y2.8159 
G01 X5.2949 Y2.7963 
G01 X5.3056 Y2.7705 
G01 X5.3056 Y1.2427 
G01 X5.2949 Y1.2169 
G01 X5.2752 Y1.1973 
G01 X5.2495 Y1.1866 
G01 X3.9217 Y1.1866 
G01 X3.8959 Y1.1973 
G01 X3.8763 Y1.2169 
G01 X3.8656 Y1.2427 
G01 X3.8656 Y1.6350 
G01 X2.9642 Y1.6350 
G01 X2.9642 Y1.1961 
G01 X2.9536 Y1.1703 
G01 X2.9339 Y1.1507 
G01 X2.9082 Y1.1400 
G01 X1.9703 Y1.1400 
G01 X1.9446 Y1.1507 
G01 X1.9249 Y1.1703 
G00 Z1.0000 
G00 X5.5763 Y1.2169 
G01 Z-0.0700 F50.80 
G01 X5.5656 Y1.2427 F101.60 
G01 X5.5656 Y2.7705 
G01 X5.5763 Y2.7963 
G01 X5.5959 Y2.8159 
G01 X5.6217 Y2.8266 
G01 X6.9495 Y2.8266 
G01 X6.9752 Y2.8159 
G01 X6.9949 Y2.7963 
G01 X7.0056 Y2.7705 
G01 X7.0056 Y2.3337 
G01 X8.0907 Y2.3337 
G01 X8.0907 Y2.6904 
G01 X8.1014 Y2.7161 
G01 X8.1211 Y2.7358 
G01 X8.1468 Y2.7464 
G01 X9.3747 Y2.7464 
G01 X9.4004 Y2.7358 
G01 X9.4201 Y2.7161 
G01 X9.4307 Y2.6904 
G01 X9.4307 Y1.4625 
G01 X9.4201 Y1.4368 
G01 X9.4004 Y1.4171 
G01 X9.3747 Y1.4064 
G01 X8.1468 Y1.4064 
G01 X8.1211 Y1.4171 
G01 X8.1014 Y1.4368 
G01 X8.0907 Y1.4625 
G01 X8.0907 Y1.7937 
G01 X7.0056 Y1.7937 
G01 X7.0056 Y1.2427 
G01 X6.9949 Y1.2169 
G01 X6.9752 Y1.1973 
G01 X6.9495 Y1.1866 
G01 X5.6217 Y1.1866 
G01 X5.5959 Y1.1973 
G01 X5.5763 Y1.2169 
G00 Z1.0000 
G00 X5.4883 Y3.5806 
G01 Z-0.0700 F50.80 
G01 X5.4626 Y3.5912 F101.60 
G01 X5.4429 Y3.6109 
G01 X5.4322 Y3.6366 
G01 X5.4322 Y5.1645 
G01 X5.4429 Y5.1902 
G01 X5.4626 Y5.2099 
G01 X5.4883 Y5.2205 
G01 X6.8162 Y5.2205 
G01 X6.8419 Y5.2099 
G01 X6.8616 Y5.1902 
G01 X6.8722 Y5.1645 
G01 X6.8722 Y4.8737 
G01 X7.8431 Y4.8737 
G01 X7.8431 Y5.2240 
G01 X7.8538 Y5.2497 
G01 X7.8734 Y5.2694 
G01 X7.8992 Y5.2801 
G01 X9.1270 Y5.2801 
G01 X9.1527 Y5.2694 
G01 X9.1724 Y5.2497 
G01 X9.1831 Y5.2240 
G01 X9.1831 Y3.9962 
G01 X9.1724 Y3.9704 
G01 X9.1527 Y3.9508 
G01 X9.1270 Y3.9401 
G01 X7.8992 Y3.9401 
G01 X7.8734 Y3.9508 
G01 X7.8538 Y3.9704 
G01 X7.8431 Y3.9962 
G01 X7.8431 Y4.3338 
G01 X6.8722 Y4.3338 
G01 X6.8722 Y3.6366 
G01 X6.8616 Y3.6109 
G01 X6.8419 Y3.5912 
G01 X6.8162 Y3.5806 
G01 X5.4883 Y3.5806 
G00 Z1.0000 
G00 X6.4654 Y7.4240 
G01 Z-0.0700 F50.80 
G01 X6.4547 Y7.4498 F101.60 
G01 X6.4547 Y8.5776 
G01 X6.4654 Y8.6034 
G01 X6.4851 Y8.6230 
G01 X6.5025 Y8.6302 
G01 X6.1321 Y9.0570 
G01 X6.0768 Y9.0422 
G01 X5.9247 Y9.0422 
G01 X5.7776 Y9.0816 
G01 X5.6459 Y9.1577 
G01 X5.5382 Y9.2653 
G01 X5.4621 Y9.3971 
G01 X5.4227 Y9.5442 
G01 X5.4227 Y9.6963 
G01 X5.4621 Y9.8433 
G01 X5.5382 Y9.9751 
G01 X5.6459 Y10.0828 
G01 X5.7776 Y10.1589 
G01 X5.9247 Y10.1982 
G01 X6.0768 Y10.1982 
G01 X6.2238 Y10.1589 
G01 X6.3556 Y10.0828 
G01 X6.4633 Y9.9751 
G01 X6.5394 Y9.8433 
G01 X6.5787 Y9.6963 
G01 X6.5787 Y9.5442 
G01 X6.5423 Y9.4082 
G01 X7.2145 Y8.6337 
G01 X8.5387 Y8.6337 
G01 X8.5644 Y8.6230 
G01 X8.5841 Y8.6034 
G01 X8.5947 Y8.5776 
G01 X8.5947 Y7.4498 
G01 X8.5841 Y7.4240 
G01 X8.5644 Y7.4044 
G01 X8.5387 Y7.3937 
G01 X6.5108 Y7.3937 
G01 X6.4851 Y7.4044 
G01 X6.4654 Y7.4240 
G00 Z1.0000 
G00 X8.9439 Y7.4307 
G01 Z-0.0700 F50.80 
G01 X8.9439 Y8.5586 F101.60 
G01 X8.9546 Y8.5843 
G01 X8.9743 Y8.6040 
G01 X9.0000 Y8.6146 
G01 X9.0265 Y8.6146 
G01 X9.0164 Y8.6321 
G01 X8.9978 Y8.7016 
G01 X8.9978 Y9.0613 
G01 X7.8380 Y9.0613 
G01 X7.7685 Y9.0799 
G01 X7.7062 Y9.1159 
G01 X7.6554 Y9.1668 
G01 X7.0839 Y9.7383 
G01 X7.0535 Y9.7909 
G01 X6.7093 Y9.7909 
G01 X6.6836 Y9.8015 
G01 X6.6639 Y9.8212 
G01 X6.6532 Y9.8469 
G01 X6.6532 Y10.9037 
G01 X6.5557 Y11.0013 
G01 X4.0022 Y11.0013 
G01 X4.0002 Y11.0007 
G01 X3.9667 Y11.0013 
G01 X3.9332 Y11.0013 
G01 X3.9312 Y11.0018 
G01 X3.8200 Y11.0035 
G01 X3.1081 Y11.0035 
G01 X3.0823 Y11.0142 
G01 X3.0627 Y11.0338 
G01 X3.0520 Y11.0596 
G01 X3.0520 Y11.4874 
G01 X3.0627 Y11.5131 
G01 X3.0823 Y11.5328 
G01 X3.1081 Y11.5435 
G01 X3.7886 Y11.5435 
G01 X3.7906 Y11.5440 
G01 X3.8241 Y11.5435 
G01 X4.5359 Y11.5435 
G01 X4.5414 Y11.5412 
G01 X6.7030 Y11.5412 
G01 X6.7717 Y11.5228 
G01 X6.8333 Y11.4873 
G01 X6.8897 Y11.4308 
G01 X8.0372 Y11.4308 
G01 X8.0629 Y11.4202 
G01 X8.0826 Y11.4005 
G01 X8.0932 Y11.3748 
G01 X8.0932 Y9.8469 
G01 X8.0826 Y9.8212 
G01 X8.0629 Y9.8015 
G01 X8.0372 Y9.7909 
G01 X7.8040 Y9.7909 
G01 X7.9872 Y9.6077 
G01 X9.1800 Y9.6077 
G01 X9.2494 Y9.5891 
G01 X9.3117 Y9.5531 
G01 X9.4387 Y9.4261 
G01 X9.4896 Y9.3752 
G01 X9.5256 Y9.3130 
G01 X9.5442 Y9.2435 
G01 X9.5442 Y8.8508 
G01 X9.7803 Y8.6146 
G01 X11.0279 Y8.6146 
G01 X11.0536 Y8.6040 
G01 X11.0733 Y8.5843 
G01 X11.0839 Y8.5586 
G01 X11.0839 Y7.4307 
G01 X11.0733 Y7.4050 
G01 X11.0536 Y7.3853 
G01 X11.0279 Y7.3746 
G01 X9.0000 Y7.3746 
G01 X8.9743 Y7.3853 
G01 X8.9546 Y7.4050 
G01 X8.9439 Y7.4307 
G00 Z1.0000 
G00 X10.2813 Y6.3363 
G01 Z-0.0700 F50.80 
G01 X10.4131 Y6.4124 F101.60 
G01 X10.5602 Y6.4517 
G01 X10.7123 Y6.4517 
G01 X10.8593 Y6.4124 
G01 X10.9911 Y6.3363 
G01 X11.0988 Y6.2286 
G01 X11.1749 Y6.0968 
G01 X11.2142 Y5.9498 
G01 X11.2142 Y5.7977 
G01 X11.1749 Y5.6506 
G01 X11.0988 Y5.5188 
G01 X10.9911 Y5.4112 
G01 X10.9062 Y5.3622 
G01 X10.9062 Y5.2801 
G01 X11.2270 Y5.2801 
G01 X11.2528 Y5.2694 
G01 X11.2724 Y5.2497 
G01 X11.2831 Y5.2240 
G01 X11.2831 Y3.9962 
G01 X11.2724 Y3.9704 
G01 X11.2528 Y3.9508 
G01 X11.2270 Y3.9401 
G01 X9.9992 Y3.9401 
G01 X9.9734 Y3.9508 
G01 X9.9538 Y3.9704 
G01 X9.9431 Y3.9962 
G01 X9.9431 Y5.2240 
G01 X9.9538 Y5.2497 
G01 X9.9734 Y5.2694 
G01 X9.9992 Y5.2801 
G01 X10.3663 Y5.2801 
G01 X10.3663 Y5.3622 
G01 X10.2813 Y5.4112 
G01 X10.1737 Y5.5188 
G01 X10.0976 Y5.6506 
G01 X10.0582 Y5.7977 
G01 X10.0582 Y5.9498 
G01 X10.0976 Y6.0968 
G01 X10.1737 Y6.2286 
G01 X10.2813 Y6.3363 
G00 Z1.0000 
G00 X12.9590 Y5.6713 
G01 Z-0.0700 F50.80 
G01 X13.1244 Y5.7818 F101.60 
G01 X13.2238 Y5.8229 
G01 X13.2238 Y13.4305 
G01 X12.8697 Y13.5569 
G01 X12.8434 Y13.5457 
G01 X11.3308 Y13.5457 
G01 X11.3159 Y13.5443 
G01 X11.3000 Y13.5404 
G01 X11.2807 Y13.5409 
G01 X11.2615 Y13.5391 
G01 X11.2453 Y13.5418 
G01 X11.2289 Y13.5422 
G01 X11.2171 Y13.5457 
G01 X10.6057 Y13.5457 
G01 X10.5800 Y13.5564 
G01 X10.5603 Y13.5760 
G01 X10.5496 Y13.6018 
G01 X10.5496 Y14.2392 
G01 X10.5603 Y14.2650 
G01 X10.5800 Y14.2846 
G01 X10.6057 Y14.2953 
G01 X12.8434 Y14.2953 
G01 X12.8691 Y14.2846 
G01 X12.8888 Y14.2650 
G01 X12.8994 Y14.2392 
G01 X12.8994 Y14.1197 
G01 X13.5742 Y13.8787 
G01 X13.5980 Y13.8723 
G01 X13.6076 Y13.8668 
G01 X13.6180 Y13.8631 
G01 X13.6383 Y13.8491 
G01 X13.6595 Y13.8368 
G01 X13.6674 Y13.8290 
G01 X13.6765 Y13.8226 
G01 X13.6924 Y13.8039 
G01 X13.7098 Y13.7865 
G01 X13.7153 Y13.7769 
G01 X13.7225 Y13.7685 
G01 X13.7331 Y13.7462 
G01 X13.7453 Y13.7250 
G01 X13.7482 Y13.7142 
G01 X13.7530 Y13.7042 
G01 X13.7574 Y13.6800 
G01 X13.7637 Y13.6563 
G01 X13.7637 Y13.6452 
G01 X13.7657 Y13.6343 
G01 X13.7637 Y13.6098 
G01 X13.7637 Y5.8845 
G01 X13.8973 Y5.8579 
G01 X14.0811 Y5.7818 
G01 X14.2465 Y5.6713 
G01 X14.3871 Y5.5306 
G01 X14.4976 Y5.3652 
G01 X14.5737 Y5.1814 
G01 X14.6125 Y4.9864 
G01 X14.6125 Y4.7874 
G01 X14.5737 Y4.5923 
G01 X14.4976 Y4.4086 
G01 X14.3871 Y4.2432 
G01 X14.2465 Y4.1025 
G01 X14.0811 Y3.9920 
G01 X13.8973 Y3.9159 
G01 X13.7022 Y3.8771 
G01 X13.5033 Y3.8771 
G01 X13.3082 Y3.9159 
G01 X13.1244 Y3.9920 
G01 X12.9590 Y4.1025 
G01 X12.8184 Y4.2432 
G01 X12.7079 Y4.4086 
G01 X12.6318 Y4.5923 
G01 X12.5930 Y4.7874 
G01 X12.5930 Y4.9864 
G01 X12.6318 Y5.1814 
G01 X12.7079 Y5.3652 
G01 X12.8184 Y5.5306 
G01 X12.9590 Y5.6713 
G00 Z1.0000 
G00 X14.7064 Y6.2160 
G01 Z-0.0700 F50.80 
G01 X14.6996 Y6.2279 F101.60 
G01 X14.6909 Y6.2385 
G01 X14.6819 Y6.2585 
G01 X14.6709 Y6.2775 
G01 X14.6673 Y6.2908 
G01 X14.6617 Y6.3034 
G01 X14.6582 Y6.3250 
G01 X14.6525 Y6.3462 
G01 X14.6525 Y6.3600 
G01 X14.6503 Y6.3735 
G01 X14.6525 Y6.3954 
G01 X14.6525 Y11.5463 
G01 X14.6469 Y11.5898 
G01 X14.6566 Y11.6611 
G01 X14.6844 Y11.7275 
G01 X14.7284 Y11.7844 
G01 X14.7857 Y11.8279 
G01 X17.2807 Y12.8500 
G01 X17.2807 Y12.9692 
G01 X17.2913 Y12.9949 
G01 X17.3110 Y13.0146 
G01 X17.3367 Y13.0253 
G01 X19.5744 Y13.0253 
G01 X19.6001 Y13.0146 
G01 X19.6198 Y12.9949 
G01 X19.6304 Y12.9692 
G01 X19.6304 Y12.3318 
G01 X19.6198 Y12.3060 
G01 X19.6001 Y12.2864 
G01 X19.5744 Y12.2757 
G01 X17.3367 Y12.2757 
G01 X17.3285 Y12.2791 
G01 X15.1925 Y11.4041 
G01 X15.1925 Y6.4780 
G01 X15.7364 Y5.8116 
G01 X15.8482 Y5.8579 
G01 X16.0433 Y5.8967 
G01 X16.2422 Y5.8967 
G01 X16.4373 Y5.8579 
G01 X16.6211 Y5.7818 
G01 X16.7865 Y5.6713 
G01 X16.9271 Y5.5306 
G01 X17.0376 Y5.3652 
G01 X17.1137 Y5.1814 
G01 X17.1525 Y4.9864 
G01 X17.1525 Y4.7874 
G01 X17.1137 Y4.5923 
G01 X17.0376 Y4.4086 
G01 X16.9271 Y4.2432 
G01 X16.7865 Y4.1025 
G01 X16.6211 Y3.9920 
G01 X16.4373 Y3.9159 
G01 X16.2422 Y3.8771 
G01 X16.0433 Y3.8771 
G01 X15.8482 Y3.9159 
G01 X15.6644 Y3.9920 
G01 X15.4990 Y4.1025 
G01 X15.3584 Y4.2432 
G01 X15.2479 Y4.4086 
G01 X15.1718 Y4.5923 
G01 X15.1329 Y4.7874 
G01 X15.1329 Y4.9864 
G01 X15.1718 Y5.1814 
G01 X15.2479 Y5.3652 
G01 X15.3180 Y5.4702 
G01 X14.7219 Y6.2005 
G01 X14.7064 Y6.2160 
G00 Z1.0000 
G00 X15.8947 Y6.9934 
G01 Z-0.0700 F50.80 
G01 X15.8867 Y7.0051 F101.60 
G01 X15.8770 Y7.0153 
G01 X15.8667 Y7.0343 
G01 X15.8545 Y7.0521 
G01 X15.8498 Y7.0654 
G01 X15.8431 Y7.0778 
G01 X15.8380 Y7.0987 
G01 X15.8308 Y7.1191 
G01 X15.8297 Y7.1332 
G01 X15.8264 Y7.1469 
G01 X15.8270 Y7.1684 
G01 X15.8253 Y7.1900 
G01 X15.8279 Y7.2038 
G01 X15.9221 Y10.8763 
G01 X15.9202 Y10.8908 
G01 X15.9230 Y10.9117 
G01 X15.9235 Y10.9327 
G01 X15.9277 Y10.9468 
G01 X15.9296 Y10.9613 
G01 X15.9377 Y10.9807 
G01 X15.9437 Y11.0009 
G01 X15.9513 Y11.0134 
G01 X15.9569 Y11.0269 
G01 X15.9698 Y11.0436 
G01 X15.9808 Y11.0615 
G01 X15.9914 Y11.0716 
G01 X16.0003 Y11.0832 
G01 X16.0170 Y11.0960 
G01 X16.0323 Y11.1105 
G01 X16.0452 Y11.1175 
G01 X16.0568 Y11.1264 
G01 X16.0763 Y11.1344 
G01 X16.0948 Y11.1444 
G01 X16.1090 Y11.1479 
G01 X17.1477 Y11.5756 
G01 X17.1581 Y11.5821 
G01 X17.1805 Y11.5890 
G01 X17.2021 Y11.5979 
G01 X17.2143 Y11.5995 
G01 X17.2261 Y11.6032 
G01 X17.2494 Y11.6041 
G01 X17.2726 Y11.6071 
G01 X17.2807 Y11.6060 
G01 X17.2807 Y11.6992 
G01 X17.2913 Y11.7249 
G01 X17.3110 Y11.7446 
G01 X17.3367 Y11.7553 
G01 X19.5744 Y11.7553 
G01 X19.6001 Y11.7446 
G01 X19.6198 Y11.7249 
G01 X19.6304 Y11.6992 
G01 X19.6304 Y11.0618 
G01 X19.6198 Y11.0360 
G01 X19.6001 Y11.0164 
G01 X19.5744 Y11.0057 
G01 X17.3367 Y11.0057 
G01 X17.3110 Y11.0164 
G01 X17.2913 Y11.0360 
G01 X17.2861 Y11.0486 
G01 X16.4579 Y10.7075 
G01 X16.3705 Y7.2971 
G01 X18.1693 Y5.7583 
G01 X18.2044 Y5.7818 
G01 X18.3882 Y5.8579 
G01 X18.5833 Y5.8967 
G01 X18.7822 Y5.8967 
G01 X18.9773 Y5.8579 
G01 X19.1611 Y5.7818 
G01 X19.3265 Y5.6713 
G01 X19.4671 Y5.5306 
G01 X19.5776 Y5.3652 
G01 X19.6537 Y5.1814 
G01 X19.6925 Y4.9864 
G01 X19.6925 Y4.7874 
G01 X19.6537 Y4.5923 
G01 X19.5776 Y4.4086 
G01 X19.4671 Y4.2432 
G01 X19.3265 Y4.1025 
G01 X19.1611 Y3.9920 
G01 X18.9773 Y3.9159 
G01 X18.7822 Y3.8771 
G01 X18.5833 Y3.8771 
G01 X18.3882 Y3.9159 
G01 X18.2044 Y3.9920 
G01 X18.0390 Y4.1025 
G01 X17.8984 Y4.2432 
G01 X17.7879 Y4.4086 
G01 X17.7118 Y4.5923 
G01 X17.6730 Y4.7874 
G01 X17.6730 Y4.9864 
G01 X17.7118 Y5.1814 
G01 X17.7879 Y5.3652 
G01 X17.7916 Y5.3708 
G01 X15.9380 Y6.9564 
G01 X15.9260 Y6.9638 
G01 X15.9111 Y6.9794 
G01 X15.8947 Y6.9934 
G00 Z1.0000 
G00 X17.6350 Y7.5826 
G01 Z-0.0700 F50.80 
G01 X17.5589 Y7.7144 F101.60 
G01 X17.5195 Y7.8614 
G01 X17.5195 Y8.0136 
G01 X17.5589 Y8.1606 
G01 X17.6350 Y8.2924 
G01 X17.7426 Y8.4000 
G01 X17.8275 Y8.4490 
G01 X17.8275 Y9.7357 
G01 X17.3367 Y9.7357 
G01 X17.3110 Y9.7464 
G01 X17.2913 Y9.7660 
G01 X17.2807 Y9.7918 
G01 X17.2807 Y10.4292 
G01 X17.2913 Y10.4550 
G01 X17.3110 Y10.4746 
G01 X17.3367 Y10.4853 
G01 X19.5744 Y10.4853 
G01 X19.6001 Y10.4746 
G01 X19.6198 Y10.4550 
G01 X19.6304 Y10.4292 
G01 X19.6304 Y9.7918 
G01 X19.6198 Y9.7660 
G01 X19.6001 Y9.7464 
G01 X19.5744 Y9.7357 
G01 X18.3675 Y9.7357 
G01 X18.3675 Y8.4490 
G01 X18.4524 Y8.4000 
G01 X18.5600 Y8.2924 
G01 X18.6361 Y8.1606 
G01 X18.6755 Y8.0136 
G01 X18.6755 Y7.8614 
G01 X18.6361 Y7.7144 
G01 X18.5600 Y7.5826 
G01 X18.4524 Y7.4750 
G01 X18.3206 Y7.3989 
G01 X18.1736 Y7.3595 
G01 X18.0214 Y7.3595 
G01 X17.8744 Y7.3989 
G01 X17.7426 Y7.4750 
G01 X17.6350 Y7.5826 
G00 Z1.0000 
G00 X16.9007 Y2.9297 
G01 Z-0.0700 F50.80 
G01 X17.0112 Y2.7643 F101.60 
G01 X17.0873 Y2.5805 
G01 X17.1261 Y2.3855 
G01 X17.1261 Y2.1865 
G01 X17.0873 Y1.9914 
G01 X17.0112 Y1.8077 
G01 X16.9007 Y1.6423 
G01 X16.7600 Y1.5016 
G01 X16.5946 Y1.3911 
G01 X16.4108 Y1.3150 
G01 X16.2158 Y1.2762 
G01 X16.0168 Y1.2762 
G01 X15.8217 Y1.3150 
G01 X15.6380 Y1.3911 
G01 X15.4726 Y1.5016 
G01 X15.3319 Y1.6423 
G01 X15.2214 Y1.8077 
G01 X15.1453 Y1.9914 
G01 X15.1065 Y2.1865 
G01 X15.1065 Y2.3855 
G01 X15.1453 Y2.5805 
G01 X15.2214 Y2.7643 
G01 X15.3319 Y2.9297 
G01 X15.4726 Y3.0704 
G01 X15.6380 Y3.1809 
G01 X15.8217 Y3.2570 
G01 X16.0168 Y3.2958 
G01 X16.2158 Y3.2958 
G01 X16.4108 Y3.2570 
G01 X16.5946 Y3.1809 
G01 X16.7600 Y3.0704 
G01 X16.9007 Y2.9297 
G00 Z1.0000 
G00 X12.8691 Y11.0164 
G01 Z-0.0700 F50.80 
G01 X12.8434 Y11.0057 F101.60 
G01 X11.1647 Y11.0057 
G01 X11.1480 Y11.0013 
G01 X11.1364 Y11.0013 
G01 X11.1250 Y10.9992 
G01 X11.1010 Y11.0013 
G01 X10.5129 Y11.0013 
G01 X9.7932 Y10.8093 
G01 X9.7932 Y9.8469 
G01 X9.7826 Y9.8212 
G01 X9.7629 Y9.8015 
G01 X9.7372 Y9.7909 
G01 X8.4093 Y9.7909 
G01 X8.3836 Y9.8015 
G01 X8.3639 Y9.8212 
G01 X8.3532 Y9.8469 
G01 X8.3532 Y11.3748 
G01 X8.3639 Y11.4005 
G01 X8.3836 Y11.4202 
G01 X8.4093 Y11.4308 
G01 X9.7372 Y11.4308 
G01 X9.7629 Y11.4202 
G01 X9.7826 Y11.4005 
G01 X9.7932 Y11.3748 
G01 X9.7932 Y11.3682 
G01 X10.4085 Y11.5323 
G01 X10.4420 Y11.5412 
G01 X10.4778 Y11.5412 
G01 X10.5496 Y11.5412 
G01 X10.5496 Y11.6992 
G01 X10.5603 Y11.7249 
G01 X10.5800 Y11.7446 
G01 X10.6057 Y11.7553 
G01 X12.8434 Y11.7553 
G01 X12.8691 Y11.7446 
G01 X12.8888 Y11.7249 
G01 X12.8994 Y11.6992 
G01 X12.8994 Y11.0618 
G01 X12.8888 Y11.0360 
G01 X12.8691 Y11.0164 
G00 Z1.0000 
G00 X12.8691 Y12.2864 
G01 Z-0.0700 F50.80 
G01 X12.8434 Y12.2757 F101.60 
G01 X10.6057 Y12.2757 
G01 X10.5800 Y12.2864 
G01 X10.5603 Y12.3060 
G01 X10.5496 Y12.3318 
G01 X10.5496 Y12.4300 
G01 X9.7678 Y12.4300 
G01 X9.7678 Y11.7964 
G01 X9.7572 Y11.7706 
G01 X9.7375 Y11.7510 
G01 X9.7118 Y11.7403 
G01 X8.3839 Y11.7403 
G01 X8.3582 Y11.7510 
G01 X8.3385 Y11.7706 
G01 X8.3278 Y11.7964 
G01 X8.3278 Y13.3242 
G01 X8.3385 Y13.3499 
G01 X8.3582 Y13.3696 
G01 X8.3839 Y13.3803 
G01 X9.7118 Y13.3803 
G01 X9.7375 Y13.3696 
G01 X9.7572 Y13.3499 
G01 X9.7678 Y13.3242 
G01 X9.7678 Y12.9700 
G01 X10.5500 Y12.9700 
G01 X10.5603 Y12.9949 
G01 X10.5800 Y13.0146 
G01 X10.6057 Y13.0253 
G01 X12.8434 Y13.0253 
G01 X12.8691 Y13.0146 
G01 X12.8888 Y12.9949 
G01 X12.8994 Y12.9692 
G01 X12.8994 Y12.3318 
G01 X12.8888 Y12.3060 
G01 X12.8691 Y12.2864 
G00 Z1.0000 
G00 X8.0678 Y11.7964 
G01 Z-0.0700 F50.80 
G01 X8.0572 Y11.7706 F101.60 
G01 X8.0375 Y11.7510 
G01 X8.0118 Y11.7403 
G01 X6.8845 Y11.7403 
G01 X6.8602 Y11.7093 
G01 X6.8026 Y11.6661 
G01 X6.7359 Y11.6393 
G01 X6.6645 Y11.6307 
G01 X6.6257 Y11.6363 
G01 X3.9883 Y11.6363 
G01 X3.9725 Y11.6339 
G01 X3.9529 Y11.6363 
G01 X3.9332 Y11.6363 
G01 X3.9178 Y11.6404 
G01 X3.8062 Y11.6535 
G01 X3.1081 Y11.6535 
G01 X3.0823 Y11.6642 
G01 X3.0627 Y11.6838 
G01 X3.0520 Y11.7096 
G01 X3.0520 Y12.1374 
G01 X3.0627 Y12.1631 
G01 X3.0823 Y12.1828 
G01 X3.1081 Y12.1935 
G01 X3.8024 Y12.1935 
G01 X3.8182 Y12.1958 
G01 X3.8378 Y12.1935 
G01 X4.5359 Y12.1935 
G01 X4.5617 Y12.1828 
G01 X4.5682 Y12.1762 
G01 X5.8604 Y12.1762 
G01 X5.7553 Y12.4741 
G01 X5.6189 Y12.5106 
G01 X5.4871 Y12.5867 
G01 X5.3795 Y12.6944 
G01 X5.3034 Y12.8261 
G01 X5.2640 Y12.9732 
G01 X5.2640 Y13.1253 
G01 X5.3034 Y13.2723 
G01 X5.3795 Y13.4041 
G01 X5.4871 Y13.5118 
G01 X5.6189 Y13.5879 
G01 X5.7659 Y13.6272 
G01 X5.9181 Y13.6272 
G01 X6.0651 Y13.5879 
G01 X6.1969 Y13.5118 
G01 X6.3045 Y13.4041 
G01 X6.3806 Y13.2723 
G01 X6.4200 Y13.1253 
G01 X6.4200 Y12.9732 
G01 X6.3806 Y12.8261 
G01 X6.3045 Y12.6944 
G01 X6.2694 Y12.6592 
G01 X6.4255 Y12.2168 
G01 X6.5749 Y12.1955 
G01 X6.6278 Y12.2484 
G01 X6.6278 Y13.3242 
G01 X6.6385 Y13.3499 
G01 X6.6582 Y13.3696 
G01 X6.6839 Y13.3803 
G01 X7.1913 Y13.3803 
G01 X7.1913 Y13.7279 
G01 X6.7093 Y13.7279 
G01 X6.6836 Y13.7385 
G01 X6.6639 Y13.7582 
G01 X6.6532 Y13.7839 
G01 X6.6532 Y15.3118 
G01 X6.6639 Y15.3375 
G01 X6.6836 Y15.3572 
G01 X6.7093 Y15.3678 
G01 X8.0372 Y15.3678 
G01 X8.0629 Y15.3572 
G01 X8.0826 Y15.3375 
G01 X8.0932 Y15.3118 
G01 X8.0932 Y13.7839 
G01 X8.0826 Y13.7582 
G01 X8.0629 Y13.7385 
G01 X8.0372 Y13.7279 
G01 X7.7312 Y13.7279 
G01 X7.7312 Y13.3803 
G01 X8.0118 Y13.3803 
G01 X8.0375 Y13.3696 
G01 X8.0572 Y13.3499 
G01 X8.0678 Y13.3242 
G01 X8.0678 Y11.7964 
G00 Z1.0000 
G00 X4.5813 Y10.8631 
G01 Z-0.0700 F50.80 
G01 X4.5920 Y10.8374 F101.60 
G01 X4.5920 Y10.4096 
G01 X4.5813 Y10.3838 
G01 X4.5617 Y10.3642 
G01 X4.5359 Y10.3535 
G01 X3.1081 Y10.3535 
G01 X3.0823 Y10.3642 
G01 X3.0627 Y10.3838 
G01 X3.0520 Y10.4096 
G01 X3.0520 Y10.8374 
G01 X3.0627 Y10.8631 
G01 X3.0823 Y10.8828 
G01 X3.1081 Y10.8935 
G01 X4.5359 Y10.8935 
G01 X4.5617 Y10.8828 
G01 X4.5813 Y10.8631 
G00 Z1.0000 
G00 X0.1577 Y1.0854 
G01 Z-0.0700 F50.80 
G01 X0.1242 Y1.1662 F101.60 
G01 X0.1242 Y2.6438 
G01 X0.1577 Y2.7246 
G01 X0.2196 Y2.7865 
G01 X0.3005 Y2.8200 
G01 X0.3738 Y2.8200 
G01 X0.3738 Y3.4538 
G01 X0.3322 Y3.4538 
G01 X0.2514 Y3.4873 
G01 X0.1895 Y3.5492 
G01 X0.1560 Y3.6300 
G01 X0.1560 Y5.1076 
G01 X0.1895 Y5.1884 
G01 X0.2514 Y5.2503 
G01 X0.3322 Y5.2838 
G01 X1.3298 Y5.2838 
G01 X1.4106 Y5.2503 
G01 X1.4725 Y5.1884 
G01 X1.5060 Y5.1076 
G01 X1.5060 Y3.6300 
G01 X1.4725 Y3.5492 
G01 X1.4106 Y3.4873 
G01 X1.3298 Y3.4538 
G01 X1.2137 Y3.4538 
G01 X1.2137 Y2.8200 
G01 X1.2980 Y2.8200 
G01 X1.3789 Y2.7865 
G01 X1.4408 Y2.7246 
G01 X1.4742 Y2.6438 
G01 X1.4742 Y1.5857 
G01 X1.7643 Y1.2377 
G01 X1.7643 Y2.6438 
G01 X1.7977 Y2.7246 
G01 X1.8596 Y2.7865 
G01 X1.9405 Y2.8200 
G01 X2.1200 Y2.8200 
G01 X2.1200 Y3.4538 
G01 X1.9722 Y3.4538 
G01 X1.8914 Y3.4873 
G01 X1.8295 Y3.5492 
G01 X1.7960 Y3.6300 
G01 X1.7960 Y5.1076 
G01 X1.8295 Y5.1884 
G01 X1.8914 Y5.2503 
G01 X1.9722 Y5.2838 
G01 X2.9698 Y5.2838 
G01 X3.0506 Y5.2503 
G01 X3.1125 Y5.1884 
G01 X3.1460 Y5.1076 
G01 X3.1460 Y4.8650 
G01 X3.5823 Y4.8650 
G01 X3.5823 Y5.1943 
G01 X3.6157 Y5.2752 
G01 X3.6776 Y5.3371 
G01 X3.7585 Y5.3705 
G01 X4.0495 Y5.3705 
G01 X4.0568 Y5.5948 
G01 X4.0568 Y7.7362 
G01 X4.0542 Y7.7487 
G01 X4.0568 Y7.7913 
G01 X4.0568 Y7.8340 
G01 X4.0601 Y7.8464 
G01 X4.0608 Y7.8591 
G01 X4.0743 Y7.8996 
G01 X4.0854 Y7.9409 
G01 X4.0918 Y7.9519 
G01 X4.0958 Y7.9640 
G01 X4.1193 Y7.9997 
G01 X4.1407 Y8.0366 
G01 X4.1497 Y8.0457 
G01 X4.1567 Y8.0563 
G01 X4.1887 Y8.0846 
G01 X4.2189 Y8.1148 
G01 X4.2299 Y8.1212 
G01 X4.2395 Y8.1297 
G01 X4.2776 Y8.1488 
G01 X4.3146 Y8.1701 
G01 X4.3270 Y8.1734 
G01 X4.3384 Y8.1791 
G01 X4.3802 Y8.1877 
G01 X4.4215 Y8.1987 
G01 X4.4342 Y8.1987 
G01 X4.6528 Y8.2435 
G01 X3.7310 Y9.1653 
G01 X2.5187 Y9.1653 
G01 X2.5187 Y8.8978 
G01 X2.4899 Y8.7902 
G01 X2.4341 Y8.6936 
G01 X2.3554 Y8.6149 
G01 X2.2588 Y8.5591 
G01 X2.1512 Y8.5303 
G01 X2.1420 Y8.5303 
G01 X2.1420 Y6.3297 
G01 X2.1085 Y6.2489 
G01 X2.0466 Y6.1870 
G01 X1.9658 Y6.1535 
G01 X-0.0218 Y6.1535 
G01 X-0.1026 Y6.1870 
G01 X-0.1645 Y6.2489 
G01 X-0.1980 Y6.3297 
G01 X-0.1980 Y7.3890 
G01 X-0.2035 Y7.4060 
G01 X-0.2327 Y7.5902 
G01 X-0.2327 Y14.8888 
G01 X-0.2035 Y15.0730 
G01 X-0.1980 Y15.0900 
G01 X-0.1980 Y16.2173 
G01 X-0.1645 Y16.2981 
G01 X-0.1026 Y16.3600 
G01 X-0.0218 Y16.3935 
G01 X1.9658 Y16.3935 
G01 X2.0466 Y16.3600 
G01 X2.1085 Y16.2981 
G01 X2.1420 Y16.2173 
G01 X2.1420 Y14.1392 
G01 X2.1512 Y14.1392 
G01 X2.2588 Y14.1104 
G01 X2.3554 Y14.0546 
G01 X2.4341 Y13.9758 
G01 X2.4899 Y13.8793 
G01 X2.5187 Y13.7717 
G01 X2.5187 Y10.3927 
G01 X2.9020 Y10.3927 
G01 X2.9020 Y10.8673 
G01 X2.9355 Y10.9481 
G01 X2.9020 Y11.0297 
G01 X2.9020 Y11.5173 
G01 X2.9355 Y11.5981 
G01 X2.9020 Y11.6797 
G01 X2.9020 Y12.1673 
G01 X2.9355 Y12.2481 
G01 X2.9020 Y12.3297 
G01 X2.9020 Y12.4942 
G01 X2.8788 Y12.5808 
G01 X2.8788 Y13.0097 
G01 X2.9076 Y13.1173 
G01 X2.9634 Y13.2139 
G01 X3.0421 Y13.2926 
G01 X3.1387 Y13.3484 
G01 X3.2463 Y13.3772 
G01 X3.9461 Y13.3772 
G01 X5.4521 Y16.0416 
G01 X5.4527 Y16.0440 
G01 X5.4858 Y16.1012 
G01 X5.5182 Y16.1587 
G01 X5.5199 Y16.1604 
G01 X5.5211 Y16.1625 
G01 X5.5678 Y16.2092 
G01 X5.6142 Y16.2564 
G01 X5.6163 Y16.2576 
G01 X5.6180 Y16.2594 
G01 X5.6752 Y16.2924 
G01 X5.7321 Y16.3260 
G01 X5.7344 Y16.3266 
G01 X5.7365 Y16.3278 
G01 X5.8003 Y16.3449 
G01 X5.8640 Y16.3626 
G01 X5.8665 Y16.3626 
G01 X5.8688 Y16.3632 
G01 X5.9349 Y16.3632 
G01 X6.0009 Y16.3638 
G01 X6.0033 Y16.3632 
G01 X8.1325 Y16.3632 
G01 X8.1416 Y16.3654 
G01 X8.2008 Y16.3632 
G01 X8.2600 Y16.3632 
G01 X8.2691 Y16.3608 
G01 X8.2785 Y16.3605 
G01 X8.3351 Y16.3431 
G01 X8.3922 Y16.3278 
G01 X8.4004 Y16.3231 
G01 X8.4094 Y16.3203 
G01 X8.4596 Y16.2889 
G01 X8.5108 Y16.2594 
G01 X8.5174 Y16.2527 
G01 X8.5254 Y16.2477 
G01 X8.5658 Y16.2043 
G01 X8.6076 Y16.1625 
G01 X8.6123 Y16.1544 
G01 X9.2049 Y15.5178 
G01 X9.7670 Y15.5178 
G01 X9.8479 Y15.4844 
G01 X9.8627 Y15.4695 
G01 X17.1179 Y15.4695 
G01 X17.1459 Y15.4731 
G01 X17.1730 Y15.4695 
G01 X17.2003 Y15.4695 
G01 X17.2275 Y15.4622 
G01 X17.2555 Y15.4585 
G01 X17.2807 Y15.4479 
G01 X17.3071 Y15.4409 
G01 X17.3315 Y15.4268 
G01 X17.3576 Y15.4159 
G01 X17.3792 Y15.3992 
G01 X17.4029 Y15.3856 
G01 X17.4228 Y15.3656 
G01 X17.4452 Y15.3484 
G01 X17.4618 Y15.3267 
G01 X17.4811 Y15.3074 
G01 X17.4952 Y15.2830 
G01 X17.5123 Y15.2605 
G01 X17.5227 Y15.2353 
G01 X17.5364 Y15.2116 
G01 X17.5437 Y15.1844 
G01 X17.8480 Y14.4453 
G01 X19.6042 Y14.4453 
G01 X19.6851 Y14.4118 
G01 X19.7470 Y14.3499 
G01 X19.7556 Y14.3291 
G01 X20.4361 Y14.1197 
G01 X20.4821 Y14.1074 
G01 X20.4889 Y14.1035 
G01 X20.4964 Y14.1012 
G01 X20.5367 Y14.0759 
G01 X20.5779 Y14.0521 
G01 X20.5834 Y14.0465 
G01 X20.5900 Y14.0424 
G01 X20.6224 Y14.0076 
G01 X20.6561 Y13.9739 
G01 X20.6600 Y13.9671 
G01 X20.6653 Y13.9614 
G01 X20.6876 Y13.9193 
G01 X20.7114 Y13.8781 
G01 X20.7134 Y13.8706 
G01 X20.7171 Y13.8636 
G01 X20.7277 Y13.8172 
G01 X20.7400 Y13.7713 
G01 X20.7400 Y13.7635 
G01 X20.7417 Y13.7558 
G01 X20.7400 Y13.7083 
G01 X20.7400 Y3.7271 
G01 X20.7423 Y3.7161 
G01 X20.7400 Y3.6720 
G01 X20.7400 Y3.6277 
G01 X20.7371 Y3.6169 
G01 X20.7365 Y3.6057 
G01 X20.7228 Y3.5636 
G01 X20.7114 Y3.5209 
G01 X20.7058 Y3.5112 
G01 X20.7023 Y3.5005 
G01 X20.6782 Y3.4634 
G01 X20.6561 Y3.4251 
G01 X20.6482 Y3.4172 
G01 X20.6421 Y3.4078 
G01 X20.6092 Y3.3782 
G01 X20.5779 Y3.3469 
G01 X20.5682 Y3.3413 
G01 X19.7671 Y2.6204 
G01 X19.7875 Y2.5576 
G01 X19.8161 Y2.3773 
G01 X19.8161 Y2.1947 
G01 X19.7875 Y2.0144 
G01 X19.7311 Y1.8408 
G01 X19.6482 Y1.6781 
G01 X19.5409 Y1.5304 
G01 X19.4119 Y1.4014 
G01 X19.2642 Y1.2940 
G01 X19.1015 Y1.2112 
G01 X18.9279 Y1.1548 
G01 X18.7476 Y1.1262 
G01 X18.5650 Y1.1262 
G01 X18.3847 Y1.1548 
G01 X18.2790 Y1.1891 
G01 X17.5876 Y0.3331 
G01 X17.5763 Y0.3136 
G01 X17.5530 Y0.2903 
G01 X17.5322 Y0.2646 
G01 X17.5140 Y0.2513 
G01 X17.4981 Y0.2354 
G01 X17.4695 Y0.2189 
G01 X17.4429 Y0.1995 
G01 X17.4219 Y0.1914 
G01 X17.4024 Y0.1801 
G01 X17.3705 Y0.1716 
G01 X17.3397 Y0.1597 
G01 X17.3173 Y0.1573 
G01 X17.2955 Y0.1515 
G01 X17.2625 Y0.1515 
G01 X17.2297 Y0.1480 
G01 X17.2075 Y0.1515 
G01 X12.9965 Y0.1515 
G01 X12.9840 Y0.1489 
G01 X12.9600 Y0.1504 
G01 X12.9361 Y0.1483 
G01 X12.9175 Y0.1515 
G01 X12.8987 Y0.1515 
G01 X12.8864 Y0.1548 
G01 X12.8736 Y0.1556 
G01 X12.8508 Y0.1632 
G01 X12.8271 Y0.1673 
G01 X12.8101 Y0.1753 
G01 X12.7919 Y0.1801 
G01 X12.7865 Y0.1832 
G01 X1.7823 Y0.1832 
G01 X1.7633 Y0.1800 
G01 X1.7272 Y0.1832 
G01 X1.6910 Y0.1832 
G01 X1.6723 Y0.1882 
G01 X1.6532 Y0.1900 
G01 X1.6191 Y0.2025 
G01 X1.5841 Y0.2119 
G01 X1.5675 Y0.2215 
G01 X1.5494 Y0.2282 
G01 X1.5197 Y0.2490 
G01 X1.4884 Y0.2672 
G01 X1.4747 Y0.2808 
G01 X1.4590 Y0.2919 
G01 X1.4358 Y0.3197 
G01 X1.4102 Y0.3454 
G01 X1.4005 Y0.3620 
G01 X0.8772 Y0.9900 
G01 X0.3005 Y0.9900 
G01 X0.2196 Y1.0235 
G01 X0.1577 Y1.0854 
G00 Z1.0000 
G00 X3.0183 Y1.0232 
G01 Z-0.0700 F50.80 
G01 X12.1236 Y1.0232 F101.60 
G01 X11.6880 Y1.6438 
G01 X11.6807 Y1.6438 
G01 X11.6807 Y1.4327 
G01 X11.6473 Y1.3518 
G01 X11.5854 Y1.2899 
G01 X11.5045 Y1.2565 
G01 X10.2170 Y1.2565 
G01 X10.1361 Y1.2899 
G01 X10.0742 Y1.3518 
G01 X10.0407 Y1.4327 
G01 X10.0407 Y2.7202 
G01 X10.0742 Y2.8011 
G01 X10.1361 Y2.8630 
G01 X10.2170 Y2.8964 
G01 X11.5045 Y2.8964 
G01 X11.5854 Y2.8630 
G01 X11.6473 Y2.8011 
G01 X11.6807 Y2.7202 
G01 X11.6807 Y2.4837 
G01 X11.8876 Y2.4837 
G01 X11.9242 Y2.4870 
G01 X11.9427 Y2.4837 
G01 X11.9615 Y2.4837 
G01 X11.9970 Y2.4743 
G01 X12.0331 Y2.4679 
G01 X12.0502 Y2.4600 
G01 X12.0684 Y2.4551 
G01 X12.1001 Y2.4368 
G01 X12.1334 Y2.4213 
G01 X12.1478 Y2.4092 
G01 X12.1641 Y2.3998 
G01 X12.1901 Y2.3739 
G01 X12.2182 Y2.3503 
G01 X12.2290 Y2.3349 
G01 X12.2423 Y2.3216 
G01 X12.2607 Y2.2899 
G01 X12.4424 Y2.0310 
G01 X12.4165 Y2.1947 
G01 X12.4165 Y2.3773 
G01 X12.4451 Y2.5576 
G01 X12.5015 Y2.7312 
G01 X12.5580 Y2.8422 
G01 X11.8504 Y3.6847 
G01 X11.8242 Y3.7109 
G01 X11.8149 Y3.7268 
G01 X11.8031 Y3.7409 
G01 X11.7874 Y3.7745 
G01 X11.7689 Y3.8066 
G01 X11.7641 Y3.8244 
G01 X11.7563 Y3.8411 
G01 X11.7498 Y3.8777 
G01 X11.7402 Y3.9135 
G01 X11.7402 Y3.9319 
G01 X11.7370 Y3.9500 
G01 X11.7402 Y3.9870 
G01 X11.7402 Y6.4062 
G01 X11.1333 Y6.4062 
G01 X11.2017 Y6.3378 
G01 X11.2814 Y6.2186 
G01 X11.3363 Y6.0861 
G01 X11.3642 Y5.9455 
G01 X11.3642 Y5.8020 
G01 X11.3363 Y5.6614 
G01 X11.2814 Y5.5289 
G01 X11.2154 Y5.4301 
G01 X11.2569 Y5.4301 
G01 X11.3377 Y5.3966 
G01 X11.3996 Y5.3347 
G01 X11.4331 Y5.2539 
G01 X11.4331 Y3.9663 
G01 X11.3996 Y3.8855 
G01 X11.3377 Y3.8236 
G01 X11.2569 Y3.7901 
G01 X9.9693 Y3.7901 
G01 X9.8885 Y3.8236 
G01 X9.8266 Y3.8855 
G01 X9.7931 Y3.9663 
G01 X9.7931 Y5.2539 
G01 X9.8266 Y5.3347 
G01 X9.8885 Y5.3966 
G01 X9.9693 Y5.4301 
G01 X10.0571 Y5.4301 
G01 X9.9911 Y5.5289 
G01 X9.9362 Y5.6614 
G01 X9.9083 Y5.8020 
G01 X9.9083 Y5.9455 
G01 X9.9362 Y6.0861 
G01 X9.9911 Y6.2186 
G01 X10.0708 Y6.3378 
G01 X10.1392 Y6.4062 
G01 X4.8967 Y6.4062 
G01 X4.8967 Y5.6364 
G01 X4.8983 Y5.6297 
G01 X4.8967 Y5.5812 
G01 X4.8967 Y5.5327 
G01 X4.8950 Y5.5261 
G01 X4.8899 Y5.3705 
G01 X5.1460 Y5.3705 
G01 X5.2269 Y5.3371 
G01 X5.2888 Y5.2752 
G01 X5.3022 Y5.2426 
G01 X5.3157 Y5.2752 
G01 X5.3776 Y5.3371 
G01 X5.4585 Y5.3705 
G01 X6.8460 Y5.3705 
G01 X6.9269 Y5.3371 
G01 X6.9888 Y5.2752 
G01 X7.0222 Y5.1943 
G01 X7.0222 Y5.0237 
G01 X7.6931 Y5.0237 
G01 X7.6931 Y5.2539 
G01 X7.7266 Y5.3347 
G01 X7.7885 Y5.3966 
G01 X7.8693 Y5.4301 
G01 X9.1569 Y5.4301 
G01 X9.2377 Y5.3966 
G01 X9.2996 Y5.3347 
G01 X9.3331 Y5.2539 
G01 X9.3331 Y3.9663 
G01 X9.2996 Y3.8855 
G01 X9.2377 Y3.8236 
G01 X9.1569 Y3.7901 
G01 X7.8693 Y3.7901 
G01 X7.7885 Y3.8236 
G01 X7.7266 Y3.8855 
G01 X7.6931 Y3.9663 
G01 X7.6931 Y4.1837 
G01 X7.0222 Y4.1837 
G01 X7.0222 Y3.6068 
G01 X6.9888 Y3.5259 
G01 X6.9269 Y3.4640 
G01 X6.8460 Y3.4306 
G01 X5.4585 Y3.4306 
G01 X5.3776 Y3.4640 
G01 X5.3157 Y3.5259 
G01 X5.3022 Y3.5585 
G01 X5.2888 Y3.5259 
G01 X5.2269 Y3.4640 
G01 X5.1460 Y3.4306 
G01 X3.7585 Y3.4306 
G01 X3.6776 Y3.4640 
G01 X3.6157 Y3.5259 
G01 X3.5823 Y3.6068 
G01 X3.5823 Y4.0250 
G01 X3.1460 Y4.0250 
G01 X3.1460 Y3.6300 
G01 X3.1125 Y3.5492 
G01 X3.0506 Y3.4873 
G01 X2.9698 Y3.4538 
G01 X2.9600 Y3.4538 
G01 X2.9600 Y2.8109 
G01 X3.0189 Y2.7865 
G01 X3.0808 Y2.7246 
G01 X3.1142 Y2.6438 
G01 X3.1142 Y2.3250 
G01 X3.7156 Y2.3250 
G01 X3.7156 Y2.8004 
G01 X3.7491 Y2.8812 
G01 X3.8110 Y2.9431 
G01 X3.8918 Y2.9766 
G01 X5.2794 Y2.9766 
G01 X5.3602 Y2.9431 
G01 X5.4221 Y2.8812 
G01 X5.4356 Y2.8486 
G01 X5.4491 Y2.8812 
G01 X5.5110 Y2.9431 
G01 X5.5918 Y2.9766 
G01 X6.9794 Y2.9766 
G01 X7.0602 Y2.9431 
G01 X7.1221 Y2.8812 
G01 X7.1556 Y2.8004 
G01 X7.1556 Y2.4837 
G01 X7.9408 Y2.4837 
G01 X7.9408 Y2.7202 
G01 X7.9742 Y2.8011 
G01 X8.0361 Y2.8630 
G01 X8.1170 Y2.8964 
G01 X9.4045 Y2.8964 
G01 X9.4854 Y2.8630 
G01 X9.5473 Y2.8011 
G01 X9.5807 Y2.7202 
G01 X9.5807 Y1.4327 
G01 X9.5473 Y1.3518 
G01 X9.4854 Y1.2899 
G01 X9.4045 Y1.2565 
G01 X8.1170 Y1.2565 
G01 X8.0361 Y1.2899 
G01 X7.9742 Y1.3518 
G01 X7.9408 Y1.4327 
G01 X7.9408 Y1.6438 
G01 X7.1556 Y1.6438 
G01 X7.1556 Y1.2128 
G01 X7.1221 Y1.1320 
G01 X7.0602 Y1.0701 
G01 X6.9794 Y1.0366 
G01 X5.5918 Y1.0366 
G01 X5.5110 Y1.0701 
G01 X5.4491 Y1.1320 
G01 X5.4356 Y1.1646 
G01 X5.4221 Y1.1320 
G01 X5.3602 Y1.0701 
G01 X5.2794 Y1.0366 
G01 X3.8918 Y1.0366 
G01 X3.8110 Y1.0701 
G01 X3.7491 Y1.1320 
G01 X3.7156 Y1.2128 
G01 X3.7156 Y1.4850 
G01 X3.1142 Y1.4850 
G01 X3.1142 Y1.1662 
G01 X3.0808 Y1.0854 
G01 X3.0189 Y1.0235 
G00 Z1.0000 
G00 X4.8967 Y7.2462 
G01 Z-0.0700 F50.80 
G01 X5.1748 Y7.2462 F101.60 
G01 X5.1001 Y7.2772 
G01 X5.0382 Y7.3391 
G01 X5.0047 Y7.4199 
G01 X5.0047 Y7.4581 
G01 X4.8967 Y7.4360 
G01 X4.8967 Y7.2462 
G00 Z1.0000 
G00 X6.0747 Y7.2462 
G01 Z-0.0700 F50.80 
G01 X6.4748 Y7.2462 F101.60 
G01 X6.4001 Y7.2772 
G01 X6.3382 Y7.3391 
G01 X6.3048 Y7.4199 
G01 X6.3048 Y8.6075 
G01 X6.3109 Y8.6222 
G01 X6.0759 Y8.8929 
G01 X6.0724 Y8.8923 
G01 X5.9290 Y8.8923 
G01 X5.7884 Y8.9202 
G01 X5.6559 Y8.9751 
G01 X5.5367 Y9.0548 
G01 X5.4353 Y9.1562 
G01 X5.3556 Y9.2754 
G01 X5.3007 Y9.4079 
G01 X5.2728 Y9.5485 
G01 X5.2728 Y9.6920 
G01 X5.3007 Y9.8326 
G01 X5.3556 Y9.9651 
G01 X5.4353 Y10.0843 
G01 X5.5367 Y10.1857 
G01 X5.6559 Y10.2654 
G01 X5.7884 Y10.3203 
G01 X5.9290 Y10.3482 
G01 X6.0724 Y10.3482 
G01 X6.2131 Y10.3203 
G01 X6.3456 Y10.2654 
G01 X6.4648 Y10.1857 
G01 X6.5033 Y10.1473 
G01 X6.5033 Y10.8415 
G01 X6.4935 Y10.8513 
G01 X4.7420 Y10.8513 
G01 X4.7420 Y10.3797 
G01 X4.7085 Y10.2989 
G01 X4.7420 Y10.2173 
G01 X4.7420 Y9.8105 
G01 X4.7759 Y9.7518 
G01 X4.8047 Y9.6442 
G01 X4.8047 Y9.5759 
G01 X5.5969 Y8.7837 
G01 X6.0685 Y8.7837 
G01 X6.1494 Y8.7502 
G01 X6.2113 Y8.6883 
G01 X6.2447 Y8.6075 
G01 X6.2447 Y7.4199 
G01 X6.2113 Y7.3391 
G01 X6.1494 Y7.2772 
G01 X6.0747 Y7.2462 
G00 Z1.0000 
G00 X8.5747 Y7.2462 
G01 Z-0.0700 F50.80 
G01 X8.9181 Y7.2462 F101.60 
G01 X8.8893 Y7.2581 
G01 X8.8274 Y7.3200 
G01 X8.7940 Y7.4009 
G01 X8.7940 Y8.5884 
G01 X8.8274 Y8.6693 
G01 X8.8478 Y8.6896 
G01 X8.8478 Y8.9113 
G01 X7.8183 Y8.9113 
G01 X7.7107 Y8.9401 
G01 X7.6141 Y8.9959 
G01 X7.5354 Y9.0746 
G01 X6.9692 Y9.6409 
G01 X6.7287 Y9.6409 
G01 X6.7287 Y9.5485 
G01 X6.7083 Y9.4458 
G01 X7.2829 Y8.7837 
G01 X8.5685 Y8.7837 
G01 X8.6494 Y8.7502 
G01 X8.7113 Y8.6883 
G01 X8.7447 Y8.6075 
G01 X8.7447 Y7.4199 
G01 X8.7113 Y7.3391 
G01 X8.6494 Y7.2772 
G01 X8.5747 Y7.2462 
G00 Z1.0000 
G00 X11.1098 Y7.2462 
G01 Z-0.0700 F50.80 
G01 X11.4181 Y7.2462 F101.60 
G01 X11.3893 Y7.2581 
G01 X11.3274 Y7.3200 
G01 X11.2940 Y7.4009 
G01 X11.2940 Y8.5884 
G01 X11.3274 Y8.6693 
G01 X11.3893 Y8.7312 
G01 X11.4702 Y8.7646 
G01 X11.7085 Y8.7646 
G01 X11.7085 Y9.1800 
G01 X11.1320 Y9.5857 
G01 X10.5759 Y9.5857 
G01 X10.4950 Y9.6192 
G01 X10.4331 Y9.6811 
G01 X10.3996 Y9.7619 
G01 X10.3996 Y10.4591 
G01 X10.4331 Y10.5399 
G01 X10.4950 Y10.6018 
G01 X10.5759 Y10.6353 
G01 X12.8732 Y10.6353 
G01 X12.9541 Y10.6018 
G01 X13.0160 Y10.5399 
G01 X13.0494 Y10.4591 
G01 X13.0494 Y9.7619 
G01 X13.0160 Y9.6811 
G01 X12.9541 Y9.6192 
G01 X12.8732 Y9.5857 
G01 X12.5051 Y9.5857 
G01 X12.5199 Y9.5601 
G01 X12.5248 Y9.5417 
G01 X12.5328 Y9.5244 
G01 X12.5391 Y9.4885 
G01 X12.5485 Y9.4533 
G01 X12.5485 Y9.4342 
G01 X12.5518 Y9.4155 
G01 X12.5485 Y9.3792 
G01 X12.5485 Y7.8265 
G01 X12.5515 Y7.7873 
G01 X12.5485 Y7.7714 
G01 X12.5485 Y7.7552 
G01 X12.5428 Y7.7339 
G01 X12.5516 Y7.7186 
G01 X12.5523 Y7.7162 
G01 X12.5535 Y7.7141 
G01 X12.5665 Y7.6630 
G01 X12.5802 Y7.6118 
G01 X12.5802 Y7.6093 
G01 X12.5809 Y7.6070 
G01 X12.5802 Y7.5541 
G01 X12.5802 Y5.4348 
G01 X12.6108 Y5.4948 
G01 X12.7181 Y5.6425 
G01 X12.8472 Y5.7715 
G01 X12.9949 Y5.8788 
G01 X13.0738 Y5.9190 
G01 X13.0738 Y13.3248 
G01 X12.8741 Y13.3961 
G01 X11.3396 Y13.3957 
G01 X11.3159 Y13.3900 
G01 X11.2859 Y13.3907 
G01 X11.2560 Y13.3879 
G01 X11.2309 Y13.3921 
G01 X11.2053 Y13.3928 
G01 X11.1955 Y13.3957 
G01 X10.5759 Y13.3957 
G01 X10.4950 Y13.4292 
G01 X10.4331 Y13.4911 
G01 X10.3996 Y13.5719 
G01 X10.3996 Y14.2691 
G01 X10.4331 Y14.3499 
G01 X10.4950 Y14.4118 
G01 X10.5759 Y14.4453 
G01 X12.8732 Y14.4453 
G01 X12.9541 Y14.4118 
G01 X13.0160 Y14.3499 
G01 X13.0494 Y14.2691 
G01 X13.0494 Y14.2254 
G01 X13.6189 Y14.0220 
G01 X13.6559 Y14.0121 
G01 X13.6708 Y14.0035 
G01 X13.6871 Y13.9977 
G01 X13.7185 Y13.9759 
G01 X13.7516 Y13.9568 
G01 X13.7638 Y13.9446 
G01 X13.7781 Y13.9348 
G01 X13.8028 Y13.9057 
G01 X13.8298 Y13.8786 
G01 X13.8385 Y13.8637 
G01 X13.8496 Y13.8505 
G01 X13.8660 Y13.8160 
G01 X13.8851 Y13.7829 
G01 X13.8896 Y13.7662 
G01 X13.8970 Y13.7506 
G01 X13.9039 Y13.7130 
G01 X13.9137 Y13.6760 
G01 X13.9137 Y13.6588 
G01 X13.9169 Y13.6418 
G01 X13.9137 Y13.6037 
G01 X13.9137 Y6.0053 
G01 X14.0480 Y5.9617 
G01 X14.2106 Y5.8788 
G01 X14.3583 Y5.7715 
G01 X14.4874 Y5.6425 
G01 X14.5947 Y5.4948 
G01 X14.6776 Y5.3321 
G01 X14.7340 Y5.1585 
G01 X14.7625 Y4.9782 
G01 X14.7625 Y4.7956 
G01 X14.7340 Y4.6153 
G01 X14.6776 Y4.4417 
G01 X14.5947 Y4.2790 
G01 X14.4874 Y4.1313 
G01 X14.3583 Y4.0023 
G01 X14.2106 Y3.8950 
G01 X14.0480 Y3.8121 
G01 X13.8743 Y3.7557 
G01 X13.6940 Y3.7271 
G01 X13.5115 Y3.7271 
G01 X13.3312 Y3.7557 
G01 X13.1575 Y3.8121 
G01 X12.9949 Y3.8950 
G01 X12.8472 Y4.0023 
G01 X12.7181 Y4.1313 
G01 X12.6108 Y4.2790 
G01 X12.5802 Y4.3390 
G01 X12.5802 Y4.1217 
G01 X13.2005 Y3.3834 
G01 X13.3047 Y3.4172 
G01 X13.4850 Y3.4458 
G01 X13.6676 Y3.4458 
G01 X13.8479 Y3.4172 
G01 X14.0215 Y3.3608 
G01 X14.1842 Y3.2779 
G01 X14.3319 Y3.1706 
G01 X14.4609 Y3.0416 
G01 X14.5682 Y2.8939 
G01 X14.6511 Y2.7312 
G01 X14.7075 Y2.5576 
G01 X14.7361 Y2.3773 
G01 X14.7361 Y2.1947 
G01 X14.7075 Y2.0144 
G01 X14.6511 Y1.8408 
G01 X14.5682 Y1.6781 
G01 X14.4609 Y1.5304 
G01 X14.3319 Y1.4014 
G01 X14.1842 Y1.2940 
G01 X14.0215 Y1.2112 
G01 X13.8479 Y1.1548 
G01 X13.6676 Y1.1262 
G01 X13.4850 Y1.1262 
G01 X13.3047 Y1.1548 
G01 X13.1311 Y1.2112 
G01 X12.9684 Y1.2940 
G01 X12.9509 Y1.3068 
G01 X13.1679 Y0.9978 
G01 X13.1796 Y0.9946 
G01 X13.1850 Y0.9915 
G01 X17.0396 Y0.9915 
G01 X17.6372 Y1.7314 
G01 X17.5815 Y1.8408 
G01 X17.5251 Y2.0144 
G01 X17.4965 Y2.1947 
G01 X17.4965 Y2.3773 
G01 X17.5251 Y2.5576 
G01 X17.5815 Y2.7312 
G01 X17.6643 Y2.8939 
G01 X17.7717 Y3.0416 
G01 X17.9007 Y3.1706 
G01 X18.0484 Y3.2779 
G01 X18.2111 Y3.3608 
G01 X18.3847 Y3.4172 
G01 X18.5650 Y3.4458 
G01 X18.7476 Y3.4458 
G01 X18.9279 Y3.4172 
G01 X19.1015 Y3.3608 
G01 X19.2501 Y3.2851 
G01 X19.9000 Y3.8700 
G01 X19.9000 Y13.4058 
G01 X19.7177 Y13.4619 
G01 X19.6851 Y13.4292 
G01 X19.6042 Y13.3957 
G01 X17.3069 Y13.3957 
G01 X17.2260 Y13.4292 
G01 X17.1641 Y13.4911 
G01 X17.1306 Y13.5719 
G01 X17.1306 Y13.9813 
G01 X16.8637 Y14.6295 
G01 X9.9432 Y14.6295 
G01 X9.9432 Y13.7541 
G01 X9.9098 Y13.6732 
G01 X9.8479 Y13.6113 
G01 X9.7670 Y13.5778 
G01 X8.3795 Y13.5778 
G01 X8.2986 Y13.6113 
G01 X8.2367 Y13.6732 
G01 X8.2232 Y13.7058 
G01 X8.2098 Y13.6732 
G01 X8.1479 Y13.6113 
G01 X8.0670 Y13.5778 
G01 X7.8812 Y13.5778 
G01 X7.8812 Y13.5303 
G01 X8.0416 Y13.5303 
G01 X8.1225 Y13.4968 
G01 X8.1844 Y13.4349 
G01 X8.1978 Y13.4023 
G01 X8.2113 Y13.4349 
G01 X8.2732 Y13.4968 
G01 X8.3541 Y13.5303 
G01 X9.7416 Y13.5303 
G01 X9.8225 Y13.4968 
G01 X9.8844 Y13.4349 
G01 X9.9178 Y13.3541 
G01 X9.9178 Y13.1200 
G01 X10.4732 Y13.1200 
G01 X10.4950 Y13.1418 
G01 X10.5759 Y13.1753 
G01 X12.8732 Y13.1753 
G01 X12.9541 Y13.1418 
G01 X13.0160 Y13.0799 
G01 X13.0494 Y12.9991 
G01 X13.0494 Y12.3019 
G01 X13.0160 Y12.2211 
G01 X12.9541 Y12.1592 
G01 X12.8732 Y12.1257 
G01 X10.5759 Y12.1257 
G01 X10.4950 Y12.1592 
G01 X10.4331 Y12.2211 
G01 X10.4087 Y12.2800 
G01 X9.9178 Y12.2800 
G01 X9.9178 Y11.7665 
G01 X9.8844 Y11.6857 
G01 X9.8225 Y11.6238 
G01 X9.7416 Y11.5903 
G01 X8.3541 Y11.5903 
G01 X8.2732 Y11.6238 
G01 X8.2113 Y11.6857 
G01 X8.1978 Y11.7183 
G01 X8.1844 Y11.6857 
G01 X8.1225 Y11.6238 
G01 X8.0416 Y11.5903 
G01 X6.9516 Y11.5903 
G01 X6.9463 Y11.5864 
G01 X6.9519 Y11.5808 
G01 X8.0670 Y11.5808 
G01 X8.1479 Y11.5474 
G01 X8.2098 Y11.4855 
G01 X8.2232 Y11.4529 
G01 X8.2367 Y11.4855 
G01 X8.2986 Y11.5474 
G01 X8.3795 Y11.5808 
G01 X9.7670 Y11.5808 
G01 X9.8479 Y11.5474 
G01 X9.8552 Y11.5400 
G01 X10.3687 Y11.6769 
G01 X10.3996 Y11.6852 
G01 X10.3996 Y11.7291 
G01 X10.4331 Y11.8099 
G01 X10.4950 Y11.8718 
G01 X10.5759 Y11.9053 
G01 X12.8732 Y11.9053 
G01 X12.9541 Y11.8718 
G01 X13.0160 Y11.8099 
G01 X13.0494 Y11.7291 
G01 X13.0494 Y11.0319 
G01 X13.0160 Y10.9511 
G01 X12.9541 Y10.8892 
G01 X12.8732 Y10.8557 
G01 X11.1844 Y10.8557 
G01 X11.1678 Y10.8513 
G01 X11.1497 Y10.8513 
G01 X11.1319 Y10.8481 
G01 X11.0946 Y10.8513 
G01 X10.5325 Y10.8513 
G01 X9.9432 Y10.6941 
G01 X9.9432 Y9.8171 
G01 X9.9098 Y9.7362 
G01 X9.8479 Y9.6743 
G01 X9.7670 Y9.6409 
G01 X9.4361 Y9.6409 
G01 X9.5308 Y9.5461 
G01 X9.6096 Y9.4673 
G01 X9.6654 Y9.3708 
G01 X9.6942 Y9.2632 
G01 X9.6942 Y8.9129 
G01 X9.8424 Y8.7646 
G01 X11.0577 Y8.7646 
G01 X11.1386 Y8.7312 
G01 X11.2005 Y8.6693 
G01 X11.2339 Y8.5884 
G01 X11.2339 Y7.4009 
G01 X11.2005 Y7.3200 
G01 X11.1386 Y7.2581 
G01 X11.1098 Y7.2462 
G00 Z1.0000 
G00 X14.5025 Y6.4029 
G01 Z-0.0700 F50.80 
G01 X14.5025 Y11.5368 F101.60 
G01 X14.4956 Y11.5904 
G01 X14.5025 Y11.6409 
G01 X14.5025 Y11.6440 
G01 X14.5034 Y11.6472 
G01 X14.5106 Y11.7008 
G01 X14.5303 Y11.7478 
G01 X14.5311 Y11.7509 
G01 X14.5328 Y11.7537 
G01 X14.5537 Y11.8036 
G01 X14.5848 Y11.8439 
G01 X14.5864 Y11.8466 
G01 X14.5888 Y11.8490 
G01 X14.6219 Y11.8918 
G01 X14.6624 Y11.9226 
G01 X14.6646 Y11.9248 
G01 X14.6675 Y11.9265 
G01 X14.7105 Y11.9592 
G01 X14.7577 Y11.9786 
G01 X14.7604 Y11.9801 
G01 X14.7636 Y11.9810 
G01 X17.1306 Y12.9506 
G01 X17.1306 Y12.9991 
G01 X17.1641 Y13.0799 
G01 X17.2260 Y13.1418 
G01 X17.3069 Y13.1753 
G01 X19.6042 Y13.1753 
G01 X19.6851 Y13.1418 
G01 X19.7470 Y13.0799 
G01 X19.7804 Y12.9991 
G01 X19.7804 Y12.3019 
G01 X19.7470 Y12.2211 
G01 X19.6851 Y12.1592 
G01 X19.6042 Y12.1257 
G01 X17.3497 Y12.1257 
G01 X15.3425 Y11.3035 
G01 X15.3425 Y6.5314 
G01 X15.7845 Y5.9900 
G01 X15.8712 Y6.0181 
G01 X16.0515 Y6.0467 
G01 X16.2340 Y6.0467 
G01 X16.4143 Y6.0181 
G01 X16.5880 Y5.9617 
G01 X16.7506 Y5.8788 
G01 X16.8983 Y5.7715 
G01 X17.0274 Y5.6425 
G01 X17.1347 Y5.4948 
G01 X17.2176 Y5.3321 
G01 X17.2740 Y5.1585 
G01 X17.3025 Y4.9782 
G01 X17.3025 Y4.7956 
G01 X17.2740 Y4.6153 
G01 X17.2176 Y4.4417 
G01 X17.1347 Y4.2790 
G01 X17.0274 Y4.1313 
G01 X16.8983 Y4.0023 
G01 X16.7506 Y3.8950 
G01 X16.5880 Y3.8121 
G01 X16.4143 Y3.7557 
G01 X16.2340 Y3.7271 
G01 X16.0515 Y3.7271 
G01 X15.8712 Y3.7557 
G01 X15.6975 Y3.8121 
G01 X15.5349 Y3.8950 
G01 X15.3872 Y4.0023 
G01 X15.2581 Y4.1313 
G01 X15.1508 Y4.2790 
G01 X15.0679 Y4.4417 
G01 X15.0115 Y4.6153 
G01 X14.9830 Y4.7956 
G01 X14.9830 Y4.9782 
G01 X15.0115 Y5.1585 
G01 X15.0679 Y5.3321 
G01 X15.1330 Y5.4598 
G01 X14.6105 Y6.0997 
G01 X14.5864 Y6.1239 
G01 X14.5757 Y6.1424 
G01 X14.5622 Y6.1590 
G01 X14.5482 Y6.1901 
G01 X14.5311 Y6.2196 
G01 X14.5256 Y6.2403 
G01 X14.5168 Y6.2598 
G01 X14.5113 Y6.2935 
G01 X14.5025 Y6.3265 
G01 X14.5025 Y6.3479 
G01 X14.4991 Y6.3690 
G01 X14.5025 Y6.4029 
G00 Z1.0000 
G00 X15.7822 Y6.8923 
G01 Z-0.0700 F50.80 
G01 X15.7698 Y6.9104 F101.60 
G01 X15.7547 Y6.9263 
G01 X15.7386 Y6.9558 
G01 X15.7196 Y6.9835 
G01 X15.7123 Y7.0042 
G01 X15.7018 Y7.0235 
G01 X15.6940 Y7.0561 
G01 X15.6828 Y7.0877 
G01 X15.6811 Y7.1096 
G01 X15.6760 Y7.1310 
G01 X15.6768 Y7.1645 
G01 X15.6742 Y7.1980 
G01 X15.6782 Y7.2196 
G01 X15.7718 Y10.8685 
G01 X15.7689 Y10.8911 
G01 X15.7732 Y10.9236 
G01 X15.7741 Y10.9563 
G01 X15.7805 Y10.9781 
G01 X15.7835 Y11.0007 
G01 X15.7961 Y11.0310 
G01 X15.8054 Y11.0623 
G01 X15.8173 Y11.0818 
G01 X15.8261 Y11.1028 
G01 X15.8461 Y11.1288 
G01 X15.8631 Y11.1567 
G01 X15.8797 Y11.1724 
G01 X15.8936 Y11.1904 
G01 X15.9196 Y11.2103 
G01 X15.9433 Y11.2328 
G01 X15.9633 Y11.2437 
G01 X15.9815 Y11.2576 
G01 X16.0117 Y11.2700 
G01 X16.0405 Y11.2857 
G01 X16.0626 Y11.2910 
G01 X17.0787 Y11.7094 
G01 X17.0949 Y11.7196 
G01 X17.1296 Y11.7303 
G01 X17.1315 Y11.7311 
G01 X17.1641 Y11.8099 
G01 X17.2260 Y11.8718 
G01 X17.3069 Y11.9053 
G01 X19.6042 Y11.9053 
G01 X19.6851 Y11.8718 
G01 X19.7470 Y11.8099 
G01 X19.7804 Y11.7291 
G01 X19.7804 Y11.0319 
G01 X19.7470 Y10.9511 
G01 X19.6851 Y10.8892 
G01 X19.6042 Y10.8557 
G01 X17.3069 Y10.8557 
G01 X17.2594 Y10.8754 
G01 X16.6053 Y10.6060 
G01 X16.5222 Y7.3647 
G01 X18.1904 Y5.9377 
G01 X18.2375 Y5.9617 
G01 X18.4112 Y6.0181 
G01 X18.5915 Y6.0467 
G01 X18.7740 Y6.0467 
G01 X18.9543 Y6.0181 
G01 X19.1280 Y5.9617 
G01 X19.2906 Y5.8788 
G01 X19.4383 Y5.7715 
G01 X19.5674 Y5.6425 
G01 X19.6747 Y5.4948 
G01 X19.7576 Y5.3321 
G01 X19.8140 Y5.1585 
G01 X19.8425 Y4.9782 
G01 X19.8425 Y4.7956 
G01 X19.8140 Y4.6153 
G01 X19.7576 Y4.4417 
G01 X19.6747 Y4.2790 
G01 X19.5674 Y4.1313 
G01 X19.4383 Y4.0023 
G01 X19.2906 Y3.8950 
G01 X19.1280 Y3.8121 
G01 X18.9543 Y3.7557 
G01 X18.7740 Y3.7271 
G01 X18.5915 Y3.7271 
G01 X18.4112 Y3.7557 
G01 X18.2375 Y3.8121 
G01 X18.0749 Y3.8950 
G01 X17.9272 Y4.0023 
G01 X17.7981 Y4.1313 
G01 X17.6908 Y4.2790 
G01 X17.6079 Y4.4417 
G01 X17.5515 Y4.6153 
G01 X17.5230 Y4.7956 
G01 X17.5230 Y4.9782 
G01 X17.5515 Y5.1585 
G01 X17.6075 Y5.3309 
G01 X15.8496 Y6.8347 
G01 X15.8308 Y6.8461 
G01 X15.8077 Y6.8705 
G01 X15.7822 Y6.8923 
G00 Z1.0000 
G00 X17.5320 Y7.4734 
G01 Z-0.0700 F50.80 
G01 X17.4524 Y7.5927 F101.60 
G01 X17.3975 Y7.7251 
G01 X17.3695 Y7.8658 
G01 X17.3695 Y8.0092 
G01 X17.3975 Y8.1499 
G01 X17.4524 Y8.2823 
G01 X17.5320 Y8.4016 
G01 X17.6334 Y8.5030 
G01 X17.6775 Y8.5324 
G01 X17.6775 Y9.5857 
G01 X17.3069 Y9.5857 
G01 X17.2260 Y9.6192 
G01 X17.1641 Y9.6811 
G01 X17.1306 Y9.7619 
G01 X17.1306 Y10.4591 
G01 X17.1641 Y10.5399 
G01 X17.2260 Y10.6018 
G01 X17.3069 Y10.6353 
G01 X19.6042 Y10.6353 
G01 X19.6851 Y10.6018 
G01 X19.7470 Y10.5399 
G01 X19.7804 Y10.4591 
G01 X19.7804 Y9.7619 
G01 X19.7470 Y9.6811 
G01 X19.6851 Y9.6192 
G01 X19.6042 Y9.5857 
G01 X18.5175 Y9.5857 
G01 X18.5175 Y8.5324 
G01 X18.5616 Y8.5030 
G01 X18.6630 Y8.4016 
G01 X18.7426 Y8.2823 
G01 X18.7975 Y8.1499 
G01 X18.8255 Y8.0092 
G01 X18.8255 Y7.8658 
G01 X18.7975 Y7.7251 
G01 X18.7426 Y7.5927 
G01 X18.6630 Y7.4734 
G01 X18.5616 Y7.3720 
G01 X18.4423 Y7.2924 
G01 X18.3099 Y7.2375 
G01 X18.1692 Y7.2095 
G01 X18.0258 Y7.2095 
G01 X17.8851 Y7.2375 
G01 X17.7527 Y7.2924 
G01 X17.6334 Y7.3720 
G01 X17.5320 Y7.4734 
G00 Z1.0000 
G00 X17.0009 Y3.0416 
G01 Z-0.0700 F50.80 
G01 X17.1082 Y2.8939 F101.60 
G01 X17.1911 Y2.7312 
G01 X17.2475 Y2.5576 
G01 X17.2761 Y2.3773 
G01 X17.2761 Y2.1947 
G01 X17.2475 Y2.0144 
G01 X17.1911 Y1.8408 
G01 X17.1082 Y1.6781 
G01 X17.0009 Y1.5304 
G01 X16.8719 Y1.4014 
G01 X16.7242 Y1.2940 
G01 X16.5615 Y1.2112 
G01 X16.3879 Y1.1548 
G01 X16.2076 Y1.1262 
G01 X16.0250 Y1.1262 
G01 X15.8447 Y1.1548 
G01 X15.6711 Y1.2112 
G01 X15.5084 Y1.2940 
G01 X15.3607 Y1.4014 
G01 X15.2317 Y1.5304 
G01 X15.1243 Y1.6781 
G01 X15.0415 Y1.8408 
G01 X14.9851 Y2.0144 
G01 X14.9565 Y2.1947 
G01 X14.9565 Y2.3773 
G01 X14.9851 Y2.5576 
G01 X15.0415 Y2.7312 
G01 X15.1243 Y2.8939 
G01 X15.2317 Y3.0416 
G01 X15.3607 Y3.1706 
G01 X15.5084 Y3.2779 
G01 X15.6711 Y3.3608 
G01 X15.8447 Y3.4172 
G01 X16.0250 Y3.4458 
G01 X16.2076 Y3.4458 
G01 X16.3879 Y3.4172 
G01 X16.5615 Y3.3608 
G01 X16.7242 Y3.2779 
G01 X16.8719 Y3.1706 
G01 X17.0009 Y3.0416 
G00 Z1.0000 
G00 X8.2279 Y9.7577 
G01 Z-0.0700 F50.80 
G01 X8.2232 Y9.7688 F101.60 
G01 X8.2186 Y9.7577 
G01 X8.2279 Y9.7577 
G00 Z1.0000 
G00 X6.4779 Y12.5192 
G01 Z-0.0700 F50.80 
G01 X6.4779 Y12.6905 F101.60 
G01 X6.4383 Y12.6313 
G01 X6.4779 Y12.5192 
G00 Z1.0000 
G00 X6.4908 Y13.3853 
G01 Z-0.0700 F50.80 
G01 X6.5113 Y13.4349 F101.60 
G01 X6.5732 Y13.4968 
G01 X6.6541 Y13.5303 
G01 X7.0412 Y13.5303 
G01 X7.0412 Y13.5778 
G01 X6.6795 Y13.5778 
G01 X6.5986 Y13.6113 
G01 X6.5367 Y13.6732 
G01 X6.5033 Y13.7541 
G01 X6.5033 Y15.3232 
G01 X6.2406 Y15.3232 
G01 X4.8047 Y12.7827 
G01 X4.8047 Y12.5173 
G01 X4.7759 Y12.4096 
G01 X4.7420 Y12.3510 
G01 X4.7420 Y12.3297 
G01 X4.7405 Y12.3262 
G01 X5.6484 Y12.3262 
G01 X5.6411 Y12.3469 
G01 X5.6296 Y12.3492 
G01 X5.4972 Y12.4041 
G01 X5.3779 Y12.4838 
G01 X5.2765 Y12.5852 
G01 X5.1969 Y12.7044 
G01 X5.1420 Y12.8369 
G01 X5.1140 Y12.9775 
G01 X5.1140 Y13.1210 
G01 X5.1420 Y13.2616 
G01 X5.1969 Y13.3941 
G01 X5.2765 Y13.5133 
G01 X5.3779 Y13.6147 
G01 X5.4972 Y13.6944 
G01 X5.6296 Y13.7493 
G01 X5.7703 Y13.7772 
G01 X5.9137 Y13.7772 
G01 X6.0544 Y13.7493 
G01 X6.1868 Y13.6944 
G01 X6.3061 Y13.6147 
G01 X6.4075 Y13.5133 
G01 X6.4871 Y13.3941 
G01 X6.4908 Y13.3853 
G00 Z1.0000 
G00 X0.0482 Y0.9828 
G01 Z-0.0700 F50.80 
G01 X-0.0005 Y1.0672 F101.60 
G01 X-0.0257 Y1.1613 
G01 X-0.0257 Y2.6487 
G01 X-0.0005 Y2.7428 
G01 X0.0482 Y2.8272 
G01 X0.1171 Y2.8961 
G01 X0.2014 Y2.9448 
G01 X0.2238 Y2.9508 
G01 X0.2238 Y3.3345 
G01 X0.1488 Y3.3777 
G01 X0.0799 Y3.4466 
G01 X0.0312 Y3.5310 
G01 X0.0060 Y3.6251 
G01 X0.0060 Y5.1125 
G01 X0.0312 Y5.2066 
G01 X0.0799 Y5.2910 
G01 X0.1488 Y5.3599 
G01 X0.2332 Y5.4086 
G01 X0.3273 Y5.4338 
G01 X1.3347 Y5.4338 
G01 X1.4288 Y5.4086 
G01 X1.5132 Y5.3599 
G01 X1.5821 Y5.2910 
G01 X1.6308 Y5.2066 
G01 X1.6510 Y5.1312 
G01 X1.6712 Y5.2066 
G01 X1.7199 Y5.2910 
G01 X1.7888 Y5.3599 
G01 X1.8732 Y5.4086 
G01 X1.9673 Y5.4338 
G01 X2.9747 Y5.4338 
G01 X3.0688 Y5.4086 
G01 X3.1532 Y5.3599 
G01 X3.2221 Y5.2910 
G01 X3.2708 Y5.2066 
G01 X3.2960 Y5.1125 
G01 X3.2960 Y5.0150 
G01 X3.4322 Y5.0150 
G01 X3.4322 Y5.1993 
G01 X3.4575 Y5.2934 
G01 X3.5062 Y5.3777 
G01 X3.5751 Y5.4466 
G01 X3.6594 Y5.4953 
G01 X3.7535 Y5.5205 
G01 X3.9043 Y5.5205 
G01 X3.9068 Y5.5972 
G01 X3.9068 Y7.7210 
G01 X3.9033 Y7.7380 
G01 X3.9068 Y7.7958 
G01 X3.9068 Y7.8538 
G01 X3.9112 Y7.8705 
G01 X3.9123 Y7.8878 
G01 X3.9306 Y7.9428 
G01 X3.9456 Y7.9988 
G01 X3.9543 Y8.0138 
G01 X3.9597 Y8.0302 
G01 X3.9916 Y8.0785 
G01 X4.0206 Y8.1287 
G01 X4.0329 Y8.1410 
G01 X4.0424 Y8.1554 
G01 X4.0858 Y8.1939 
G01 X4.1268 Y8.2349 
G01 X4.1418 Y8.2435 
G01 X4.1547 Y8.2550 
G01 X4.2065 Y8.2809 
G01 X4.2567 Y8.3099 
G01 X4.2735 Y8.3144 
G01 X4.2889 Y8.3221 
G01 X4.3457 Y8.3337 
G01 X4.3494 Y8.3347 
G01 X3.6688 Y9.0153 
G01 X2.6687 Y9.0153 
G01 X2.6687 Y8.8780 
G01 X2.6296 Y8.7323 
G01 X2.5542 Y8.6015 
G01 X2.4474 Y8.4948 
G01 X2.3167 Y8.4194 
G01 X2.2920 Y8.4127 
G01 X2.2920 Y6.3248 
G01 X2.2668 Y6.2307 
G01 X2.2181 Y6.1463 
G01 X2.1492 Y6.0774 
G01 X2.0648 Y6.0287 
G01 X1.9707 Y6.0035 
G01 X-0.0267 Y6.0035 
G01 X-0.1208 Y6.0287 
G01 X-0.2052 Y6.0774 
G01 X-0.2741 Y6.1463 
G01 X-0.3228 Y6.2307 
G01 X-0.3480 Y6.3248 
G01 X-0.3480 Y7.3652 
G01 X-0.3498 Y7.3708 
G01 X-0.3827 Y7.5784 
G01 X-0.3827 Y14.9006 
G01 X-0.3498 Y15.1082 
G01 X-0.3480 Y15.1138 
G01 X-0.3480 Y16.2222 
G01 X-0.3228 Y16.3163 
G01 X-0.2741 Y16.4007 
G01 X-0.2052 Y16.4696 
G01 X-0.1208 Y16.5183 
G01 X-0.0267 Y16.5435 
G01 X1.9707 Y16.5435 
G01 X2.0648 Y16.5183 
G01 X2.1492 Y16.4696 
G01 X2.2181 Y16.4007 
G01 X2.2668 Y16.3163 
G01 X2.2920 Y16.2222 
G01 X2.2920 Y14.2568 
G01 X2.3167 Y14.2501 
G01 X2.4474 Y14.1747 
G01 X2.5542 Y14.0679 
G01 X2.6296 Y13.9372 
G01 X2.6687 Y13.7915 
G01 X2.6687 Y10.5427 
G01 X2.7520 Y10.5427 
G01 X2.7520 Y10.8722 
G01 X2.7724 Y10.9485 
G01 X2.7520 Y11.0248 
G01 X2.7520 Y11.5222 
G01 X2.7724 Y11.5985 
G01 X2.7520 Y11.6748 
G01 X2.7520 Y12.1722 
G01 X2.7724 Y12.2485 
G01 X2.7520 Y12.3248 
G01 X2.7520 Y12.4745 
G01 X2.7288 Y12.5610 
G01 X2.7288 Y13.0295 
G01 X2.7679 Y13.1752 
G01 X2.8433 Y13.3059 
G01 X2.9500 Y13.4127 
G01 X3.0808 Y13.4881 
G01 X3.2265 Y13.5272 
G01 X3.8586 Y13.5272 
G01 X5.3339 Y16.1374 
G01 X5.3435 Y16.1606 
G01 X5.3663 Y16.1947 
G01 X5.3864 Y16.2304 
G01 X5.4029 Y16.2494 
G01 X5.4168 Y16.2703 
G01 X5.4458 Y16.2993 
G01 X5.4726 Y16.3304 
G01 X5.4924 Y16.3459 
G01 X5.5102 Y16.3637 
G01 X5.5442 Y16.3864 
G01 X5.5765 Y16.4117 
G01 X5.5990 Y16.4230 
G01 X5.6199 Y16.4370 
G01 X5.6577 Y16.4527 
G01 X5.6943 Y16.4711 
G01 X5.7186 Y16.4779 
G01 X5.7418 Y16.4875 
G01 X5.7820 Y16.4955 
G01 X5.8215 Y16.5065 
G01 X5.8466 Y16.5083 
G01 X5.8713 Y16.5132 
G01 X5.9122 Y16.5132 
G01 X5.9531 Y16.5163 
G01 X5.9781 Y16.5132 
G01 X8.1376 Y16.5132 
G01 X8.1495 Y16.5152 
G01 X8.2035 Y16.5132 
G01 X8.2575 Y16.5132 
G01 X8.2693 Y16.5109 
G01 X8.2814 Y16.5105 
G01 X8.3339 Y16.4980 
G01 X8.3869 Y16.4875 
G01 X8.3981 Y16.4829 
G01 X8.4098 Y16.4801 
G01 X8.4589 Y16.4577 
G01 X8.5089 Y16.4370 
G01 X8.5189 Y16.4303 
G01 X8.5299 Y16.4253 
G01 X8.5737 Y16.3937 
G01 X8.6186 Y16.3637 
G01 X8.6271 Y16.3551 
G01 X8.6369 Y16.3481 
G01 X8.6737 Y16.3086 
G01 X8.7119 Y16.2703 
G01 X8.7186 Y16.2603 
G01 X9.2702 Y15.6678 
G01 X9.7720 Y15.6678 
G01 X9.8661 Y15.6426 
G01 X9.9061 Y15.6195 
G01 X17.1082 Y15.6195 
G01 X17.1462 Y15.6244 
G01 X17.1830 Y15.6195 
G01 X17.2200 Y15.6195 
G01 X17.2570 Y15.6096 
G01 X17.2950 Y15.6045 
G01 X17.3292 Y15.5903 
G01 X17.3650 Y15.5807 
G01 X17.3982 Y15.5615 
G01 X17.4335 Y15.5468 
G01 X17.4629 Y15.5242 
G01 X17.4950 Y15.5056 
G01 X17.5221 Y15.4785 
G01 X17.5524 Y15.4552 
G01 X17.5749 Y15.4257 
G01 X17.6011 Y15.3995 
G01 X17.6203 Y15.3663 
G01 X17.6435 Y15.3359 
G01 X17.6576 Y15.3016 
G01 X17.6762 Y15.2695 
G01 X17.6861 Y15.2325 
G01 X17.9485 Y14.5953 
G01 X19.6092 Y14.5953 
G01 X19.7033 Y14.5701 
G01 X19.7876 Y14.5214 
G01 X19.8529 Y14.4561 
G01 X20.4776 Y14.2639 
G01 X20.5400 Y14.2472 
G01 X20.5492 Y14.2418 
G01 X20.5593 Y14.2387 
G01 X20.6140 Y14.2044 
G01 X20.6700 Y14.1721 
G01 X20.6775 Y14.1646 
G01 X20.6865 Y14.1590 
G01 X20.7304 Y14.1117 
G01 X20.7761 Y14.0660 
G01 X20.7814 Y14.0568 
G01 X20.7886 Y14.0490 
G01 X20.8189 Y13.9919 
G01 X20.8512 Y13.9360 
G01 X20.8539 Y13.9258 
G01 X20.8589 Y13.9164 
G01 X20.8733 Y13.8534 
G01 X20.8900 Y13.7910 
G01 X20.8900 Y13.7804 
G01 X20.8924 Y13.7701 
G01 X20.8900 Y13.7056 
G01 X20.8900 Y3.7428 
G01 X20.8932 Y3.7280 
G01 X20.8900 Y3.6680 
G01 X20.8900 Y3.6080 
G01 X20.8861 Y3.5933 
G01 X20.8853 Y3.5781 
G01 X20.8667 Y3.5210 
G01 X20.8512 Y3.4630 
G01 X20.8436 Y3.4498 
G01 X20.8389 Y3.4354 
G01 X20.8061 Y3.3850 
G01 X20.7761 Y3.3330 
G01 X20.7654 Y3.3223 
G01 X20.7571 Y3.3095 
G01 X20.7125 Y3.2694 
G01 X20.6700 Y3.2269 
G01 X20.6568 Y3.2193 
G01 X19.9372 Y2.5716 
G01 X19.9661 Y2.3891 
G01 X19.9661 Y2.1829 
G01 X19.9338 Y1.9793 
G01 X19.8701 Y1.7832 
G01 X19.7765 Y1.5995 
G01 X19.6554 Y1.4327 
G01 X19.5096 Y1.2869 
G01 X19.3428 Y1.1658 
G01 X19.1591 Y1.0722 
G01 X18.9630 Y1.0085 
G01 X18.7594 Y0.9762 
G01 X18.5532 Y0.9762 
G01 X18.3496 Y1.0085 
G01 X18.3308 Y1.0146 
G01 X17.7116 Y0.2480 
G01 X17.6964 Y0.2215 
G01 X17.6647 Y0.1898 
G01 X17.6365 Y0.1550 
G01 X17.6118 Y0.1370 
G01 X17.5902 Y0.1154 
G01 X17.5514 Y0.0930 
G01 X17.5152 Y0.0666 
G01 X17.4867 Y0.0556 
G01 X17.4603 Y0.0403 
G01 X17.4170 Y0.0287 
G01 X17.3752 Y0.0126 
G01 X17.3448 Y0.0094 
G01 X17.3153 Y0.0015 
G01 X17.2705 Y0.0015 
G01 X17.2259 Y-0.0032 
G01 X17.1957 Y0.0015 
G01 X13.0117 Y0.0015 
G01 X12.9948 Y-0.0020 
G01 X12.9622 Y-0.0000 
G01 X12.9297 Y-0.0029 
G01 X12.9045 Y0.0015 
G01 X12.8790 Y0.0015 
G01 X12.8622 Y0.0060 
G01 X12.8449 Y0.0070 
G01 X12.8140 Y0.0173 
G01 X12.7818 Y0.0230 
G01 X12.7597 Y0.0333 
G01 X1.7951 Y0.0333 
G01 X1.7694 Y0.0288 
G01 X1.7204 Y0.0333 
G01 X1.6712 Y0.0333 
G01 X1.6460 Y0.0400 
G01 X1.6199 Y0.0424 
G01 X1.5737 Y0.0594 
G01 X1.5262 Y0.0721 
G01 X1.5036 Y0.0852 
G01 X1.4790 Y0.0942 
G01 X1.4389 Y0.1225 
G01 X1.3963 Y0.1471 
G01 X1.3778 Y0.1656 
G01 X1.3564 Y0.1807 
G01 X1.3249 Y0.2185 
G01 X1.2901 Y0.2533 
G01 X1.2771 Y0.2759 
G01 X0.8070 Y0.8400 
G01 X0.2955 Y0.8400 
G01 X0.2014 Y0.8652 
G01 X0.1171 Y0.9139 
G01 X0.0482 Y0.9828 
G00 Z1.0000 
G00 X1.6192 Y2.6674 
G01 Z-0.0700 F50.80 
G01 X1.6395 Y2.7428 F101.60 
G01 X1.6882 Y2.8272 
G01 X1.7571 Y2.8961 
G01 X1.8414 Y2.9448 
G01 X1.9355 Y2.9700 
G01 X1.9700 Y2.9700 
G01 X1.9700 Y3.3038 
G01 X1.9673 Y3.3038 
G01 X1.8732 Y3.3290 
G01 X1.7888 Y3.3777 
G01 X1.7199 Y3.4466 
G01 X1.6712 Y3.5310 
G01 X1.6510 Y3.6064 
G01 X1.6308 Y3.5310 
G01 X1.5821 Y3.4466 
G01 X1.5132 Y3.3777 
G01 X1.4288 Y3.3290 
G01 X1.3637 Y3.3116 
G01 X1.3637 Y2.9537 
G01 X1.3971 Y2.9448 
G01 X1.4814 Y2.8961 
G01 X1.5503 Y2.8272 
G01 X1.5990 Y2.7428 
G01 X1.6192 Y2.6674 
G00 Z1.0000 
G00 X3.2642 Y2.6487 
G01 Z-0.0700 F50.80 
G01 X3.2642 Y2.4750 F101.60 
G01 X3.5656 Y2.4750 
G01 X3.5656 Y2.8053 
G01 X3.5908 Y2.8994 
G01 X3.6395 Y2.9838 
G01 X3.7084 Y3.0527 
G01 X3.7928 Y3.1014 
G01 X3.8869 Y3.1266 
G01 X5.2843 Y3.1266 
G01 X5.3784 Y3.1014 
G01 X5.4356 Y3.0684 
G01 X5.4928 Y3.1014 
G01 X5.5869 Y3.1266 
G01 X6.9843 Y3.1266 
G01 X7.0784 Y3.1014 
G01 X7.1628 Y3.0527 
G01 X7.2317 Y2.9838 
G01 X7.2804 Y2.8994 
G01 X7.3056 Y2.8053 
G01 X7.3056 Y2.6337 
G01 X7.7908 Y2.6337 
G01 X7.7908 Y2.7252 
G01 X7.8160 Y2.8193 
G01 X7.8647 Y2.9036 
G01 X7.9336 Y2.9725 
G01 X8.0179 Y3.0212 
G01 X8.1120 Y3.0464 
G01 X9.4095 Y3.0464 
G01 X9.5036 Y3.0212 
G01 X9.5879 Y2.9725 
G01 X9.6568 Y2.9036 
G01 X9.7055 Y2.8193 
G01 X9.7307 Y2.7252 
G01 X9.7307 Y1.4277 
G01 X9.7055 Y1.3336 
G01 X9.6568 Y1.2493 
G01 X9.5879 Y1.1804 
G01 X9.5756 Y1.1732 
G01 X10.0459 Y1.1732 
G01 X10.0336 Y1.1804 
G01 X9.9647 Y1.2493 
G01 X9.9160 Y1.3336 
G01 X9.8908 Y1.4277 
G01 X9.8908 Y2.7252 
G01 X9.9160 Y2.8193 
G01 X9.9647 Y2.9036 
G01 X10.0336 Y2.9725 
G01 X10.1179 Y3.0212 
G01 X10.2120 Y3.0464 
G01 X11.5095 Y3.0464 
G01 X11.6036 Y3.0212 
G01 X11.6879 Y2.9725 
G01 X11.7568 Y2.9036 
G01 X11.8055 Y2.8193 
G01 X11.8307 Y2.7252 
G01 X11.8307 Y2.6337 
G01 X11.8810 Y2.6337 
G01 X11.9306 Y2.6381 
G01 X11.9557 Y2.6337 
G01 X11.9813 Y2.6337 
G01 X12.0294 Y2.6209 
G01 X12.0784 Y2.6123 
G01 X12.1016 Y2.6015 
G01 X12.1263 Y2.5949 
G01 X12.1694 Y2.5700 
G01 X12.2145 Y2.5490 
G01 X12.2341 Y2.5326 
G01 X12.2562 Y2.5199 
G01 X12.2830 Y2.4931 
G01 X12.2988 Y2.5927 
G01 X12.3625 Y2.7888 
G01 X12.3793 Y2.8218 
G01 X11.7397 Y3.5832 
G01 X11.7041 Y3.6188 
G01 X11.6916 Y3.6404 
G01 X11.6755 Y3.6596 
G01 X11.6542 Y3.7052 
G01 X11.6291 Y3.7487 
G01 X11.6226 Y3.7729 
G01 X11.6120 Y3.7956 
G01 X11.6033 Y3.8451 
G01 X11.5902 Y3.8937 
G01 X11.5902 Y3.9187 
G01 X11.5859 Y3.9434 
G01 X11.5902 Y3.9935 
G01 X11.5902 Y6.2562 
G01 X11.4282 Y6.2562 
G01 X11.4805 Y6.1299 
G01 X11.5142 Y5.9602 
G01 X11.5142 Y5.7873 
G01 X11.4805 Y5.6176 
G01 X11.4355 Y5.5089 
G01 X11.4403 Y5.5062 
G01 X11.5092 Y5.4373 
G01 X11.5579 Y5.3529 
G01 X11.5831 Y5.2588 
G01 X11.5831 Y3.9614 
G01 X11.5579 Y3.8673 
G01 X11.5092 Y3.7829 
G01 X11.4403 Y3.7140 
G01 X11.3559 Y3.6653 
G01 X11.2618 Y3.6401 
G01 X9.9644 Y3.6401 
G01 X9.8703 Y3.6653 
G01 X9.7859 Y3.7140 
G01 X9.7170 Y3.7829 
G01 X9.6683 Y3.8673 
G01 X9.6431 Y3.9614 
G01 X9.6431 Y5.2588 
G01 X9.6683 Y5.3529 
G01 X9.7170 Y5.4373 
G01 X9.7859 Y5.5062 
G01 X9.8281 Y5.5305 
G01 X9.7920 Y5.6176 
G01 X9.7583 Y5.7873 
G01 X9.7583 Y5.9602 
G01 X9.7920 Y6.1299 
G01 X9.8443 Y6.2562 
G01 X5.0467 Y6.2562 
G01 X5.0467 Y5.6537 
G01 X5.0489 Y5.6446 
G01 X5.0467 Y5.5788 
G01 X5.0467 Y5.5205 
G01 X5.1510 Y5.5205 
G01 X5.2451 Y5.4953 
G01 X5.3022 Y5.4623 
G01 X5.3594 Y5.4953 
G01 X5.4535 Y5.5205 
G01 X6.8510 Y5.5205 
G01 X6.9451 Y5.4953 
G01 X7.0294 Y5.4466 
G01 X7.0983 Y5.3777 
G01 X7.1470 Y5.2934 
G01 X7.1722 Y5.1993 
G01 X7.1722 Y5.1737 
G01 X7.5431 Y5.1737 
G01 X7.5431 Y5.2588 
G01 X7.5683 Y5.3529 
G01 X7.6170 Y5.4373 
G01 X7.6859 Y5.5062 
G01 X7.7703 Y5.5549 
G01 X7.8644 Y5.5801 
G01 X9.1618 Y5.5801 
G01 X9.2559 Y5.5549 
G01 X9.3403 Y5.5062 
G01 X9.4092 Y5.4373 
G01 X9.4579 Y5.3529 
G01 X9.4831 Y5.2588 
G01 X9.4831 Y3.9614 
G01 X9.4579 Y3.8673 
G01 X9.4092 Y3.7829 
G01 X9.3403 Y3.7140 
G01 X9.2559 Y3.6653 
G01 X9.1618 Y3.6401 
G01 X7.8644 Y3.6401 
G01 X7.7703 Y3.6653 
G01 X7.6859 Y3.7140 
G01 X7.6170 Y3.7829 
G01 X7.5683 Y3.8673 
G01 X7.5431 Y3.9614 
G01 X7.5431 Y4.0338 
G01 X7.1722 Y4.0338 
G01 X7.1722 Y3.6018 
G01 X7.1470 Y3.5077 
G01 X7.0983 Y3.4234 
G01 X7.0294 Y3.3545 
G01 X6.9451 Y3.3058 
G01 X6.8510 Y3.2805 
G01 X5.4535 Y3.2805 
G01 X5.3594 Y3.3058 
G01 X5.3022 Y3.3388 
G01 X5.2451 Y3.3058 
G01 X5.1510 Y3.2805 
G01 X3.7535 Y3.2805 
G01 X3.6594 Y3.3058 
G01 X3.5751 Y3.3545 
G01 X3.5062 Y3.4234 
G01 X3.4575 Y3.5077 
G01 X3.4322 Y3.6018 
G01 X3.4322 Y3.8750 
G01 X3.2960 Y3.8750 
G01 X3.2960 Y3.6251 
G01 X3.2708 Y3.5310 
G01 X3.2221 Y3.4466 
G01 X3.1532 Y3.3777 
G01 X3.1100 Y3.3528 
G01 X3.1100 Y2.9027 
G01 X3.1214 Y2.8961 
G01 X3.1903 Y2.8272 
G01 X3.2390 Y2.7428 
G01 X3.2642 Y2.6487 
G00 Z1.0000 
G00 X3.2642 Y1.3350 
G01 Z-0.0700 F50.80 
G01 X3.2642 Y1.1732 F101.60 
G01 X3.5749 Y1.1732 
G01 X3.5656 Y1.2079 
G01 X3.5656 Y1.3350 
G01 X3.2642 Y1.3350 
G00 Z1.0000 
G00 X7.3056 Y1.2079 
G01 Z-0.0700 F50.80 
G01 X7.2963 Y1.1732 F101.60 
G01 X7.9459 Y1.1732 
G01 X7.9336 Y1.1804 
G01 X7.8647 Y1.2493 
G01 X7.8160 Y1.3336 
G01 X7.7908 Y1.4277 
G01 X7.7908 Y1.4937 
G01 X7.3056 Y1.4937 
G01 X7.3056 Y1.2079 
G00 Z1.0000 
G00 X11.6756 Y1.1732 
G01 Z-0.0700 F50.80 
G01 X11.8350 Y1.1732 F101.60 
G01 X11.7680 Y1.2687 
G01 X11.7568 Y1.2493 
G01 X11.6879 Y1.1804 
G01 X11.6756 Y1.1732 
G00 Z1.0000 
G00 X14.2152 Y1.1415 
G01 Z-0.0700 F50.80 
G01 X15.4774 Y1.1415 F101.60 
G01 X15.4298 Y1.1658 
G01 X15.2630 Y1.2869 
G01 X15.1172 Y1.4327 
G01 X14.9961 Y1.5995 
G01 X14.9025 Y1.7832 
G01 X14.8463 Y1.9561 
G01 X14.7901 Y1.7832 
G01 X14.6965 Y1.5995 
G01 X14.5754 Y1.4327 
G01 X14.4296 Y1.2869 
G01 X14.2628 Y1.1658 
G01 X14.2152 Y1.1415 
G00 Z1.0000 
G00 X14.8463 Y2.6159 
G01 Z-0.0700 F50.80 
G01 X14.9025 Y2.7888 F101.60 
G01 X14.9961 Y2.9725 
G01 X15.1172 Y3.1393 
G01 X15.2630 Y3.2851 
G01 X15.4298 Y3.4062 
G01 X15.6135 Y3.4998 
G01 X15.8096 Y3.5635 
G01 X15.9674 Y3.5885 
G01 X15.8360 Y3.6094 
G01 X15.6400 Y3.6731 
G01 X15.4563 Y3.7667 
G01 X15.2895 Y3.8878 
G01 X15.1437 Y4.0336 
G01 X15.0225 Y4.2004 
G01 X14.9289 Y4.3841 
G01 X14.8727 Y4.5570 
G01 X14.8166 Y4.3841 
G01 X14.7230 Y4.2004 
G01 X14.6018 Y4.0336 
G01 X14.4560 Y3.8878 
G01 X14.2892 Y3.7667 
G01 X14.1055 Y3.6731 
G01 X13.9095 Y3.6094 
G01 X13.7516 Y3.5844 
G01 X13.8830 Y3.5635 
G01 X14.0791 Y3.4998 
G01 X14.2628 Y3.4062 
G01 X14.4296 Y3.2851 
G01 X14.5754 Y3.1393 
G01 X14.6965 Y2.9725 
G01 X14.7901 Y2.7888 
G01 X14.8463 Y2.6159 
G00 Z1.0000 
G00 X13.4274 Y3.5885 
G01 Z-0.0700 F50.80 
G01 X13.2960 Y3.6094 F101.60 
G01 X13.1730 Y3.6493 
G01 X13.2503 Y3.5573 
G01 X13.2696 Y3.5635 
G01 X13.4274 Y3.5885 
G00 Z1.0000 
G00 X16.2916 Y3.5844 
G01 Z-0.0700 F50.80 
G01 X16.4230 Y3.5635 F101.60 
G01 X16.6191 Y3.4998 
G01 X16.8028 Y3.4062 
G01 X16.9696 Y3.2851 
G01 X17.1154 Y3.1393 
G01 X17.2365 Y2.9725 
G01 X17.3301 Y2.7888 
G01 X17.3863 Y2.6159 
G01 X17.4425 Y2.7888 
G01 X17.5361 Y2.9725 
G01 X17.6572 Y3.1393 
G01 X17.8030 Y3.2851 
G01 X17.9698 Y3.4062 
G01 X18.1535 Y3.4998 
G01 X18.3496 Y3.5635 
G01 X18.5074 Y3.5885 
G01 X18.3760 Y3.6094 
G01 X18.1800 Y3.6731 
G01 X17.9963 Y3.7667 
G01 X17.8295 Y3.8878 
G01 X17.6837 Y4.0336 
G01 X17.5625 Y4.2004 
G01 X17.4689 Y4.3841 
G01 X17.4127 Y4.5570 
G01 X17.3566 Y4.3841 
G01 X17.2630 Y4.2004 
G01 X17.1418 Y4.0336 
G01 X16.9960 Y3.8878 
G01 X16.8292 Y3.7667 
G01 X16.6455 Y3.6731 
G01 X16.4495 Y3.6094 
G01 X16.2916 Y3.5844 
G00 Z1.0000 
G00 X18.8316 Y3.5844 
G01 Z-0.0700 F50.80 
G01 X18.9630 Y3.5635 F101.60 
G01 X19.1591 Y3.4998 
G01 X19.2263 Y3.4656 
G01 X19.7500 Y3.9369 
G01 X19.7500 Y4.1275 
G01 X19.6818 Y4.0336 
G01 X19.5360 Y3.8878 
G01 X19.3692 Y3.7667 
G01 X19.1855 Y3.6731 
G01 X18.9895 Y3.6094 
G01 X18.8316 Y3.5844 
G00 Z1.0000 
G00 X18.7858 Y6.1967 
G01 Z-0.0700 F50.80 
G01 X18.9895 Y6.1644 F101.60 
G01 X19.1855 Y6.1007 
G01 X19.3692 Y6.0071 
G01 X19.5360 Y5.8860 
G01 X19.6818 Y5.7402 
G01 X19.7500 Y5.6463 
G01 X19.7500 Y9.4879 
G01 X19.7033 Y9.4609 
G01 X19.6092 Y9.4357 
G01 X18.6675 Y9.4357 
G01 X18.6675 Y8.6092 
G01 X18.7795 Y8.4972 
G01 X18.8756 Y8.3534 
G01 X18.9418 Y8.1936 
G01 X18.9755 Y8.0240 
G01 X18.9755 Y7.8510 
G01 X18.9418 Y7.6814 
G01 X18.8756 Y7.5216 
G01 X18.7795 Y7.3778 
G01 X18.6572 Y7.2555 
G01 X18.5134 Y7.1594 
G01 X18.3536 Y7.0932 
G01 X18.1840 Y7.0595 
G01 X18.0110 Y7.0595 
G01 X17.8414 Y7.0932 
G01 X17.6816 Y7.1594 
G01 X17.5378 Y7.2555 
G01 X17.4155 Y7.3778 
G01 X17.3194 Y7.5216 
G01 X17.2532 Y7.6814 
G01 X17.2195 Y7.8510 
G01 X17.2195 Y8.0240 
G01 X17.2532 Y8.1936 
G01 X17.3194 Y8.3534 
G01 X17.4155 Y8.4972 
G01 X17.5275 Y8.6092 
G01 X17.5275 Y9.4357 
G01 X17.3019 Y9.4357 
G01 X17.2078 Y9.4609 
G01 X17.1235 Y9.5096 
G01 X17.0546 Y9.5785 
G01 X17.0059 Y9.6629 
G01 X16.9807 Y9.7570 
G01 X16.9807 Y10.4640 
G01 X17.0059 Y10.5581 
G01 X17.0442 Y10.6245 
G01 X16.7528 Y10.5045 
G01 X16.6740 Y7.4322 
G01 X18.2166 Y6.1126 
G01 X18.3760 Y6.1644 
G01 X18.5797 Y6.1967 
G01 X18.7858 Y6.1967 
G00 Z1.0000 
G00 X17.4339 Y5.2820 
G01 Z-0.0700 F50.80 
G01 X17.3753 Y5.3322 F101.60 
G01 X17.4127 Y5.2168 
G01 X17.4339 Y5.2820 
G00 Z1.0000 
G00 X16.3916 Y6.1736 
G01 Z-0.0700 F50.80 
G01 X15.7611 Y6.7130 F101.60 
G01 X15.7357 Y6.7285 
G01 X15.7043 Y6.7615 
G01 X15.6697 Y6.7911 
G01 X15.6528 Y6.8157 
G01 X15.6323 Y6.8373 
G01 X15.6106 Y6.8773 
G01 X15.5848 Y6.9149 
G01 X15.5749 Y6.9430 
G01 X15.5606 Y6.9692 
G01 X15.5500 Y7.0135 
G01 X15.5348 Y7.0564 
G01 X15.5325 Y7.0861 
G01 X15.5255 Y7.1151 
G01 X15.5267 Y7.1606 
G01 X15.5231 Y7.2060 
G01 X15.5286 Y7.2353 
G01 X15.6216 Y10.8608 
G01 X15.6176 Y10.8915 
G01 X15.6235 Y10.9355 
G01 X15.6246 Y10.9799 
G01 X15.6334 Y11.0096 
G01 X15.6375 Y11.0402 
G01 X15.6546 Y11.0812 
G01 X15.6672 Y11.1238 
G01 X15.6833 Y11.1502 
G01 X15.6952 Y11.1788 
G01 X15.7223 Y11.2139 
G01 X15.7455 Y11.2518 
G01 X15.7679 Y11.2731 
G01 X15.7868 Y11.2976 
G01 X15.8221 Y11.3246 
G01 X15.8466 Y11.3479 
G01 X15.4925 Y11.2028 
G01 X15.4925 Y6.5849 
G01 X15.8358 Y6.1644 
G01 X16.0397 Y6.1967 
G01 X16.2458 Y6.1967 
G01 X16.3916 Y6.1736 
G00 Z1.0000 
G00 X14.3913 Y6.1617 
G01 Z-0.0700 F50.80 
G01 X14.3838 Y6.1898 F101.60 
G01 X14.3719 Y6.2163 
G01 X14.3645 Y6.2620 
G01 X14.3525 Y6.3067 
G01 X14.3525 Y6.3358 
G01 X14.3478 Y6.3644 
G01 X14.3525 Y6.4105 
G01 X14.3525 Y11.5272 
G01 X14.3444 Y11.5910 
G01 X14.3525 Y11.6510 
G01 X14.3525 Y11.6638 
G01 X14.3560 Y11.6769 
G01 X14.3646 Y11.7406 
G01 X14.3880 Y11.7964 
G01 X14.3913 Y11.8088 
G01 X14.3981 Y11.8205 
G01 X14.4229 Y11.8798 
G01 X14.4600 Y11.9277 
G01 X14.4664 Y11.9387 
G01 X14.4760 Y11.9483 
G01 X14.5153 Y11.9992 
G01 X14.5635 Y12.0358 
G01 X14.5725 Y12.0449 
G01 X14.5843 Y12.0516 
G01 X14.6354 Y12.0906 
G01 X14.6914 Y12.1135 
G01 X14.7025 Y12.1199 
G01 X14.7156 Y12.1234 
G01 X16.9949 Y13.0571 
G01 X17.0059 Y13.0981 
G01 X17.0546 Y13.1825 
G01 X17.1235 Y13.2514 
G01 X17.1826 Y13.2855 
G01 X17.1235 Y13.3196 
G01 X17.0546 Y13.3885 
G01 X17.0059 Y13.4729 
G01 X16.9807 Y13.5670 
G01 X16.9807 Y13.9516 
G01 X16.7633 Y14.4795 
G01 X13.0985 Y14.4795 
G01 X13.1255 Y14.4525 
G01 X13.1742 Y14.3681 
G01 X13.1825 Y14.3372 
G01 X13.6636 Y14.1653 
G01 X13.7138 Y14.1519 
G01 X13.7341 Y14.1402 
G01 X13.7561 Y14.1323 
G01 X13.7988 Y14.1028 
G01 X13.8437 Y14.0769 
G01 X13.8603 Y14.0603 
G01 X13.8796 Y14.0470 
G01 X13.9132 Y14.0074 
G01 X13.9499 Y13.9707 
G01 X13.9616 Y13.9504 
G01 X13.9768 Y13.9326 
G01 X13.9990 Y13.8857 
G01 X14.0249 Y13.8408 
G01 X14.0310 Y13.8181 
G01 X14.0410 Y13.7969 
G01 X14.0503 Y13.7459 
G01 X14.0637 Y13.6958 
G01 X14.0637 Y13.6724 
G01 X14.0680 Y13.6493 
G01 X14.0637 Y13.5976 
G01 X14.0637 Y6.1143 
G01 X14.1055 Y6.1007 
G01 X14.2892 Y6.0071 
G01 X14.4560 Y5.8860 
G01 X14.6018 Y5.7402 
G01 X14.7230 Y5.5734 
G01 X14.8166 Y5.3897 
G01 X14.8727 Y5.2168 
G01 X14.9289 Y5.3897 
G01 X14.9549 Y5.4407 
G01 X14.4991 Y5.9990 
G01 X14.4664 Y6.0318 
G01 X14.4518 Y6.0569 
G01 X14.4335 Y6.0794 
G01 X14.4145 Y6.1216 
G01 X14.3913 Y6.1617 
G00 Z1.0000 
G00 X12.9238 Y6.0110 
G01 Z-0.0700 F50.80 
G01 X12.9238 Y9.4479 F101.60 
G01 X12.8782 Y9.4357 
G01 X12.7005 Y9.4357 
G01 X12.7029 Y9.4217 
G01 X12.6985 Y9.3724 
G01 X12.6985 Y7.8322 
G01 X12.7026 Y7.7790 
G01 X12.6985 Y7.7574 
G01 X12.6985 Y7.7524 
G01 X12.7117 Y7.7008 
G01 X12.7302 Y7.6315 
G01 X12.7302 Y7.6282 
G01 X12.7311 Y7.6250 
G01 X12.7302 Y7.5532 
G01 X12.7302 Y5.8667 
G01 X12.7495 Y5.8860 
G01 X12.9163 Y6.0071 
G01 X12.9238 Y6.0110 
G00 Z1.0000 
G00 X11.5585 Y8.9146 
G01 Z-0.0700 F50.80 
G01 X11.5585 Y9.1021 F101.60 
G01 X11.0845 Y9.4357 
G01 X10.5709 Y9.4357 
G01 X10.4768 Y9.4609 
G01 X10.3925 Y9.5096 
G01 X10.3236 Y9.5785 
G01 X10.2749 Y9.6629 
G01 X10.2497 Y9.7570 
G01 X10.2497 Y10.4640 
G01 X10.2749 Y10.5581 
G01 X10.3221 Y10.6399 
G01 X10.0932 Y10.5789 
G01 X10.0932 Y9.8121 
G01 X10.0680 Y9.7180 
G01 X10.0193 Y9.6337 
G01 X9.9504 Y9.5648 
G01 X9.8661 Y9.5161 
G01 X9.7720 Y9.4909 
G01 X9.7693 Y9.4909 
G01 X9.8051 Y9.4287 
G01 X9.8442 Y9.2830 
G01 X9.8442 Y8.9750 
G01 X9.9046 Y8.9146 
G01 X11.0627 Y8.9146 
G01 X11.1568 Y8.8894 
G01 X11.2411 Y8.8407 
G01 X11.2639 Y8.8179 
G01 X11.2868 Y8.8407 
G01 X11.3711 Y8.8894 
G01 X11.4652 Y8.9146 
G01 X11.5585 Y8.9146 
G00 Z1.0000 
G00 X7.4642 Y8.9337 
G01 Z-0.0700 F50.80 
G01 X7.4153 Y8.9825 F101.60 
G01 X6.9070 Y9.4909 
G01 X6.8702 Y9.4909 
G01 X6.8698 Y9.4886 
G01 X7.3514 Y8.9337 
G01 X7.4642 Y8.9337 
G00 Z1.0000 
G00 X6.3533 Y10.4246 
G01 Z-0.0700 F50.80 
G01 X6.3533 Y10.7012 F101.60 
G01 X4.8920 Y10.7012 
G01 X4.8920 Y10.3748 
G01 X4.8716 Y10.2985 
G01 X4.8920 Y10.2222 
G01 X4.8920 Y9.8507 
G01 X4.9156 Y9.8097 
G01 X4.9547 Y9.6640 
G01 X4.9547 Y9.6381 
G01 X5.1386 Y9.4542 
G01 X5.1227 Y9.5338 
G01 X5.1227 Y9.7067 
G01 X5.1565 Y9.8764 
G01 X5.2227 Y10.0361 
G01 X5.3188 Y10.1799 
G01 X5.4411 Y10.3022 
G01 X5.5849 Y10.3983 
G01 X5.7446 Y10.4645 
G01 X5.9143 Y10.4982 
G01 X6.0872 Y10.4982 
G01 X6.2569 Y10.4645 
G01 X6.3533 Y10.4246 
G00 Z1.0000 
G00 X5.1733 Y12.4762 
G01 Z-0.0700 F50.80 
G01 X5.1600 Y12.4896 F101.60 
G01 X5.0639 Y12.6334 
G01 X4.9977 Y12.7931 
G01 X4.9939 Y12.8126 
G01 X4.9547 Y12.7433 
G01 X4.9547 Y12.4975 
G01 X4.9490 Y12.4762 
G01 X5.1733 Y12.4762 
G00 Z1.0000 
G00 X5.6072 Y13.8978 
G01 Z-0.0700 F50.80 
G01 X5.7555 Y13.9272 F101.60 
G01 X5.9285 Y13.9272 
G01 X6.0981 Y13.8935 
G01 X6.2579 Y13.8273 
G01 X6.3533 Y13.7636 
G01 X6.3533 Y15.1732 
G01 X6.3282 Y15.1732 
G01 X5.6072 Y13.8978 
G00 Z1.0000 
G00 X10.0932 Y13.7491 
G01 Z-0.0700 F50.80 
G01 X10.0680 Y13.6550 F101.60 
G01 X10.0193 Y13.5707 
G01 X9.9900 Y13.5414 
G01 X9.9939 Y13.5375 
G01 X10.0426 Y13.4531 
G01 X10.0678 Y13.3590 
G01 X10.0678 Y13.2700 
G01 X10.4247 Y13.2700 
G01 X10.4516 Y13.2855 
G01 X10.3925 Y13.3196 
G01 X10.3236 Y13.3885 
G01 X10.2749 Y13.4729 
G01 X10.2497 Y13.5670 
G01 X10.2497 Y14.2740 
G01 X10.2749 Y14.3681 
G01 X10.3236 Y14.4525 
G01 X10.3506 Y14.4795 
G01 X10.0932 Y14.4795 
G01 X10.0932 Y13.7491 
G00 Z1.0000 
G00 X10.0678 Y12.1300 
G01 Z-0.0700 F50.80 
G01 X10.0678 Y11.7616 F101.60 
G01 X10.0651 Y11.7512 
G01 X10.2688 Y11.8055 
G01 X10.2749 Y11.8281 
G01 X10.3236 Y11.9125 
G01 X10.3925 Y11.9814 
G01 X10.4516 Y12.0155 
G01 X10.3925 Y12.0496 
G01 X10.3236 Y12.1185 
G01 X10.3169 Y12.1300 
G01 X10.0678 Y12.1300 
G00 Z1.0000 
G00 X19.7285 Y12.0155 
G01 Z-0.0700 F50.80 
G01 X19.7500 Y12.0031 F101.60 
G01 X19.7500 Y12.0279 
G01 X19.7285 Y12.0155 
G00 Z1.0000 
G00 X19.7285 Y10.7455 
G01 Z-0.0700 F50.80 
G01 X19.7500 Y10.7331 F101.60 
G01 X19.7500 Y10.7579 
G01 X19.7285 Y10.7455 
G00 Z1.0000 
G00 X19.7285 Y13.2855 
G01 Z-0.0700 F50.80 
G01 X19.7500 Y13.2731 F101.60 
G01 X19.7500 Y13.2950 
G01 X19.7467 Y13.2960 
G01 X19.7285 Y13.2855 
G00 Z1.0000 
G00 X17.3863 Y1.9561 
G01 Z-0.0700 F50.80 
G01 X17.3301 Y1.7832 F101.60 
G01 X17.2365 Y1.5995 
G01 X17.1154 Y1.4327 
G01 X16.9696 Y1.2869 
G01 X16.8028 Y1.1658 
G01 X16.7552 Y1.1415 
G01 X16.9679 Y1.1415 
G01 X17.4594 Y1.7500 
G01 X17.4425 Y1.7832 
G01 X17.3863 Y1.9561 
G00 Z1.0000 
G00 Z5.0000 
M05
M02
